ThEpiCake/Robot_Navigation_and_Control/results/free_response.csv
t,q1,q2,q3,q4,q5,q6,qd1,qd2,qd3,qd4,qd5,qd6
0.0,0.0,0.05,0.0504,0.0,0.0,0.0,0.0,0.0,0.0,0.0,0.0,0.0
0.001,0.0,0.049995095,0.0504,0.0,2.5814575792588524e-21,0.0,0.0,-0.00981,2.03257253803644e-18,0.0,5.1629151585177055e-18,0.0
0.002,0.0,0.049980380000000005,0.0504,0.0,1.032583031703541e-20,0.0,0.0,-0.01962,4.06514507607288e-18,0.0,1.0325830317035411e-17,0.0
0.003,0.0,0.04995585500000001,0.0504,0.0,2.3233118213329674e-20,0.0,0.0,-0.029429999999999998,6.0977176141093195e-18,0.0,1.5488745475553116e-17,0.0
0.004,0.0,0.049921520000000004,0.0504,0.0,4.130332126814164e-20,0.0,0.0,-0.03924,8.13029015214576e-18,0.0,2.0651660634070822e-17,0.0
0.005,0.0,0.049877375,0.0504,0.0,6.453643948147131e-20,0.0,0.0,-0.049049999999999996,1.0162862690182199e-17,0.0,2.5814575792588528e-17,0.0
0.006,0.0,0.04982342,0.0504,0.0,9.293247285331868e-20,0.0,0.0,-0.058859999999999996,1.2195435228218639e-17,0.0,3.097749095110623e-17,0.0
0.007,0.0,0.049759655,0.0504,0.0,1.2649142138368375e-19,0.0,0.0,-0.06867,1.422800776625508e-17,0.0,3.6140406109623935e-17,0.0
0.008,0.0,0.04968608,0.0504,0.0,1.6521328507256653e-19,0.0,0.0,-0.07848,1.626058030429152e-17,0.0,4.130332126814164e-17,0.0
0.009000000000000001,0.0,0.049602695,0.0504,0.0,2.09098063919967e-19,0.0,0.0,-0.08829,1.829315284232796e-17,0.0,4.646623642665934e-17,0.0
0.010000000000000002,0.0,0.049509500000000005,0.0504,0.0,2.581457579258852e-19,0.0,0.0,-0.09809999999999999,2.0325725380364398e-17,0.0,5.1629151585177044e-17,0.0
0.011000000000000003,0.0,0.049406495,0.0504,0.0,3.1235636709032107e-19,0.0,0.0,-0.10790999999999999,2.2358297918400838e-17,0.0,5.679206674369475e-17,0.0
0.012000000000000004,0.0,0.04929368,0.0504,0.0,3.7172989141327464e-19,0.0,0.0,-0.11771999999999999,2.4390870456437278e-17,0.0,6.195498190221245e-17,0.0
0.013000000000000005,0.0,0.049171055,0.0504,0.0,4.362663308947459e-19,0.0,0.0,-0.12752999999999998,2.6423442994473718e-17,0.0,6.711789706073015e-17,0.0
0.014000000000000005,0.0,0.04903862,0.0504,0.0,5.05965685534735e-19,0.0,0.0,-0.13733999999999996,2.845601553251016e-17,0.0,7.228081221924786e-17,0.0
0.015000000000000006,0.0,0.048896375,0.0504,0.0,5.808279553332417e-19,0.0,0.0,-0.14714999999999995,3.0488588070546594e-17,0.0,7.744372737776556e-17,0.0
0.016000000000000007,0.0,0.04874432,0.0504,0.0,6.608531402902661e-19,0.0,0.0,-0.15695999999999993,3.252116060858304e-17,0.0,8.260664253628326e-17,0.0
0.017000000000000008,0.0,0.048582455000000004,0.0504,0.0,7.460412404058082e-19,0.0,0.0,-0.16676999999999992,3.455373314661948e-17,0.0,8.776955769480097e-17,0.0
0.01800000000000001,0.0,0.04841078,0.0504,0.0,8.36392255679868e-19,0.0,0.0,-0.1765799999999999,3.6586305684655923e-17,0.0,9.293247285331867e-17,0.0
0.01900000000000001,0.0,0.048229295,0.0504,0.0,9.319061861124455e-19,0.0,0.0,-0.1863899999999999,3.8618878222692366e-17,0.0,9.809538801183637e-17,0.0
0.02000000000000001,0.0,0.048038,0.0504,0.0,1.0325830317035408e-18,0.0,0.0,-0.19619999999999987,4.065145076072881e-17,0.0,1.0325830317035408e-16,0.0
0.02100000000000001,0.0,0.047836895,0.0504,0.0,1.1384227924531537e-18,0.0,0.0,-0.20600999999999986,4.268402329876525e-17,0.0,1.0842121832887178e-16,0.0
0.022000000000000013,0.0,0.04762598,0.0504,0.0,1.2494254683612843e-18,0.0,0.0,-0.21581999999999985,4.4716595836801695e-17,0.0,1.135841334873895e-16,0.0
0.023000000000000013,0.0,0.047405255,0.0504,0.0,1.3655910594279327e-18,0.0,0.0,-0.22562999999999983,4.674916837483814e-17,0.0,1.187470486459072e-16,0.0
0.024000000000000014,0.0,0.04717472,0.0504,0.0,1.4869195656530987e-18,0.0,0.0,-0.23543999999999982,4.878174091287458e-17,0.0,1.2390996380442493e-16,0.0
0.025000000000000015,0.0,0.046934375,0.0504,0.0,1.6134109870367824e-18,0.0,0.0,-0.2452499999999998,5.0814313450911024e-17,0.0,1.2907287896294264e-16,0.0
0.026000000000000016,0.0,0.04668422,0.0504,0.0,1.7450653235789838e-18,0.0,0.0,-0.2550599999999998,5.2846885988947467e-17,0.0,1.3423579412146036e-16,0.0
0.027000000000000017,0.0,0.046424255,0.0504,0.0,1.881882575279703e-18,0.0,0.0,-0.2648699999999998,5.487945852698391e-17,0.0,1.3939870927997807e-16,0.0
0.028000000000000018,0.0,0.04615448,0.0504,0.0,2.02386274213894e-18,0.0,0.0,-0.27467999999999976,5.691203106502035e-17,0.0,1.445616244384958e-16,0.0
0.02900000000000002,0.0,0.045874895,0.0504,0.0,2.1710058241566946e-18,0.0,0.0,-0.28448999999999974,5.89446036030568e-17,0.0,1.497245395970135e-16,0.0
0.03000000000000002,0.0,0.0455855,0.0504,0.0,2.323311821332967e-18,0.0,0.0,-0.29429999999999973,6.097717614109324e-17,0.0,1.5488745475553122e-16,0.0
0.03100000000000002,0.0,0.045286295000000004,0.0504,0.0,2.480780733667757e-18,0.0,0.0,-0.3041099999999997,6.300974867912968e-17,0.0,1.6005036991404894e-16,0.0
0.03200000000000002,0.0,0.04497728,0.0504,0.0,2.643412561161065e-18,0.0,0.0,-0.3139199999999997,6.504232121716612e-17,0.0,1.6521328507256665e-16,0.0
0.03300000000000002,0.0,0.044658455,0.0504,0.0,2.8112073038128905e-18,0.0,0.0,-0.3237299999999997,6.707489375520257e-17,0.0,1.7037620023108437e-16,0.0
0.03400000000000002,0.0,0.04432982,0.0504,0.0,2.9841649616232335e-18,0.0,0.0,-0.33353999999999967,6.910746629323901e-17,0.0,1.7553911538960208e-16,0.0
0.035000000000000024,0.0,0.043991375,0.0504,0.0,3.1622855345920945e-18,0.0,0.0,-0.34334999999999966,7.114003883127545e-17,0.0,1.807020305481198e-16,0.0
0.036000000000000025,0.0,0.04364312,0.0504,0.0,3.345569022719473e-18,0.0,0.0,-0.35315999999999964,7.31726113693119e-17,0.0,1.8586494570663751e-16,0.0
0.037000000000000026,0.0,0.043285055,0.0504,0.0,3.534015426005369e-18,0.0,0.0,-0.3629699999999996,7.520518390734834e-17,0.0,1.9102786086515523e-16,0.0
0.03800000000000003,0.0,0.042917180000000006,0.0504,0.0,3.7276247444497834e-18,0.0,0.0,-0.3727799999999996,7.723775644538478e-17,0.0,1.9619077602367294e-16,0.0
0.03900000000000003,0.0,0.042539495000000004,0.0504,0.0,3.926396978052715e-18,0.0,0.0,-0.3825899999999996,7.927032898342122e-17,0.0,2.0135369118219066e-16,0.0
0.04000000000000003,0.0,0.042152,0.0504,0.0,4.1303321268141646e-18,0.0,0.0,-0.3923999999999996,8.130290152145767e-17,0.0,2.0651660634070838e-16,0.0
0.04100000000000003,0.0,0.041754695,0.0504,0.0,4.339430190734132e-18,0.0,0.0,-0.40220999999999957,8.333547405949411e-17,0.0,2.116795214992261e-16,0.0
0.04200000000000003,0.0,0.04134758,0.0504,0.0,4.553691169812616e-18,0.0,0.0,-0.41201999999999955,8.536804659753055e-17,0.0,2.168424366577438e-16,0.0
0.04300000000000003,0.0,0.040930655,0.0504,0.0,4.773115064049619e-18,0.0,0.0,-0.42182999999999954,8.7400619135567e-17,0.0,2.2200535181626152e-16,0.0
0.04400000000000003,0.0,0.040503920000000006,0.0504,0.0,4.9977018734451394e-18,0.0,0.0,-0.4316399999999995,8.943319167360344e-17,0.0,2.2716826697477924e-16,0.0
0.04500000000000003,0.0,0.04006737500000001,0.0504,0.0,5.227451597999177e-18,0.0,0.0,-0.4414499999999995,9.146576421163988e-17,0.0,2.3233118213329693e-16,0.0
0.046000000000000034,0.0,0.03962102000000001,0.0504,0.0,5.462364237711733e-18,0.0,0.0,-0.4512599999999995,9.349833674967632e-17,0.0,2.374940972918146e-16,0.0
0.047000000000000035,0.0,0.039164855000000005,0.0504,0.0,5.7024397925828065e-18,0.0,0.0,-0.4610699999999995,9.553090928771277e-17,0.0,2.426570124503323e-16,0.0
0.048000000000000036,0.0,0.038698880000000005,0.0504,0.0,5.947678262612397e-18,0.0,0.0,-0.47087999999999947,9.756348182574921e-17,0.0,2.4781992760885e-16,0.0
0.04900000000000004,0.0,0.038223095000000006,0.0504,0.0,6.198079647800506e-18,0.0,0.0,-0.48068999999999945,9.959605436378565e-17,0.0,2.529828427673677e-16,0.0
0.05000000000000004,0.0,0.03773750000000001,0.0504,0.0,6.453643948147133e-18,0.0,0.0,-0.49049999999999944,1.016286269018221e-16,0.0,2.581457579258854e-16,0.0
0.05100000000000004,0.0,0.03724209500000001,0.0504,0.0,6.714371163652277e-18,0.0,0.0,-0.5003099999999995,1.0366119943985854e-16,0.0,2.6330867308440307e-16,0.0
0.05200000000000004,0.0,0.03673688000000001,0.0504,0.0,6.980261294315938e-18,0.0,0.0,-0.5101199999999995,1.0569377197789498e-16,0.0,2.6847158824292076e-16,0.0
0.05300000000000004,0.0,0.03622185500000001,0.0504,0.0,7.251314340138118e-18,0.0,0.0,-0.5199299999999994,1.0772634451593143e-16,0.0,2.7363450340143846e-16,0.0
0.05400000000000004,0.0,0.03569702000000001,0.0504,0.0,7.527530301118816e-18,0.0,0.0,-0.5297399999999994,1.0975891705396787e-16,0.0,2.7879741855995615e-16,0.0
0.05500000000000004,0.0,0.03516237500000001,0.0504,0.0,7.80890917725803e-18,0.0,0.0,-0.5395499999999994,1.117914895920043e-16,0.0,2.8396033371847384e-16,0.0
0.05600000000000004,0.0,0.03461792000000001,0.0504,0.0,8.095450968555763e-18,0.0,0.0,-0.5493599999999994,1.1382406213004075e-16,0.0,2.8912324887699153e-16,0.0
0.057000000000000044,0.0,0.03406365500000001,0.0504,0.0,8.387155675012014e-18,0.0,0.0,-0.5591699999999994,1.158566346680772e-16,0.0,2.942861640355092e-16,0.0
0.058000000000000045,0.0,0.033499580000000015,0.0504,0.0,8.684023296626782e-18,0.0,0.0,-0.5689799999999994,1.1788920720611364e-16,0.0,2.994490791940269e-16,0.0
0.059000000000000045,0.0,0.03292569500000002,0.0504,0.0,8.986053833400068e-18,0.0,0.0,-0.5787899999999994,1.1992177974415008e-16,0.0,3.046119943525446e-16,0.0
0.060000000000000046,0.0,0.03234200000000002,0.0504,0.0,9.293247285331872e-18,0.0,0.0,-0.5885999999999993,1.2195435228218653e-16,0.0,3.097749095110623e-16,0.0
0.06100000000000005,0.0,0.031748495000000015,0.0504,0.0,9.605603652422192e-18,0.0,0.0,-0.5984099999999993,1.2398692482022297e-16,0.0,3.1493782466958e-16,0.0
0.06200000000000005,0.0,0.031145180000000015,0.0504,0.0,9.923122934671031e-18,0.0,0.0,-0.6082199999999993,1.260194973582594e-16,0.0,3.2010073982809767e-16,0.0
0.06300000000000004,0.0,0.030532055000000016,0.0504,0.0,1.0245805132078389e-17,0.0,0.0,-0.6180299999999993,1.2805206989629585e-16,0.0,3.2526365498661536e-16,0.0
0.06400000000000004,0.0,0.029909120000000018,0.0504,0.0,1.0573650244644263e-17,0.0,0.0,-0.6278399999999993,1.300846424343323e-16,0.0,3.3042657014513305e-16,0.0
0.06500000000000004,0.0,0.029276375000000018,0.0504,0.0,1.0906658272368655e-17,0.0,0.0,-0.6376499999999993,1.3211721497236874e-16,0.0,3.3558948530365075e-16,0.0
0.06600000000000004,0.0,0.028633820000000018,0.0504,0.0,1.1244829215251565e-17,0.0,0.0,-0.6474599999999993,1.3414978751040518e-16,0.0,3.4075240046216844e-16,0.0
0.06700000000000005,0.0,0.02798145500000002,0.0504,0.0,1.1588163073292992e-17,0.0,0.0,-0.6572699999999992,1.3618236004844163e-16,0.0,3.4591531562068613e-16,0.0
0.06800000000000005,0.0,0.027319280000000022,0.0504,0.0,1.1936659846492937e-17,0.0,0.0,-0.6670799999999992,1.3821493258647807e-16,0.0,3.510782307792038e-16,0.0
0.06900000000000005,0.0,0.026647295000000022,0.0504,0.0,1.2290319534851399e-17,0.0,0.0,-0.6768899999999992,1.402475051245145e-16,0.0,3.562411459377215e-16,0.0
0.07000000000000005,0.0,0.025965500000000023,0.0504,0.0,1.264914213836838e-17,0.0,0.0,-0.6866999999999992,1.4228007766255095e-16,0.0,3.614040610962392e-16,0.0
0.07100000000000005,0.0,0.025273895000000025,0.0504,0.0,1.3013127657043878e-17,0.0,0.0,-0.6965099999999992,1.443126502005874e-16,0.0,3.665669762547569e-16,0.0
0.07200000000000005,0.0,0.024572480000000025,0.0504,0.0,1.3382276090877893e-17,0.0,0.0,-0.7063199999999992,1.4634522273862384e-16,0.0,3.717298914132746e-16,0.0
0.07300000000000005,0.0,0.023861255000000026,0.0504,0.0,1.3756587439870426e-17,0.0,0.0,-0.7161299999999992,1.4837779527666028e-16,0.0,3.7689280657179227e-16,0.0
0.07400000000000005,0.0,0.023140220000000027,0.0504,0.0,1.4136061704021478e-17,0.0,0.0,-0.7259399999999991,1.5041036781469673e-16,0.0,3.8205572173030996e-16,0.0
0.07500000000000005,0.0,0.022409375000000026,0.0504,0.0,1.4520698883331046e-17,0.0,0.0,-0.7357499999999991,1.5244294035273317e-16,0.0,3.8721863688882765e-16,0.0
0.07600000000000005,0.0,0.021668720000000027,0.0504,0.0,1.4910498977799134e-17,0.0,0.0,-0.7455599999999991,1.5447551289076961e-16,0.0,3.9238155204734535e-16,0.0
0.07700000000000005,0.0,0.020918255000000028,0.0504,0.0,1.5305461987425738e-17,0.0,0.0,-0.7553699999999991,1.5650808542880606e-16,0.0,3.9754446720586304e-16,0.0
0.07800000000000006,0.0,0.02015798000000003,0.0504,0.0,1.570558791221086e-17,0.0,0.0,-0.7651799999999991,1.585406579668425e-16,0.0,4.0270738236438073e-16,0.0
0.07900000000000006,0.0,0.01938789500000003,0.0504,0.0,1.61108767521545e-17,0.0,0.0,-0.7749899999999991,1.6057323050487894e-16,0.0,4.078702975228984e-16,0.0
0.08000000000000006,0.0,0.01860800000000003,0.0504,0.0,1.6521328507256658e-17,0.0,0.0,-0.784799999999999,1.6260580304291538e-16,0.0,4.130332126814161e-16,0.0
0.08100000000000006,0.0,0.017818295000000033,0.0504,0.0,1.6936943177517333e-17,0.0,0.0,-0.794609999999999,1.6463837558095183e-16,0.0,4.181961278399338e-16,0.0
0.08200000000000006,0.0,0.017018780000000032,0.0504,0.0,1.7357720762936527e-17,0.0,0.0,-0.804419999999999,1.6667094811898827e-16,0.0,4.233590429984515e-16,0.0
0.08300000000000006,0.0,0.016209455000000032,0.0504,0.0,1.7783661263514238e-17,0.0,0.0,-0.814229999999999,1.6870352065702471e-16,0.0,4.285219581569692e-16,0.0
0.08400000000000006,0.0,0.015390320000000034,0.0504,0.0,1.8214764679250465e-17,0.0,0.0,-0.824039999999999,1.7073609319506116e-16,0.0,4.3368487331548687e-16,0.0
0.08500000000000006,0.0,0.014561375000000034,0.0504,0.0,1.865103101014521e-17,0.0,0.0,-0.833849999999999,1.727686657330976e-16,0.0,4.3884778847400456e-16,0.0
0.08600000000000006,0.0,0.013722620000000036,0.0504,0.0,1.9092460256198473e-17,0.0,0.0,-0.843659999999999,1.7480123827113404e-16,0.0,4.4401070363252225e-16,0.0
0.08700000000000006,0.0,0.012874055000000037,0.0504,0.0,1.9539052417410254e-17,0.0,0.0,-0.853469999999999,1.7683381080917048e-16,0.0,4.4917361879104e-16,0.0
0.08800000000000006,0.0,0.012015680000000039,0.0504,0.0,1.9990807493780555e-17,0.0,0.0,-0.8632799999999989,1.7886638334720693e-16,0.0,4.543365339495577e-16,0.0
0.08900000000000007,0.0,0.01114749500000004,0.0504,0.0,2.0447725485309372e-17,0.0,0.0,-0.8730899999999989,1.8089895588524337e-16,0.0,4.594994491080754e-16,0.0
0.09000000000000007,0.0,0.01026950000000004,0.0504,0.0,2.0909806391996705e-17,0.0,0.0,-0.8828999999999989,1.8293152842327981e-16,0.0,4.646623642665931e-16,0.0
0.09100000000000007,0.0,0.009381695000000042,0.0504,0.0,2.1377050213842556e-17,0.0,0.0,-0.8927099999999989,1.8496410096131626e-16,0.0,4.698252794251108e-16,0.0
0.09200000000000007,0.0,0.008484080000000043,0.0504,0.0,2.1849456950846926e-17,0.0,0.0,-0.9025199999999989,1.869966734993527e-16,0.0,4.749881945836284e-16,0.0
0.09300000000000007,0.0,0.007576655000000044,0.0504,0.0,2.2327026603009813e-17,0.0,0.0,-0.9123299999999989,1.8902924603738914e-16,0.0,4.801511097421461e-16,0.0
0.09400000000000007,0.0,0.006659420000000045,0.0504,0.0,2.2809759170331217e-17,0.0,0.0,-0.9221399999999988,1.9106181857542558e-16,0.0,4.853140249006638e-16,0.0
0.09500000000000007,0.0,0.0057323750000000465,0.0504,0.0,2.329765465281114e-17,0.0,0.0,-0.9319499999999988,1.9309439111346203e-16,0.0,4.904769400591815e-16,0.0
0.09600000000000007,0.0,0.004795520000000048,0.0504,0.0,2.379071305044958e-17,0.0,0.0,-0.9417599999999988,1.9512696365149847e-16,0.0,4.956398552176992e-16,0.0
0.09700000000000007,0.0,0.003848855000000049,0.0504,0.0,2.4288934363246537e-17,0.0,0.0,-0.9515699999999988,1.9715953618953491e-16,0.0,5.008027703762169e-16,0.0
0.09800000000000007,0.0,0.0028923800000000503,0.0504,0.0,2.4792318591202013e-17,0.0,0.0,-0.9613799999999988,1.9919210872757136e-16,0.0,5.059656855347346e-16,0.0
0.09900000000000007,0.0,0.0019260950000000515,0.0504,0.0,2.5300865734316006e-17,0.0,0.0,-0.9711899999999988,2.012246812656078e-16,0.0,5.111286006932523e-16,0.0
0.10000000000000007,0.0,0.0009500000000000526,0.0504,0.0,2.5814575792588516e-17,0.0,0.0,-0.9809999999999988,2.0325725380364424e-16,0.0,5.1629151585177e-16,0.0
0.10100000000000008,0.0,0.0,0.0504,0.0,2.6333448766019546e-17,0.0,0.0,0.0,2.0528982634168069e-16,0.0,5.214544310102877e-16,0.0
0.10200000000000008,0.0,0.0,0.0504,0.0,2.6857484654609092e-17,0.0,0.0,0.0,2.0732239887971713e-16,0.0,5.266173461688054e-16,0.0
0.10300000000000008,0.0,0.0,0.0504,0.0,2.7386683458357155e-17,0.0,0.0,0.0,2.0935497141775357e-16,0.0,5.31780261327323e-16,0.0
0.10400000000000008,0.0,0.0,0.0504,0.0,2.7921045177263734e-17,0.0,0.0,0.0,2.1138754395579001e-16,0.0,5.369431764858407e-16,0.0
0.10500000000000008,0.0,0.0,0.0504,0.0,2.8460569811328834e-17,0.0,0.0,0.0,2.1342011649382646e-16,0.0,5.421060916443584e-16,0.0
0.10600000000000008,0.0,0.0,0.0504,0.0,2.900525736055245e-17,0.0,0.0,0.0,2.154526890318629e-16,0.0,5.472690068028761e-16,0.0
0.10700000000000008,0.0,0.0,0.0504,0.0,2.9555107824934586e-17,0.0,0.0,0.0,2.1748526156989934e-16,0.0,5.524319219613938e-16,0.0
0.10800000000000008,0.0,0.0,0.0504,0.0,3.011012120447524e-17,0.0,0.0,0.0,2.1951783410793579e-16,0.0,5.575948371199115e-16,0.0
0.10900000000000008,0.0,0.0,0.0504,0.0,3.067029749917441e-17,0.0,0.0,0.0,2.2155040664597223e-16,0.0,5.627577522784292e-16,0.0
0.11000000000000008,0.0,0.0,0.0504,0.0,3.1235636709032096e-17,0.0,0.0,0.0,2.2358297918400867e-16,0.0,5.679206674369469e-16,0.0
0.11100000000000008,0.0,0.0,0.0504,0.0,3.18061388340483e-17,0.0,0.0,0.0,2.256155517220451e-16,0.0,5.730835825954646e-16,0.0
0.11200000000000009,0.0,0.0,0.0504,0.0,3.238180387422303e-17,0.0,0.0,0.0,2.2764812426008156e-16,0.0,5.782464977539823e-16,0.0
0.11300000000000009,0.0,0.0,0.0504,0.0,3.2962631829556266e-17,0.0,0.0,0.0,2.29680696798118e-16,0.0,5.834094129125e-16,0.0
0.11400000000000009,0.0,0.0,0.0504,0.0,3.3548622700048025e-17,0.0,0.0,0.0,2.3171326933615444e-16,0.0,5.885723280710176e-16,0.0
0.11500000000000009,0.0,0.0,0.0504,0.0,3.4139776485698304e-17,0.0,0.0,0.0,2.337458418741909e-16,0.0,5.937352432295353e-16,0.0
0.11600000000000009,0.0,0.0,0.0504,0.0,3.4736093186507096e-17,0.0,0.0,0.0,2.3577841441222733e-16,0.0,5.98898158388053e-16,0.0
0.11700000000000009,0.0,0.0,0.0504,0.0,3.533757280247441e-17,0.0,0.0,0.0,2.3781098695026377e-16,0.0,6.040610735465707e-16,0.0
0.11800000000000009,0.0,0.0,0.0504,0.0,3.594421533360024e-17,0.0,0.0,0.0,2.398435594883002e-16,0.0,6.092239887050884e-16,0.0
0.11900000000000009,0.0,0.0,0.0504,0.0,3.6556020779884585e-17,0.0,0.0,0.0,2.4187613202633666e-16,0.0,6.143869038636061e-16,0.0
0.12000000000000009,0.0,0.0,0.0504,0.0,3.717298914132745e-17,0.0,0.0,0.0,2.439087045643731e-16,0.0,6.195498190221238e-16,0.0
0.1210000000000001,0.0,0.0,0.0504,0.0,3.7795120417928834e-17,0.0,0.0,0.0,2.4594127710240954e-16,0.0,6.247127341806415e-16,0.0
0.1220000000000001,0.0,0.0,0.0504,0.0,3.842241460968873e-17,0.0,0.0,0.0,2.47973849640446e-16,0.0,6.298756493391592e-16,0.0
0.1230000000000001,0.0,0.0,0.0504,0.0,3.905487171660715e-17,0.0,0.0,0.0,2.5000642217848243e-16,0.0,6.350385644976769e-16,0.0
0.1240000000000001,0.0,0.0,0.0504,0.0,3.969249173868409e-17,0.0,0.0,0.0,2.5203899471651887e-16,0.0,6.402014796561946e-16,0.0
0.12500000000000008,0.0,0.0,0.0504,0.0,4.033527467591954e-17,0.0,0.0,0.0,2.540715672545553e-16,0.0,6.453643948147122e-16,0.0
0.12600000000000008,0.0,0.0,0.0504,0.0,4.098322052831351e-17,0.0,0.0,0.0,2.5610413979259176e-16,0.0,6.505273099732299e-16,0.0
0.12700000000000009,0.0,0.0,0.0504,0.0,4.1636329295866e-17,0.0,0.0,0.0,2.581367123306282e-16,0.0,6.556902251317476e-16,0.0
0.12800000000000009,0.0,0.0,0.0504,0.0,4.229460097857701e-17,0.0,0.0,0.0,2.6016928486866464e-16,0.0,6.608531402902653e-16,0.0
0.1290000000000001,0.0,0.0,0.0504,0.0,4.295803557644653e-17,0.0,0.0,0.0,2.622018574067011e-16,0.0,6.66016055448783e-16,0.0
0.1300000000000001,0.0,0.0,0.0504,0.0,4.3626633089474576e-17,0.0,0.0,0.0,2.6423442994473753e-16,0.0,6.711789706073007e-16,0.0
0.1310000000000001,0.0,0.0,0.0504,0.0,4.4300393517661133e-17,0.0,0.0,0.0,2.6626700248277397e-16,0.0,6.763418857658184e-16,0.0
0.1320000000000001,0.0,0.0,0.0504,0.0,4.497931686100621e-17,0.0,0.0,0.0,2.682995750208104e-16,0.0,6.815048009243361e-16,0.0
0.1330000000000001,0.0,0.0,0.0504,0.0,4.566340311950981e-17,0.0,0.0,0.0,2.7033214755884686e-16,0.0,6.866677160828538e-16,0.0
0.1340000000000001,0.0,0.0,0.0504,0.0,4.635265229317192e-17,0.0,0.0,0.0,2.723647200968833e-16,0.0,6.918306312413715e-16,0.0
0.1350000000000001,0.0,0.0,0.0504,0.0,4.704706438199255e-17,0.0,0.0,0.0,2.7439729263491974e-16,0.0,6.969935463998892e-16,0.0
0.1360000000000001,0.0,0.0,0.0504,0.0,4.77466393859717e-17,0.0,0.0,0.0,2.764298651729562e-16,0.0,7.021564615584068e-16,0.0
0.1370000000000001,0.0,0.0,0.0504,0.0,4.8451377305109364e-17,0.0,0.0,0.0,2.7846243771099263e-16,0.0,7.073193767169245e-16,0.0
0.1380000000000001,0.0,0.0,0.0504,0.0,4.916127813940555e-17,0.0,0.0,0.0,2.8049501024902907e-16,0.0,7.124822918754422e-16,0.0
0.1390000000000001,0.0,0.0,0.0504,0.0,4.987634188886025e-17,0.0,0.0,0.0,2.825275827870655e-16,0.0,7.176452070339599e-16,0.0
0.1400000000000001,0.0,0.0,0.0504,0.0,5.059656855347347e-17,0.0,0.0,0.0,2.8456015532510196e-16,0.0,7.228081221924776e-16,0.0
0.1410000000000001,0.0,0.0,0.0504,0.0,5.1321958133245205e-17,0.0,0.0,0.0,2.865927278631384e-16,0.0,7.279710373509953e-16,0.0
0.1420000000000001,0.0,0.0,0.0504,0.0,5.205251062817546e-17,0.0,0.0,0.0,2.8862530040117484e-16,0.0,7.33133952509513e-16,0.0
0.1430000000000001,0.0,0.0,0.0504,0.0,5.278822603826423e-17,0.0,0.0,0.0,2.906578729392113e-16,0.0,7.382968676680307e-16,0.0
0.1440000000000001,0.0,0.0,0.0504,0.0,5.352910436351152e-17,0.0,0.0,0.0,2.9269044547724773e-16,0.0,7.434597828265484e-16,0.0
0.1450000000000001,0.0,0.0,0.0504,0.0,5.427514560391733e-17,0.0,0.0,0.0,2.9472301801528417e-16,0.0,7.486226979850661e-16,0.0
0.1460000000000001,0.0,0.0,0.0504,0.0,5.5026349759481655e-17,0.0,0.0,0.0,2.967555905533206e-16,0.0,7.537856131435838e-16,0.0
0.1470000000000001,0.0,0.0,0.0504,0.0,5.578271683020449e-17,0.0,0.0,0.0,2.9878816309135706e-16,0.0,7.589485283021014e-16,0.0
0.1480000000000001,0.0,0.0,0.0504,0.0,5.654424681608585e-17,0.0,0.0,0.0,3.008207356293935e-16,0.0,7.641114434606191e-16,0.0
0.1490000000000001,0.0,0.0,0.0504,0.0,5.731093971712572e-17,0.0,0.0,0.0,3.0285330816742995e-16,0.0,7.692743586191368e-16,0.0
0.1500000000000001,0.0,0.0,0.0504,0.0,5.808279553332412e-17,0.0,0.0,0.0,3.048858807054664e-16,0.0,7.744372737776545e-16,0.0
0.1510000000000001,0.0,0.0,0.0504,0.0,5.885981426468104e-17,0.0,0.0,0.0,3.0691845324350283e-16,0.0,7.796001889361722e-16,0.0
0.1520000000000001,0.0,0.0,0.0504,0.0,5.964199591119647e-17,0.0,0.0,0.0,3.0895102578153927e-16,0.0,7.847631040946899e-16,0.0
0.1530000000000001,0.0,0.0,0.0504,0.0,6.042934047287042e-17,0.0,0.0,0.0,3.109835983195757e-16,0.0,7.899260192532076e-16,0.0
0.1540000000000001,0.0,0.0,0.0504,0.0,6.122184794970288e-17,0.0,0.0,0.0,3.1301617085761216e-16,0.0,7.950889344117253e-16,0.0
0.1550000000000001,0.0,0.0,0.0504,0.0,6.201951834169386e-17,0.0,0.0,0.0,3.150487433956486e-16,0.0,8.00251849570243e-16,0.0
0.1560000000000001,0.0,0.0,0.0504,0.0,6.282235164884336e-17,0.0,0.0,0.0,3.1708131593368505e-16,0.0,8.054147647287607e-16,0.0
0.1570000000000001,0.0,0.0,0.0504,0.0,6.363034787115139e-17,0.0,0.0,0.0,3.191138884717215e-16,0.0,8.105776798872784e-16,0.0
0.1580000000000001,0.0,0.0,0.0504,0.0,6.444350700861793e-17,0.0,0.0,0.0,3.2114646100975793e-16,0.0,8.15740595045796e-16,0.0
0.1590000000000001,0.0,0.0,0.0504,0.0,6.526182906124298e-17,0.0,0.0,0.0,3.231521433646771e-16,0.0,8.1947155329847485e-16,0.0
0.16000000000000011,0.0,0.0,0.0504,0.0,6.607958620140319e-17,0.0,0.0,0.0,3.2502337480400986e-16,0.0,8.160427270219593e-16,0.0
0.16100000000000012,0.0,0.0,0.0504,0.0,6.689391451528689e-17,0.0,0.0,0.0,3.2689460624334264e-16,0.0,8.126139007454438e-16,0.0
0.16200000000000012,0.0,0.0,0.0504,0.0,6.770481400289408e-17,0.0,0.0,0.0,3.287658376826754e-16,0.0,8.091850744689282e-16,0.0
0.16300000000000012,0.0,0.0,0.0504,0.0,6.851228466422476e-17,0.0,0.0,0.0,3.306370691220082e-16,0.0,8.057562481924127e-16,0.0
0.16400000000000012,0.0,0.0,0.0504,0.0,6.93163264992789e-17,0.0,0.0,0.0,3.3250830056134096e-16,0.0,8.023274219158971e-16,0.0
0.16500000000000012,0.0,0.0,0.0504,0.0,7.011693950805654e-17,0.0,0.0,0.0,3.3437953200067373e-16,0.0,7.988985956393816e-16,0.0
0.16600000000000012,0.0,0.0,0.0504,0.0,7.091412369055767e-17,0.0,0.0,0.0,3.362507634400065e-16,0.0,7.954697693628661e-16,0.0
0.16700000000000012,0.0,0.0,0.0504,0.0,7.170787904678228e-17,0.0,0.0,0.0,3.381219948793393e-16,0.0,7.920409430863505e-16,0.0
0.16800000000000012,0.0,0.0,0.0504,0.0,7.249820557673038e-17,0.0,0.0,0.0,3.3999322631867206e-16,0.0,7.88612116809835e-16,0.0
0.16900000000000012,0.0,0.0,0.0504,0.0,7.328510328040195e-17,0.0,0.0,0.0,3.4186445775800483e-16,0.0,7.851832905333194e-16,0.0
0.17000000000000012,0.0,0.0,0.0504,0.0,7.406857215779701e-17,0.0,0.0,0.0,3.437356891973376e-16,0.0,7.817544642568039e-16,0.0
0.17100000000000012,0.0,0.0,0.0504,0.0,7.484861220891555e-17,0.0,0.0,0.0,3.456069206366704e-16,0.0,7.783256379802884e-16,0.0
0.17200000000000013,0.0,0.0,0.0504,0.0,7.562522343375759e-17,0.0,0.0,0.0,3.4747815207600315e-16,0.0,7.748968117037728e-16,0.0
0.17300000000000013,0.0,0.0,0.0504,0.0,7.639840583232311e-17,0.0,0.0,0.0,3.4934938351533593e-16,0.0,7.714679854272573e-16,0.0
0.17400000000000013,0.0,0.0,0.0504,0.0,7.71681594046121e-17,0.0,0.0,0.0,3.512206149546687e-16,0.0,7.680391591507417e-16,0.0
0.17500000000000013,0.0,0.0,0.0504,0.0,7.793448415062459e-17,0.0,0.0,0.0,3.530918463940015e-16,0.0,7.646103328742262e-16,0.0
0.17600000000000013,0.0,0.0,0.0504,0.0,7.869738007036056e-17,0.0,0.0,0.0,3.5496307783333425e-16,0.0,7.611815065977107e-16,0.0
0.17700000000000013,0.0,0.0,0.0504,0.0,7.945684716382001e-17,0.0,0.0,0.0,3.5683430927266703e-16,0.0,7.577526803211951e-16,0.0
0.17800000000000013,0.0,0.0,0.0504,0.0,8.021574934481463e-17,0.0,0.0,0.0,3.588399916275862e-16,0.0,7.614836385738739e-16,0.0
0.17900000000000013,0.0,0.0,0.0504,0.0,8.097981444096776e-17,0.0,0.0,0.0,3.6087256416562263e-16,0.0,7.666465537323916e-16,0.0
0.18000000000000013,0.0,0.0,0.0504,0.0,8.174904245227941e-17,0.0,0.0,0.0,3.6290513670365907e-16,0.0,7.718094688909093e-16,0.0
0.18100000000000013,0.0,0.0,0.0504,0.0,8.252343337874958e-17,0.0,0.0,0.0,3.649377092416955e-16,0.0,7.76972384049427e-16,0.0
0.18200000000000013,0.0,0.0,0.0504,0.0,8.330298722037827e-17,0.0,0.0,0.0,3.6697028177973195e-16,0.0,7.821352992079447e-16,0.0
0.18300000000000013,0.0,0.0,0.0504,0.0,8.408770397716547e-17,0.0,0.0,0.0,3.690028543177684e-16,0.0,7.872982143664624e-16,0.0
0.18400000000000014,0.0,0.0,0.0504,0.0,8.48775836491112e-17,0.0,0.0,0.0,3.7103542685580484e-16,0.0,7.924611295249801e-16,0.0
0.18500000000000014,0.0,0.0,0.0504,0.0,8.567262623621543e-17,0.0,0.0,0.0,3.730679993938413e-16,0.0,7.976240446834978e-16,0.0
0.18600000000000014,0.0,0.0,0.0504,0.0,8.647283173847819e-17,0.0,0.0,0.0,3.7510057193187773e-16,0.0,8.027869598420154e-16,0.0
0.18700000000000014,0.0,0.0,0.0504,0.0,8.727820015589946e-17,0.0,0.0,0.0,3.7713314446991417e-16,0.0,8.079498750005331e-16,0.0
0.18800000000000014,0.0,0.0,0.0504,0.0,8.808873148847926e-17,0.0,0.0,0.0,3.791657170079506e-16,0.0,8.131127901590508e-16,0.0
0.18900000000000014,0.0,0.0,0.0504,0.0,8.890442573621757e-17,0.0,0.0,0.0,3.8119828954598705e-16,0.0,8.182757053175685e-16,0.0
0.19000000000000014,0.0,0.0,0.0504,0.0,8.97252828991144e-17,0.0,0.0,0.0,3.832308620840235e-16,0.0,8.234386204760862e-16,0.0
0.19100000000000014,0.0,0.0,0.0504,0.0,9.055130297716975e-17,0.0,0.0,0.0,3.8526343462205994e-16,0.0,8.286015356346039e-16,0.0
0.19200000000000014,0.0,0.0,0.0504,0.0,9.138248597038361e-17,0.0,0.0,0.0,3.872960071600964e-16,0.0,8.337644507931216e-16,0.0
0.19300000000000014,0.0,0.0,0.0504,0.0,9.221883187875599e-17,0.0,0.0,0.0,3.8932857969813283e-16,0.0,8.389273659516393e-16,0.0
0.19400000000000014,0.0,0.0,0.0504,0.0,9.306034070228689e-17,0.0,0.0,0.0,3.9136115223616927e-16,0.0,8.44090281110157e-16,0.0
0.19500000000000015,0.0,0.0,0.0504,0.0,9.390701244097631e-17,0.0,0.0,0.0,3.933937247742057e-16,0.0,8.492531962686747e-16,0.0
0.19600000000000015,0.0,0.0,0.0504,0.0,9.475884709482423e-17,0.0,0.0,0.0,3.9542629731224216e-16,0.0,8.544161114271924e-16,0.0
0.19700000000000015,0.0,0.0,0.0504,0.0,9.561584466383068e-17,0.0,0.0,0.0,3.974588698502786e-16,0.0,8.5957902658571e-16,0.0
0.19800000000000015,0.0,0.0,0.0504,0.0,9.647800514799565e-17,0.0,0.0,0.0,3.9949144238831504e-16,0.0,8.647419417442277e-16,0.0
0.19900000000000015,0.0,0.0,0.0504,0.0,9.734532854731914e-17,0.0,0.0,0.0,4.015240149263515e-16,0.0,8.699048569027454e-16,0.0
0.20000000000000015,0.0,0.0,0.0504,0.0,9.821781486180114e-17,0.0,0.0,0.0,4.0355658746438793e-16,0.0,8.750677720612631e-16,0.0
0.20100000000000015,0.0,0.0,0.0504,0.0,9.909546409144167e-17,0.0,0.0,0.0,4.0558916000242437e-16,0.0,8.802306872197808e-16,0.0
0.20200000000000015,0.0,0.0,0.0504,0.0,9.99782762362407e-17,0.0,0.0,0.0,4.076217325404608e-16,0.0,8.853936023782985e-16,0.0
0.20300000000000015,0.0,0.0,0.0504,0.0,1.0086625129619826e-16,0.0,0.0,0.0,4.0965430507849726e-16,0.0,8.905565175368162e-16,0.0
0.20400000000000015,0.0,0.0,0.0504,0.0,1.0175938927131433e-16,0.0,0.0,0.0,4.116868776165337e-16,0.0,8.95719432695334e-16,0.0
0.20500000000000015,0.0,0.0,0.0504,0.0,1.0265769016158892e-16,0.0,0.0,0.0,4.1371945015457014e-16,0.0,9.008823478538518e-16,0.0
0.20600000000000016,0.0,0.0,0.0504,0.0,1.0356115396702203e-16,0.0,0.0,0.0,4.157520226926066e-16,0.0,9.060452630123696e-16,0.0
0.20700000000000016,0.0,0.0,0.0504,0.0,1.0446978068761367e-16,0.0,0.0,0.0,4.1778459523064303e-16,0.0,9.112081781708874e-16,0.0
0.20800000000000016,0.0,0.0,0.0504,0.0,1.0538357032336382e-16,0.0,0.0,0.0,4.1981716776867947e-16,0.0,9.163710933294051e-16,0.0
0.20900000000000016,0.0,0.0,0.0504,0.0,1.0630252287427248e-16,0.0,0.0,0.0,4.218497403067159e-16,0.0,9.21534008487923e-16,0.0
0.21000000000000016,0.0,0.0,0.0504,0.0,1.0722663834033966e-16,0.0,0.0,0.0,4.2388231284475236e-16,0.0,9.266969236464407e-16,0.0
0.21100000000000016,0.0,0.0,0.0504,0.0,1.0815591672156536e-16,0.0,0.0,0.0,4.259148853827888e-16,0.0,9.318598388049585e-16,0.0
0.21200000000000016,0.0,0.0,0.0504,0.0,1.0909035801794958e-16,0.0,0.0,0.0,4.2794745792082524e-16,0.0,9.370227539634763e-16,0.0
0.21300000000000016,0.0,0.0,0.0504,0.0,1.1002996222949232e-16,0.0,0.0,0.0,4.299800304588617e-16,0.0,9.42185669121994e-16,0.0
0.21400000000000016,0.0,0.0,0.0504,0.0,1.1097472935619357e-16,0.0,0.0,0.0,4.3201260299689813e-16,0.0,9.473485842805119e-16,0.0
0.21500000000000016,0.0,0.0,0.0504,0.0,1.1192465939805335e-16,0.0,0.0,0.0,4.3404517553493457e-16,0.0,9.525114994390297e-16,0.0
0.21600000000000016,0.0,0.0,0.0504,0.0,1.1287975235507165e-16,0.0,0.0,0.0,4.36077748072971e-16,0.0,9.576744145975475e-16,0.0
0.21700000000000016,0.0,0.0,0.0504,0.0,1.1384000822724847e-16,0.0,0.0,0.0,4.3811032061100746e-16,0.0,9.628373297560652e-16,0.0
0.21800000000000017,0.0,0.0,0.0504,0.0,1.1480542701458378e-16,0.0,0.0,0.0,4.401428931490439e-16,0.0,9.68000244914583e-16,0.0
0.21900000000000017,0.0,0.0,0.0504,0.0,1.1577600871707761e-16,0.0,0.0,0.0,4.4217546568708034e-16,0.0,9.731631600731008e-16,0.0
0.22000000000000017,0.0,0.0,0.0504,0.0,1.1675175333472997e-16,0.0,0.0,0.0,4.442080382251167e-16,0.0,9.783260752316186e-16,0.0
0.22100000000000017,0.0,0.0,0.0504,0.0,1.1773266086754084e-16,0.0,0.0,0.0,4.462406107631531e-16,0.0,9.834889903901364e-16,0.0
0.22200000000000017,0.0,0.0,0.0504,0.0,1.1871873131551023e-16,0.0,0.0,0.0,4.482731833011895e-16,0.0,9.886519055486542e-16,0.0
0.22300000000000017,0.0,0.0,0.0504,0.0,1.1970996467863814e-16,0.0,0.0,0.0,4.503057558392259e-16,0.0,9.93814820707172e-16,0.0
0.22400000000000017,0.0,0.0,0.0504,0.0,1.2070636095692457e-16,0.0,0.0,0.0,4.523383283772623e-16,0.0,9.989777358656898e-16,0.0
0.22500000000000017,0.0,0.0,0.0504,0.0,1.2170792015036952e-16,0.0,0.0,0.0,4.543709009152987e-16,0.0,1.0041406510242076e-15,0.0
0.22600000000000017,0.0,0.0,0.0504,0.0,1.22714642258973e-16,0.0,0.0,0.0,4.564034734533351e-16,0.0,1.0093035661827254e-15,0.0
0.22700000000000017,0.0,0.0,0.0504,0.0,1.2372652728273499e-16,0.0,0.0,0.0,4.584360459913715e-16,0.0,1.0144664813412431e-15,0.0
0.22800000000000017,0.0,0.0,0.0504,0.0,1.247435752216555e-16,0.0,0.0,0.0,4.604686185294079e-16,0.0,1.019629396499761e-15,0.0
0.22900000000000018,0.0,0.0,0.0504,0.0,1.2576578607573453e-16,0.0,0.0,0.0,4.625011910674443e-16,0.0,1.0247923116582787e-15,0.0
0.23000000000000018,0.0,0.0,0.0504,0.0,1.2679315984497205e-16,0.0,0.0,0.0,4.645337636054807e-16,0.0,1.0299552268167965e-15,0.0
0.23100000000000018,0.0,0.0,0.0504,0.0,1.278256965293681e-16,0.0,0.0,0.0,4.665663361435171e-16,0.0,1.0351181419753143e-15,0.0
0.23200000000000018,0.0,0.0,0.0504,0.0,1.2886339612892266e-16,0.0,0.0,0.0,4.685989086815535e-16,0.0,1.040281057133832e-15,0.0
0.23300000000000018,0.0,0.0,0.0504,0.0,1.2990625864363575e-16,0.0,0.0,0.0,4.706314812195899e-16,0.0,1.0454439722923499e-15,0.0
0.23400000000000018,0.0,0.0,0.0504,0.0,1.3095428407350735e-16,0.0,0.0,0.0,4.726640537576262e-16,0.0,1.0506068874508677e-15,0.0
0.23500000000000018,0.0,0.0,0.0504,0.0,1.3200747241853748e-16,0.0,0.0,0.0,4.746966262956626e-16,0.0,1.0557698026093855e-15,0.0
0.23600000000000018,0.0,0.0,0.0504,0.0,1.3306582367872612e-16,0.0,0.0,0.0,4.76729198833699e-16,0.0,1.0609327177679032e-15,0.0
0.23700000000000018,0.0,0.0,0.0504,0.0,1.3412933785407328e-16,0.0,0.0,0.0,4.787617713717354e-16,0.0,1.066095632926421e-15,0.0
0.23800000000000018,0.0,0.0,0.0504,0.0,1.3519801494457897e-16,0.0,0.0,0.0,4.807943439097718e-16,0.0,1.0712585480849388e-15,0.0
0.23900000000000018,0.0,0.0,0.0504,0.0,1.3627185495024317e-16,0.0,0.0,0.0,4.828269164478082e-16,0.0,1.0764214632434566e-15,0.0
0.24000000000000019,0.0,0.0,0.0504,0.0,1.373508578710659e-16,0.0,0.0,0.0,4.848594889858446e-16,0.0,1.0815843784019744e-15,0.0
0.2410000000000002,0.0,0.0,0.0504,0.0,1.3843502370704714e-16,0.0,0.0,0.0,4.86892061523881e-16,0.0,1.0867472935604922e-15,0.0
0.2420000000000002,0.0,0.0,0.0504,0.0,1.395243524581869e-16,0.0,0.0,0.0,4.889246340619174e-16,0.0,1.09191020871901e-15,0.0
0.2430000000000002,0.0,0.0,0.0504,0.0,1.4061884412448516e-16,0.0,0.0,0.0,4.909572065999538e-16,0.0,1.0970731238775278e-15,0.0
0.2440000000000002,0.0,0.0,0.0504,0.0,1.4171849870594193e-16,0.0,0.0,0.0,4.929897791379902e-16,0.0,1.1022360390360456e-15,0.0
0.2450000000000002,0.0,0.0,0.0504,0.0,1.4282331620255723e-16,0.0,0.0,0.0,4.950223516760266e-16,0.0,1.1073989541945634e-15,0.0
0.2460000000000002,0.0,0.0,0.0504,0.0,1.4393329661433105e-16,0.0,0.0,0.0,4.97054924214063e-16,0.0,1.1125618693530811e-15,0.0
0.2470000000000002,0.0,0.0,0.0504,0.0,1.4504843994126338e-16,0.0,0.0,0.0,4.990874967520994e-16,0.0,1.117724784511599e-15,0.0
0.2480000000000002,0.0,0.0,0.0504,0.0,1.4616874618335424e-16,0.0,0.0,0.0,5.011200692901358e-16,0.0,1.1228876996701167e-15,0.0
0.2490000000000002,0.0,0.0,0.0504,0.0,1.4729421534060362e-16,0.0,0.0,0.0,5.0315264182817215e-16,0.0,1.1280506148286345e-15,0.0
0.25000000000000017,0.0,0.0,0.0504,0.0,1.4842484741301151e-16,0.0,0.0,0.0,5.051852143662085e-16,0.0,1.1332135299871523e-15,0.0
0.25100000000000017,0.0,0.0,0.0504,0.0,1.4956064240057793e-16,0.0,0.0,0.0,5.072177869042449e-16,0.0,1.13837644514567e-15,0.0
0.25200000000000017,0.0,0.0,0.0504,0.0,1.5070160030330286e-16,0.0,0.0,0.0,5.092503594422813e-16,0.0,1.1435393603041879e-15,0.0
0.25300000000000017,0.0,0.0,0.0504,0.0,1.5184772112118632e-16,0.0,0.0,0.0,5.112829319803177e-16,0.0,1.1487022754627057e-15,0.0
0.25400000000000017,0.0,0.0,0.0504,0.0,1.529990048542283e-16,0.0,0.0,0.0,5.133155045183541e-16,0.0,1.1538651906212235e-15,0.0
0.25500000000000017,0.0,0.0,0.0504,0.0,1.5415545150242876e-16,0.0,0.0,0.0,5.153480770563905e-16,0.0,1.1590281057797412e-15,0.0
0.25600000000000017,0.0,0.0,0.0504,0.0,1.5531706106578775e-16,0.0,0.0,0.0,5.173806495944269e-16,0.0,1.164191020938259e-15,0.0
0.2570000000000002,0.0,0.0,0.0504,0.0,1.5648383354430526e-16,0.0,0.0,0.0,5.194132221324633e-16,0.0,1.1693539360967768e-15,0.0
0.2580000000000002,0.0,0.0,0.0504,0.0,1.576557689379813e-16,0.0,0.0,0.0,5.214457946704997e-16,0.0,1.1745168512552946e-15,0.0
0.2590000000000002,0.0,0.0,0.0504,0.0,1.5883286724681584e-16,0.0,0.0,0.0,5.234783672085361e-16,0.0,1.1796797664138124e-15,0.0
0.2600000000000002,0.0,0.0,0.0504,0.0,1.600151284708089e-16,0.0,0.0,0.0,5.255109397465725e-16,0.0,1.1848426815723302e-15,0.0
0.2610000000000002,0.0,0.0,0.0504,0.0,1.612025526099605e-16,0.0,0.0,0.0,5.275435122846089e-16,0.0,1.190005596730848e-15,0.0
0.2620000000000002,0.0,0.0,0.0504,0.0,1.623951396642706e-16,0.0,0.0,0.0,5.295760848226453e-16,0.0,1.1951685118893658e-15,0.0
0.2630000000000002,0.0,0.0,0.0504,0.0,1.6359288963373924e-16,0.0,0.0,0.0,5.316086573606817e-16,0.0,1.2003314270478836e-15,0.0
0.2640000000000002,0.0,0.0,0.0504,0.0,1.6479580251836638e-16,0.0,0.0,0.0,5.336412298987181e-16,0.0,1.2054943422064014e-15,0.0
0.2650000000000002,0.0,0.0,0.0504,0.0,1.6600387831815205e-16,0.0,0.0,0.0,5.356738024367544e-16,0.0,1.2106572573649191e-15,0.0
0.2660000000000002,0.0,0.0,0.0504,0.0,1.6721711703309624e-16,0.0,0.0,0.0,5.377063749747908e-16,0.0,1.215820172523437e-15,0.0
0.2670000000000002,0.0,0.0,0.0504,0.0,1.6843551866319895e-16,0.0,0.0,0.0,5.397389475128272e-16,0.0,1.2209830876819547e-15,0.0
0.2680000000000002,0.0,0.0,0.0504,0.0,1.6965908320846015e-16,0.0,0.0,0.0,5.417715200508636e-16,0.0,1.2261460028404725e-15,0.0
0.2690000000000002,0.0,0.0,0.0504,0.0,1.7088781066887987e-16,0.0,0.0,0.0,5.438040925889e-16,0.0,1.2313089179989903e-15,0.0
0.2700000000000002,0.0,0.0,0.0504,0.0,1.7212170104445811e-16,0.0,0.0,0.0,5.458366651269364e-16,0.0,1.236471833157508e-15,0.0
0.2710000000000002,0.0,0.0,0.0504,0.0,1.7336075433519488e-16,0.0,0.0,0.0,5.478692376649728e-16,0.0,1.2416347483160259e-15,0.0
0.2720000000000002,0.0,0.0,0.0504,0.0,1.7460497054109016e-16,0.0,0.0,0.0,5.499018102030092e-16,0.0,1.2467976634745437e-15,0.0
0.2730000000000002,0.0,0.0,0.0504,0.0,1.7585434966214396e-16,0.0,0.0,0.0,5.519343827410456e-16,0.0,1.2519605786330615e-15,0.0
0.2740000000000002,0.0,0.0,0.0504,0.0,1.7710889169835628e-16,0.0,0.0,0.0,5.53966955279082e-16,0.0,1.2571234937915792e-15,0.0
0.2750000000000002,0.0,0.0,0.0504,0.0,1.7836859664972712e-16,0.0,0.0,0.0,5.559995278171184e-16,0.0,1.262286408950097e-15,0.0
0.2760000000000002,0.0,0.0,0.0504,0.0,1.7963346451625648e-16,0.0,0.0,0.0,5.580321003551548e-16,0.0,1.2674493241086148e-15,0.0
0.2770000000000002,0.0,0.0,0.0504,0.0,1.8090349529794436e-16,0.0,0.0,0.0,5.600646728931912e-16,0.0,1.2726122392671326e-15,0.0
0.2780000000000002,0.0,0.0,0.0504,0.0,1.8217868899479076e-16,0.0,0.0,0.0,5.620972454312276e-16,0.0,1.2777751544256504e-15,0.0
0.2790000000000002,0.0,0.0,0.0504,0.0,1.8345904560679568e-16,0.0,0.0,0.0,5.64129817969264e-16,0.0,1.2829380695841682e-15,0.0
0.2800000000000002,0.0,0.0,0.0504,0.0,1.847445651339591e-16,0.0,0.0,0.0,5.661623905073004e-16,0.0,1.288100984742686e-15,0.0
0.2810000000000002,0.0,0.0,0.0504,0.0,1.8603524757628103e-16,0.0,0.0,0.0,5.681949630453367e-16,0.0,1.2932638999012038e-15,0.0
0.2820000000000002,0.0,0.0,0.0504,0.0,1.8733109293376148e-16,0.0,0.0,0.0,5.702275355833731e-16,0.0,1.2984268150597216e-15,0.0
0.2830000000000002,0.0,0.0,0.0504,0.0,1.8863210120640046e-16,0.0,0.0,0.0,5.722601081214095e-16,0.0,1.3035897302182394e-15,0.0
0.2840000000000002,0.0,0.0,0.0504,0.0,1.8993827239419795e-16,0.0,0.0,0.0,5.742926806594459e-16,0.0,1.3087526453767571e-15,0.0
0.2850000000000002,0.0,0.0,0.0504,0.0,1.9124960649715397e-16,0.0,0.0,0.0,5.763252531974823e-16,0.0,1.313915560535275e-15,0.0
0.2860000000000002,0.0,0.0,0.0504,0.0,1.925661035152685e-16,0.0,0.0,0.0,5.783578257355187e-16,0.0,1.3190784756937927e-15,0.0
0.2870000000000002,0.0,0.0,0.0504,0.0,1.9388776344854155e-16,0.0,0.0,0.0,5.803903982735551e-16,0.0,1.3242413908523105e-15,0.0
0.2880000000000002,0.0,0.0,0.0504,0.0,1.9521458629697313e-16,0.0,0.0,0.0,5.823960806284743e-16,0.0,1.3279723491049893e-15,0.0
0.2890000000000002,0.0,0.0,0.0504,0.0,1.9654084423293986e-16,0.0,0.0,0.0,5.842673120678071e-16,0.0,1.3245435228284738e-15,0.0
0.2900000000000002,0.0,0.0,0.0504,0.0,1.9786367334263009e-16,0.0,0.0,0.0,5.861385435071399e-16,0.0,1.3211146965519582e-15,0.0
0.2910000000000002,0.0,0.0,0.0504,0.0,1.991830736260438e-16,0.0,0.0,0.0,5.880097749464726e-16,0.0,1.3176858702754427e-15,0.0
0.2920000000000002,0.0,0.0,0.0504,0.0,2.0049904508318097e-16,0.0,0.0,0.0,5.898810063858054e-16,0.0,1.3142570439989272e-15,0.0
0.2930000000000002,0.0,0.0,0.0504,0.0,2.0181158771404163e-16,0.0,0.0,0.0,5.917522378251382e-16,0.0,1.3108282177224116e-15,0.0
0.2940000000000002,0.0,0.0,0.0504,0.0,2.0312070151862578e-16,0.0,0.0,0.0,5.93623469264471e-16,0.0,1.307399391445896e-15,0.0
0.2950000000000002,0.0,0.0,0.0504,0.0,2.0442638649693342e-16,0.0,0.0,0.0,5.954947007038037e-16,0.0,1.3039705651693805e-15,0.0
0.2960000000000002,0.0,0.0,0.0504,0.0,2.0572864264896454e-16,0.0,0.0,0.0,5.973659321431365e-16,0.0,1.300541738892865e-15,0.0
0.2970000000000002,0.0,0.0,0.0504,0.0,2.0702746997471915e-16,0.0,0.0,0.0,5.992371635824693e-16,0.0,1.2971129126163494e-15,0.0
0.2980000000000002,0.0,0.0,0.0504,0.0,2.0832286847419724e-16,0.0,0.0,0.0,6.011083950218021e-16,0.0,1.293684086339834e-15,0.0
0.2990000000000002,0.0,0.0,0.0504,0.0,2.0961483814739883e-16,0.0,0.0,0.0,6.029796264611348e-16,0.0,1.2902552600633184e-15,0.0
0.3000000000000002,0.0,0.0,0.0504,0.0,2.109033789943239e-16,0.0,0.0,0.0,6.048508579004676e-16,0.0,1.2868264337868028e-15,0.0
0.3010000000000002,0.0,0.0,0.0504,0.0,2.1218849101497245e-16,0.0,0.0,0.0,6.067220893398004e-16,0.0,1.2833976075102873e-15,0.0
0.3020000000000002,0.0,0.0,0.0504,0.0,2.1347017420934447e-16,0.0,0.0,0.0,6.085933207791332e-16,0.0,1.2799687812337717e-15,0.0
0.3030000000000002,0.0,0.0,0.0504,0.0,2.1474842857743998e-16,0.0,0.0,0.0,6.104645522184659e-16,0.0,1.2765399549572562e-15,0.0
0.3040000000000002,0.0,0.0,0.0504,0.0,2.1602325411925897e-16,0.0,0.0,0.0,6.123357836577987e-16,0.0,1.2731111286807407e-15,0.0
0.3050000000000002,0.0,0.0,0.0504,0.0,2.1729465083480146e-16,0.0,0.0,0.0,6.142070150971315e-16,0.0,1.2696823024042251e-15,0.0
0.3060000000000002,0.0,0.0,0.0504,0.0,2.1856261872406742e-16,0.0,0.0,0.0,6.160782465364643e-16,0.0,1.2662534761277096e-15,0.0
0.3070000000000002,0.0,0.0,0.0504,0.0,2.1982715778705688e-16,0.0,0.0,0.0,6.17949477975797e-16,0.0,1.262824649851194e-15,0.0
0.3080000000000002,0.0,0.0,0.0504,0.0,2.2108826802376982e-16,0.0,0.0,0.0,6.198207094151298e-16,0.0,1.2593958235746785e-15,0.0
0.3090000000000002,0.0,0.0,0.0504,0.0,2.223459494342062e-16,0.0,0.0,0.0,6.216919408544626e-16,0.0,1.255966997298163e-15,0.0
0.3100000000000002,0.0,0.0,0.0504,0.0,2.2360020201836614e-16,0.0,0.0,0.0,6.235631722937953e-16,0.0,1.2525381710216474e-15,0.0
0.3110000000000002,0.0,0.0,0.0504,0.0,2.2485102577624954e-16,0.0,0.0,0.0,6.254344037331281e-16,0.0,1.2491093447451319e-15,0.0
0.3120000000000002,0.0,0.0,0.0504,0.0,2.2609842070785643e-16,0.0,0.0,0.0,6.273056351724609e-16,0.0,1.2456805184686163e-15,0.0
0.3130000000000002,0.0,0.0,0.0504,0.0,2.273423868131868e-16,0.0,0.0,0.0,6.291768666117937e-16,0.0,1.2422516921921008e-15,0.0
0.3140000000000002,0.0,0.0,0.0504,0.0,2.2858292409224067e-16,0.0,0.0,0.0,6.310480980511264e-16,0.0,1.2388228659155853e-15,0.0
0.3150000000000002,0.0,0.0,0.0504,0.0,2.29820032545018e-16,0.0,0.0,0.0,6.329193294904592e-16,0.0,1.2353940396390697e-15,0.0
0.3160000000000002,0.0,0.0,0.0504,0.0,2.310537121715188e-16,0.0,0.0,0.0,6.34790560929792e-16,0.0,1.2319652133625542e-15,0.0
0.3170000000000002,0.0,0.0,0.0504,0.0,2.322839629717431e-16,0.0,0.0,0.0,6.366617923691248e-16,0.0,1.2285363870860386e-15,0.0
0.3180000000000002,0.0,0.0,0.0504,0.0,2.3351078494569085e-16,0.0,0.0,0.0,6.385330238084575e-16,0.0,1.225107560809523e-15,0.0
0.31900000000000023,0.0,0.0,0.0504,0.0,2.347341780933621e-16,0.0,0.0,0.0,6.404042552477903e-16,0.0,1.2216787345330076e-15,0.0
0.32000000000000023,0.0,0.0,0.0504,0.0,2.3595414241475684e-16,0.0,0.0,0.0,6.422754866871231e-16,0.0,1.218249908256492e-15,0.0
0.32100000000000023,0.0,0.0,0.0504,0.0,2.3717067790987506e-16,0.0,0.0,0.0,6.441467181264559e-16,0.0,1.2148210819799765e-15,0.0
0.32200000000000023,0.0,0.0,0.0504,0.0,2.3838378457871677e-16,0.0,0.0,0.0,6.460179495657886e-16,0.0,1.211392255703461e-15,0.0
0.32300000000000023,0.0,0.0,0.0504,0.0,2.3959346242128197e-16,0.0,0.0,0.0,6.47942961371356e-16,0.0,1.2108273432386232e-15,0.0
0.32400000000000023,0.0,0.0,0.0504,0.0,2.4081116709281736e-16,0.0,0.0,0.0,6.501368750080961e-16,0.0,1.224581999832174e-15,0.0
0.32500000000000023,0.0,0.0,0.0504,0.0,2.420426264209463e-16,0.0,0.0,0.0,6.523307886448362e-16,0.0,1.238336656425725e-15,0.0
0.32600000000000023,0.0,0.0,0.0504,0.0,2.432878404056688e-16,0.0,0.0,0.0,6.545247022815763e-16,0.0,1.252091313019276e-15,0.0
0.32700000000000023,0.0,0.0,0.0504,0.0,2.4454680904698486e-16,0.0,0.0,0.0,6.567186159183164e-16,0.0,1.2658459696128269e-15,0.0
0.32800000000000024,0.0,0.0,0.0504,0.0,2.4581953234489447e-16,0.0,0.0,0.0,6.589125295550565e-16,0.0,1.2796006262063778e-15,0.0
0.32900000000000024,0.0,0.0,0.0504,0.0,2.4710601029939763e-16,0.0,0.0,0.0,6.611064431917967e-16,0.0,1.2933552827999287e-15,0.0
0.33000000000000024,0.0,0.0,0.0504,0.0,2.4840624291049434e-16,0.0,0.0,0.0,6.633003568285368e-16,0.0,1.3071099393934796e-15,0.0
0.33100000000000024,0.0,0.0,0.0504,0.0,2.497202301781846e-16,0.0,0.0,0.0,6.654942704652769e-16,0.0,1.3208645959870305e-15,0.0
0.33200000000000024,0.0,0.0,0.0504,0.0,2.510479721024684e-16,0.0,0.0,0.0,6.67688184102017e-16,0.0,1.3346192525805815e-15,0.0
0.33300000000000024,0.0,0.0,0.0504,0.0,2.523894686833458e-16,0.0,0.0,0.0,6.698820977387571e-16,0.0,1.3483739091741324e-15,0.0
0.33400000000000024,0.0,0.0,0.0504,0.0,2.537447199208167e-16,0.0,0.0,0.0,6.720760113754972e-16,0.0,1.3621285657676833e-15,0.0
0.33500000000000024,0.0,0.0,0.0504,0.0,2.5511372581488117e-16,0.0,0.0,0.0,6.742699250122373e-16,0.0,1.3758832223612342e-15,0.0
0.33600000000000024,0.0,0.0,0.0504,0.0,2.564964863655392e-16,0.0,0.0,0.0,6.764638386489774e-16,0.0,1.3896378789547852e-15,0.0
0.33700000000000024,0.0,0.0,0.0504,0.0,2.578930015727908e-16,0.0,0.0,0.0,6.786577522857175e-16,0.0,1.403392535548336e-15,0.0
0.33800000000000024,0.0,0.0,0.0504,0.0,2.593032714366359e-16,0.0,0.0,0.0,6.808516659224577e-16,0.0,1.417147192141887e-15,0.0
0.33900000000000025,0.0,0.0,0.0504,0.0,2.607272959570746e-16,0.0,0.0,0.0,6.830455795591978e-16,0.0,1.430901848735438e-15,0.0
0.34000000000000025,0.0,0.0,0.0504,0.0,2.6216507513410682e-16,0.0,0.0,0.0,6.852394931959379e-16,0.0,1.4446565053289888e-15,0.0
0.34100000000000025,0.0,0.0,0.0504,0.0,2.636166089677326e-16,0.0,0.0,0.0,6.87433406832678e-16,0.0,1.4584111619225398e-15,0.0
0.34200000000000025,0.0,0.0,0.0504,0.0,2.650818974579519e-16,0.0,0.0,0.0,6.896273204694181e-16,0.0,1.4721658185160907e-15,0.0
0.34300000000000025,0.0,0.0,0.0504,0.0,2.6656094060476475e-16,0.0,0.0,0.0,6.918212341061582e-16,0.0,1.4859204751096416e-15,0.0
0.34400000000000025,0.0,0.0,0.0504,0.0,2.6805373840817114e-16,0.0,0.0,0.0,6.940151477428983e-16,0.0,1.4996751317031925e-15,0.0
0.34500000000000025,0.0,0.0,0.0504,0.0,2.695602908681711e-16,0.0,0.0,0.0,6.962090613796384e-16,0.0,1.5134297882967435e-15,0.0
0.34600000000000025,0.0,0.0,0.0504,0.0,2.710805979847646e-16,0.0,0.0,0.0,6.984029750163786e-16,0.0,1.5271844448902944e-15,0.0
0.34700000000000025,0.0,0.0,0.0504,0.0,2.7261465975795164e-16,0.0,0.0,0.0,7.005968886531187e-16,0.0,1.5409391014838453e-15,0.0
0.34800000000000025,0.0,0.0,0.0504,0.0,2.7416247618773225e-16,0.0,0.0,0.0,7.027908022898588e-16,0.0,1.5546937580773962e-15,0.0
0.34900000000000025,0.0,0.0,0.0504,0.0,2.757240472741064e-16,0.0,0.0,0.0,7.049847159265989e-16,0.0,1.5684484146709471e-15,0.0
0.35000000000000026,0.0,0.0,0.0504,0.0,2.772993730170741e-16,0.0,0.0,0.0,7.07178629563339e-16,0.0,1.582203071264498e-15,0.0
0.35100000000000026,0.0,0.0,0.0504,0.0,2.788884534166354e-16,0.0,0.0,0.0,7.093725432000791e-16,0.0,1.595957727858049e-15,0.0
0.35200000000000026,0.0,0.0,0.0504,0.0,2.804912884727902e-16,0.0,0.0,0.0,7.115664568368192e-16,0.0,1.6097123844516e-15,0.0
0.35300000000000026,0.0,0.0,0.0504,0.0,2.8210787818553857e-16,0.0,0.0,0.0,7.137603704735593e-16,0.0,1.6234670410451508e-15,0.0
0.35400000000000026,0.0,0.0,0.0504,0.0,2.837382225548805e-16,0.0,0.0,0.0,7.159542841102994e-16,0.0,1.6372216976387018e-15,0.0
0.35500000000000026,0.0,0.0,0.0504,0.0,2.8538232158081596e-16,0.0,0.0,0.0,7.181481977470396e-16,0.0,1.6509763542322527e-15,0.0
0.35600000000000026,0.0,0.0,0.0504,0.0,2.87040175263345e-16,0.0,0.0,0.0,7.203421113837797e-16,0.0,1.6647310108258036e-15,0.0
0.35700000000000026,0.0,0.0,0.0504,0.0,2.8871178360246756e-16,0.0,0.0,0.0,7.225360250205198e-16,0.0,1.6784856674193545e-15,0.0
0.35800000000000026,0.0,0.0,0.0504,0.0,2.903971465981837e-16,0.0,0.0,0.0,7.247299386572599e-16,0.0,1.6922403240129055e-15,0.0
0.35900000000000026,0.0,0.0,0.0504,0.0,2.920962642504934e-16,0.0,0.0,0.0,7.26923852294e-16,0.0,1.7059949806064564e-15,0.0
0.36000000000000026,0.0,0.0,0.0504,0.0,2.938091365593966e-16,0.0,0.0,0.0,7.291177659307401e-16,0.0,1.7197496372000073e-15,0.0
0.36100000000000027,0.0,0.0,0.0504,0.0,2.955357635248934e-16,0.0,0.0,0.0,7.313116795674802e-16,0.0,1.7335042937935582e-15,0.0
0.36200000000000027,0.0,0.0,0.0504,0.0,2.9727614514698374e-16,0.0,0.0,0.0,7.335055932042203e-16,0.0,1.7472589503871091e-15,0.0
0.36300000000000027,0.0,0.0,0.0504,0.0,2.9903028142566764e-16,0.0,0.0,0.0,7.356995068409604e-16,0.0,1.76101360698066e-15,0.0
0.36400000000000027,0.0,0.0,0.0504,0.0,3.007981723609451e-16,0.0,0.0,0.0,7.378934204777006e-16,0.0,1.774768263574211e-15,0.0
0.36500000000000027,0.0,0.0,0.0504,0.0,3.025798179528161e-16,0.0,0.0,0.0,7.400873341144407e-16,0.0,1.788522920167762e-15,0.0
0.36600000000000027,0.0,0.0,0.0504,0.0,3.0437521820128063e-16,0.0,0.0,0.0,7.422812477511808e-16,0.0,1.802277576761313e-15,0.0
0.36700000000000027,0.0,0.0,0.0504,0.0,3.0618437310633874e-16,0.0,0.0,0.0,7.444751613879209e-16,0.0,1.8160322333548638e-15,0.0
0.36800000000000027,0.0,0.0,0.0504,0.0,3.080072826679904e-16,0.0,0.0,0.0,7.46669075024661e-16,0.0,1.8297868899484147e-15,0.0
0.36900000000000027,0.0,0.0,0.0504,0.0,3.098439468862356e-16,0.0,0.0,0.0,7.488629886614011e-16,0.0,1.8435415465419656e-15,0.0
0.3700000000000003,0.0,0.0,0.0504,0.0,3.1169436576107436e-16,0.0,0.0,0.0,7.510569022981412e-16,0.0,1.8572962031355165e-15,0.0
0.3710000000000003,0.0,0.0,0.0504,0.0,3.1355853929250667e-16,0.0,0.0,0.0,7.532508159348813e-16,0.0,1.8710508597290674e-15,0.0
0.3720000000000003,0.0,0.0,0.0504,0.0,3.1543646748053254e-16,0.0,0.0,0.0,7.554447295716215e-16,0.0,1.8848055163226184e-15,0.0
0.3730000000000003,0.0,0.0,0.0504,0.0,3.173281503251519e-16,0.0,0.0,0.0,7.576386432083616e-16,0.0,1.8985601729161693e-15,0.0
0.3740000000000003,0.0,0.0,0.0504,0.0,3.1923358782636483e-16,0.0,0.0,0.0,7.598325568451017e-16,0.0,1.9123148295097202e-15,0.0
0.3750000000000003,0.0,0.0,0.0504,0.0,3.211527799841713e-16,0.0,0.0,0.0,7.620264704818418e-16,0.0,1.926069486103271e-15,0.0
0.3760000000000003,0.0,0.0,0.0504,0.0,3.2308572679857133e-16,0.0,0.0,0.0,7.642203841185819e-16,0.0,1.939824142696822e-15,0.0
0.3770000000000003,0.0,0.0,0.0504,0.0,3.250324282695649e-16,0.0,0.0,0.0,7.66414297755322e-16,0.0,1.953578799290373e-15,0.0
0.3780000000000003,0.0,0.0,0.0504,0.0,3.2699002048334036e-16,0.0,0.0,0.0,7.684737604764757e-16,0.0,1.9601736713547296e-15,0.0
0.3790000000000003,0.0,0.0,0.0504,0.0,3.2895277561227434e-16,0.0,0.0,0.0,7.705063330145121e-16,0.0,1.9653365865132473e-15,0.0
0.3800000000000003,0.0,0.0,0.0504,0.0,3.3092069365636683e-16,0.0,0.0,0.0,7.725389055525485e-16,0.0,1.970499501671765e-15,0.0
0.3810000000000003,0.0,0.0,0.0504,0.0,3.3289377461561784e-16,0.0,0.0,0.0,7.745714780905849e-16,0.0,1.975662416830283e-15,0.0
0.3820000000000003,0.0,0.0,0.0504,0.0,3.348720184900274e-16,0.0,0.0,0.0,7.766040506286213e-16,0.0,1.9808253319888007e-15,0.0
0.3830000000000003,0.0,0.0,0.0504,0.0,3.3685542527959543e-16,0.0,0.0,0.0,7.786366231666577e-16,0.0,1.9859882471473185e-15,0.0
0.3840000000000003,0.0,0.0,0.0504,0.0,3.38843994984322e-16,0.0,0.0,0.0,7.806691957046941e-16,0.0,1.9911511623058363e-15,0.0
0.3850000000000003,0.0,0.0,0.0504,0.0,3.408377276042071e-16,0.0,0.0,0.0,7.827017682427304e-16,0.0,1.996314077464354e-15,0.0
0.3860000000000003,0.0,0.0,0.0504,0.0,3.428366231392507e-16,0.0,0.0,0.0,7.847343407807668e-16,0.0,2.001476992622872e-15,0.0
0.3870000000000003,0.0,0.0,0.0504,0.0,3.4484068158945284e-16,0.0,0.0,0.0,7.867669133188032e-16,0.0,2.0066399077813897e-15,0.0
0.3880000000000003,0.0,0.0,0.0504,0.0,3.468499029548135e-16,0.0,0.0,0.0,7.887994858568396e-16,0.0,2.0118028229399075e-15,0.0
0.3890000000000003,0.0,0.0,0.0504,0.0,3.4886428723533266e-16,0.0,0.0,0.0,7.90832058394876e-16,0.0,2.0169657380984252e-15,0.0
0.3900000000000003,0.0,0.0,0.0504,0.0,3.5088383443101035e-16,0.0,0.0,0.0,7.928646309329124e-16,0.0,2.022128653256943e-15,0.0
0.3910000000000003,0.0,0.0,0.0504,0.0,3.5290854454184656e-16,0.0,0.0,0.0,7.948972034709488e-16,0.0,2.027291568415461e-15,0.0
0.3920000000000003,0.0,0.0,0.0504,0.0,3.549384175678413e-16,0.0,0.0,0.0,7.969297760089852e-16,0.0,2.0324544835739786e-15,0.0
0.3930000000000003,0.0,0.0,0.0504,0.0,3.5697345350899454e-16,0.0,0.0,0.0,7.989623485470216e-16,0.0,2.0376173987324964e-15,0.0
0.3940000000000003,0.0,0.0,0.0504,0.0,3.590136523653063e-16,0.0,0.0,0.0,8.00994921085058e-16,0.0,2.042780313891014e-15,0.0
0.3950000000000003,0.0,0.0,0.0504,0.0,3.610590141367766e-16,0.0,0.0,0.0,8.030274936230944e-16,0.0,2.047943229049532e-15,0.0
0.3960000000000003,0.0,0.0,0.0504,0.0,3.631095388234054e-16,0.0,0.0,0.0,8.050600661611308e-16,0.0,2.0531061442080498e-15,0.0
0.3970000000000003,0.0,0.0,0.0504,0.0,3.6516522642519274e-16,0.0,0.0,0.0,8.070926386991672e-16,0.0,2.0582690593665676e-15,0.0
0.3980000000000003,0.0,0.0,0.0504,0.0,3.672260769421386e-16,0.0,0.0,0.0,8.091252112372036e-16,0.0,2.0634319745250853e-15,0.0
0.3990000000000003,0.0,0.0,0.0504,0.0,3.692920903742429e-16,0.0,0.0,0.0,8.1115778377524e-16,0.0,2.068594889683603e-15,0.0
0.4000000000000003,0.0,0.0,0.0504,0.0,3.7136326672150575e-16,0.0,0.0,0.0,8.131903563132763e-16,0.0,2.073757804842121e-15,0.0
0.4010000000000003,0.0,0.0,0.0504,0.0,3.734396059839271e-16,0.0,0.0,0.0,8.152229288513127e-16,0.0,2.0789207200006387e-15,0.0
0.4020000000000003,0.0,0.0,0.0504,0.0,3.75521108161507e-16,0.0,0.0,0.0,8.172555013893491e-16,0.0,2.0840836351591565e-15,0.0
0.4030000000000003,0.0,0.0,0.0504,0.0,3.776077732542454e-16,0.0,0.0,0.0,8.192880739273855e-16,0.0,2.0892465503176743e-15,0.0
0.4040000000000003,0.0,0.0,0.0504,0.0,3.796996012621423e-16,0.0,0.0,0.0,8.213206464654219e-16,0.0,2.094409465476192e-15,0.0
0.4050000000000003,0.0,0.0,0.0504,0.0,3.8179659218519774e-16,0.0,0.0,0.0,8.233532190034583e-16,0.0,2.09957238063471e-15,0.0
0.4060000000000003,0.0,0.0,0.0504,0.0,3.838987460234117e-16,0.0,0.0,0.0,8.253857915414947e-16,0.0,2.1047352957932277e-15,0.0
0.4070000000000003,0.0,0.0,0.0504,0.0,3.860060627767842e-16,0.0,0.0,0.0,8.274183640795311e-16,0.0,2.1098982109517455e-15,0.0
0.4080000000000003,0.0,0.0,0.0504,0.0,3.881185424453152e-16,0.0,0.0,0.0,8.294509366175675e-16,0.0,2.1150611261102632e-15,0.0
0.4090000000000003,0.0,0.0,0.0504,0.0,3.902361850290047e-16,0.0,0.0,0.0,8.314835091556039e-16,0.0,2.120224041268781e-15,0.0
0.4100000000000003,0.0,0.0,0.0504,0.0,3.9235899052785273e-16,0.0,0.0,0.0,8.335160816936403e-16,0.0,2.125386956427299e-15,0.0
0.4110000000000003,0.0,0.0,0.0504,0.0,3.944869589418593e-16,0.0,0.0,0.0,8.355486542316767e-16,0.0,2.1305498715858166e-15,0.0
0.4120000000000003,0.0,0.0,0.0504,0.0,3.9662009027102436e-16,0.0,0.0,0.0,8.375812267697131e-16,0.0,2.1357127867443344e-15,0.0
0.4130000000000003,0.0,0.0,0.0504,0.0,3.9875838451534796e-16,0.0,0.0,0.0,8.396137993077495e-16,0.0,2.140875701902852e-15,0.0
0.4140000000000003,0.0,0.0,0.0504,0.0,4.0090470558864175e-16,0.0,0.0,0.0,8.417808227613723e-16,0.0,2.1531984015905643e-15,0.0
0.4150000000000003,0.0,0.0,0.0504,0.0,4.030647813185291e-16,0.0,0.0,0.0,8.439747363981124e-16,0.0,2.1669530581841152e-15,0.0
0.4160000000000003,0.0,0.0,0.0504,0.0,4.0523861170501e-16,0.0,0.0,0.0,8.461686500348525e-16,0.0,2.180707714777666e-15,0.0
0.4170000000000003,0.0,0.0,0.0504,0.0,4.0742619674808445e-16,0.0,0.0,0.0,8.483625636715926e-16,0.0,2.194462371371217e-15,0.0
0.4180000000000003,0.0,0.0,0.0504,0.0,4.0962753644775245e-16,0.0,0.0,0.0,8.505564773083327e-16,0.0,2.208217027964768e-15,0.0
0.4190000000000003,0.0,0.0,0.0504,0.0,4.11842630804014e-16,0.0,0.0,0.0,8.527503909450728e-16,0.0,2.221971684558319e-15,0.0
0.4200000000000003,0.0,0.0,0.0504,0.0,4.140714798168691e-16,0.0,0.0,0.0,8.54944304581813e-16,0.0,2.23572634115187e-15,0.0
0.4210000000000003,0.0,0.0,0.0504,0.0,4.163140834863178e-16,0.0,0.0,0.0,8.571382182185531e-16,0.0,2.2494809977454208e-15,0.0
0.4220000000000003,0.0,0.0,0.0504,0.0,4.1857044181236e-16,0.0,0.0,0.0,8.593321318552932e-16,0.0,2.2632356543389717e-15,0.0
0.4230000000000003,0.0,0.0,0.0504,0.0,4.2084055479499576e-16,0.0,0.0,0.0,8.615260454920333e-16,0.0,2.2769903109325226e-15,0.0
0.4240000000000003,0.0,0.0,0.0504,0.0,4.231244224342251e-16,0.0,0.0,0.0,8.637199591287734e-16,0.0,2.2907449675260735e-15,0.0
0.4250000000000003,0.0,0.0,0.0504,0.0,4.2542204473004795e-16,0.0,0.0,0.0,8.659138727655135e-16,0.0,2.3044996241196245e-15,0.0
0.4260000000000003,0.0,0.0,0.0504,0.0,4.2773342168246437e-16,0.0,0.0,0.0,8.681077864022536e-16,0.0,2.3182542807131754e-15,0.0
0.4270000000000003,0.0,0.0,0.0504,0.0,4.300585532914743e-16,0.0,0.0,0.0,8.703017000389937e-16,0.0,2.3320089373067263e-15,0.0
0.4280000000000003,0.0,0.0,0.0504,0.0,4.323974395570778e-16,0.0,0.0,0.0,8.724956136757339e-16,0.0,2.3457635939002772e-15,0.0
0.4290000000000003,0.0,0.0,0.0504,0.0,4.347500804792748e-16,0.0,0.0,0.0,8.74689527312474e-16,0.0,2.359518250493828e-15,0.0
0.4300000000000003,0.0,0.0,0.0504,0.0,4.371164760580654e-16,0.0,0.0,0.0,8.768834409492141e-16,0.0,2.373272907087379e-15,0.0
0.4310000000000003,0.0,0.0,0.0504,0.0,4.3949662629344953e-16,0.0,0.0,0.0,8.790773545859542e-16,0.0,2.38702756368093e-15,0.0
0.43200000000000033,0.0,0.0,0.0504,0.0,4.418905311854272e-16,0.0,0.0,0.0,8.812712682226943e-16,0.0,2.400782220274481e-15,0.0
0.43300000000000033,0.0,0.0,0.0504,0.0,4.442981907339985e-16,0.0,0.0,0.0,8.834651818594344e-16,0.0,2.414536876868032e-15,0.0
0.43400000000000033,0.0,0.0,0.0504,0.0,4.467196049391633e-16,0.0,0.0,0.0,8.856590954961745e-16,0.0,2.4282915334615828e-15,0.0
0.43500000000000033,0.0,0.0,0.0504,0.0,4.491547738009217e-16,0.0,0.0,0.0,8.878530091329146e-16,0.0,2.4420461900551337e-15,0.0
0.43600000000000033,0.0,0.0,0.0504,0.0,4.5160369731927365e-16,0.0,0.0,0.0,8.900469227696548e-16,0.0,2.4558008466486846e-15,0.0
0.43700000000000033,0.0,0.0,0.0504,0.0,4.5406637549421915e-16,0.0,0.0,0.0,8.92240836406395e-16,0.0,2.4695555032422355e-15,0.0
0.43800000000000033,0.0,0.0,0.0504,0.0,4.565428083257582e-16,0.0,0.0,0.0,8.944078598600179e-16,0.0,2.4818782029299477e-15,0.0
0.43900000000000033,0.0,0.0,0.0504,0.0,4.590272679862675e-16,0.0,0.0,0.0,8.964404323980543e-16,0.0,2.4870411180884655e-15,0.0
0.44000000000000034,0.0,0.0,0.0504,0.0,4.615168905619352e-16,0.0,0.0,0.0,8.984730049360907e-16,0.0,2.4922040332469833e-15,0.0
0.44100000000000034,0.0,0.0,0.0504,0.0,4.640116760527615e-16,0.0,0.0,0.0,9.00505577474127e-16,0.0,2.497366948405501e-15,0.0
0.44200000000000034,0.0,0.0,0.0504,0.0,4.665116244587462e-16,0.0,0.0,0.0,9.025381500121635e-16,0.0,2.502529863564019e-15,0.0
0.44300000000000034,0.0,0.0,0.0504,0.0,4.690167357798895e-16,0.0,0.0,0.0,9.045707225501998e-16,0.0,2.5076927787225366e-15,0.0
0.44400000000000034,0.0,0.0,0.0504,0.0,4.715270100161912e-16,0.0,0.0,0.0,9.066032950882362e-16,0.0,2.5128556938810544e-15,0.0
0.44500000000000034,0.0,0.0,0.0504,0.0,4.740424471676515e-16,0.0,0.0,0.0,9.086358676262726e-16,0.0,2.5180186090395722e-15,0.0
0.44600000000000034,0.0,0.0,0.0504,0.0,4.765630472342703e-16,0.0,0.0,0.0,9.10668440164309e-16,0.0,2.52318152419809e-15,0.0
0.44700000000000034,0.0,0.0,0.0504,0.0,4.790888102160476e-16,0.0,0.0,0.0,9.127010127023454e-16,0.0,2.5283444393566078e-15,0.0
0.44800000000000034,0.0,0.0,0.0504,0.0,4.816197361129834e-16,0.0,0.0,0.0,9.147335852403818e-16,0.0,2.5335073545151256e-15,0.0
0.44900000000000034,0.0,0.0,0.0504,0.0,4.841558249250778e-16,0.0,0.0,0.0,9.167661577784182e-16,0.0,2.5386702696736434e-15,0.0
0.45000000000000034,0.0,0.0,0.0504,0.0,4.866970766523306e-16,0.0,0.0,0.0,9.187987303164546e-16,0.0,2.543833184832161e-15,0.0
0.45100000000000035,0.0,0.0,0.0504,0.0,4.89243491294742e-16,0.0,0.0,0.0,9.20831302854491e-16,0.0,2.548996099990679e-15,0.0
0.45200000000000035,0.0,0.0,0.0504,0.0,4.917950688523119e-16,0.0,0.0,0.0,9.228638753925274e-16,0.0,2.5541590151491967e-15,0.0
0.45300000000000035,0.0,0.0,0.0504,0.0,4.943518093250404e-16,0.0,0.0,0.0,9.248964479305638e-16,0.0,2.5593219303077145e-15,0.0
0.45400000000000035,0.0,0.0,0.0504,0.0,4.969137127129273e-16,0.0,0.0,0.0,9.269290204686002e-16,0.0,2.5644848454662323e-15,0.0
0.45500000000000035,0.0,0.0,0.0504,0.0,4.994807790159728e-16,0.0,0.0,0.0,9.289615930066366e-16,0.0,2.56964776062475e-15,0.0
0.45600000000000035,0.0,0.0,0.0504,0.0,5.020530082341768e-16,0.0,0.0,0.0,9.30994165544673e-16,0.0,2.574810675783268e-15,0.0
0.45700000000000035,0.0,0.0,0.0504,0.0,5.046304003675393e-16,0.0,0.0,0.0,9.330267380827094e-16,0.0,2.5799735909417857e-15,0.0
0.45800000000000035,0.0,0.0,0.0504,0.0,5.072129554160603e-16,0.0,0.0,0.0,9.350593106207458e-16,0.0,2.5851365061003035e-15,0.0
0.45900000000000035,0.0,0.0,0.0504,0.0,5.098006733797398e-16,0.0,0.0,0.0,9.370918831587821e-16,0.0,2.5902994212588213e-15,0.0
0.46000000000000035,0.0,0.0,0.0504,0.0,5.123935542585779e-16,0.0,0.0,0.0,9.391244556968185e-16,0.0,2.595462336417339e-15,0.0
0.46100000000000035,0.0,0.0,0.0504,0.0,5.149915980525745e-16,0.0,0.0,0.0,9.41157028234855e-16,0.0,2.600625251575857e-15,0.0
0.46200000000000035,0.0,0.0,0.0504,0.0,5.175948047617296e-16,0.0,0.0,0.0,9.431896007728913e-16,0.0,2.6057881667343746e-15,0.0
0.46300000000000036,0.0,0.0,0.0504,0.0,5.202031743860432e-16,0.0,0.0,0.0,9.452221733109277e-16,0.0,2.6109510818928924e-15,0.0
0.46400000000000036,0.0,0.0,0.0504,0.0,5.228167069255154e-16,0.0,0.0,0.0,9.472547458489641e-16,0.0,2.6161139970514102e-15,0.0
0.46500000000000036,0.0,0.0,0.0504,0.0,5.2543540238014605e-16,0.0,0.0,0.0,9.492873183870005e-16,0.0,2.621276912209928e-15,0.0
0.46600000000000036,0.0,0.0,0.0504,0.0,5.280592607499352e-16,0.0,0.0,0.0,9.513198909250369e-16,0.0,2.6264398273684458e-15,0.0
0.46700000000000036,0.0,0.0,0.0504,0.0,5.306882820348829e-16,0.0,0.0,0.0,9.533524634630733e-16,0.0,2.6316027425269636e-15,0.0
0.46800000000000036,0.0,0.0,0.0504,0.0,5.333224662349892e-16,0.0,0.0,0.0,9.553850360011097e-16,0.0,2.6367656576854814e-15,0.0
0.46900000000000036,0.0,0.0,0.0504,0.0,5.359618133502539e-16,0.0,0.0,0.0,9.57417608539146e-16,0.0,2.641928572843999e-15,0.0
0.47000000000000036,0.0,0.0,0.0504,0.0,5.386063233806772e-16,0.0,0.0,0.0,9.594501810771825e-16,0.0,2.647091488002517e-15,0.0
0.47100000000000036,0.0,0.0,0.0504,0.0,5.41255996326259e-16,0.0,0.0,0.0,9.614827536152189e-16,0.0,2.6522544031610347e-15,0.0
0.47200000000000036,0.0,0.0,0.0504,0.0,5.439108321869993e-16,0.0,0.0,0.0,9.635153261532553e-16,0.0,2.6574173183195525e-15,0.0
0.47300000000000036,0.0,0.0,0.0504,0.0,5.465708309628981e-16,0.0,0.0,0.0,9.655478986912917e-16,0.0,2.6625802334780703e-15,0.0
0.47400000000000037,0.0,0.0,0.0504,0.0,5.492359926539554e-16,0.0,0.0,0.0,9.67580471229328e-16,0.0,2.667743148636588e-15,0.0
0.47500000000000037,0.0,0.0,0.0504,0.0,5.519063172601713e-16,0.0,0.0,0.0,9.696130437673644e-16,0.0,2.672906063795106e-15,0.0
0.47600000000000037,0.0,0.0,0.0504,0.0,5.545818047815457e-16,0.0,0.0,0.0,9.716456163054008e-16,0.0,2.6780689789536237e-15,0.0
0.47700000000000037,0.0,0.0,0.0504,0.0,5.572624552180786e-16,0.0,0.0,0.0,9.736781888434372e-16,0.0,2.6832318941121415e-15,0.0
0.47800000000000037,0.0,0.0,0.0504,0.0,5.599511324835817e-16,0.0,0.0,0.0,9.758452122970602e-16,0.0,2.6955545937998536e-15,0.0
0.47900000000000037,0.0,0.0,0.0504,0.0,5.626535644056783e-16,0.0,0.0,0.0,9.780391259338003e-16,0.0,2.7093092503934045e-15,0.0
0.48000000000000037,0.0,0.0,0.0504,0.0,5.653697509843685e-16,0.0,0.0,0.0,9.802330395705404e-16,0.0,2.7230639069869554e-15,0.0
0.48100000000000037,0.0,0.0,0.0504,0.0,5.680996922196523e-16,0.0,0.0,0.0,9.824269532072805e-16,0.0,2.7368185635805064e-15,0.0
0.4820000000000004,0.0,0.0,0.0504,0.0,5.708433881115296e-16,0.0,0.0,0.0,9.846208668440206e-16,0.0,2.7505732201740573e-15,0.0
0.4830000000000004,0.0,0.0,0.0504,0.0,5.736008386600005e-16,0.0,0.0,0.0,9.868147804807607e-16,0.0,2.7643278767676082e-15,0.0
0.4840000000000004,0.0,0.0,0.0504,0.0,5.763720438650649e-16,0.0,0.0,0.0,9.890086941175008e-16,0.0,2.778082533361159e-15,0.0
0.4850000000000004,0.0,0.0,0.0504,0.0,5.791570037267229e-16,0.0,0.0,0.0,9.91202607754241e-16,0.0,2.79183718995471e-15,0.0
0.4860000000000004,0.0,0.0,0.0504,0.0,5.819557182449744e-16,0.0,0.0,0.0,9.93396521390981e-16,0.0,2.805591846548261e-15,0.0
0.4870000000000004,0.0,0.0,0.0504,0.0,5.847681874198195e-16,0.0,0.0,0.0,9.955904350277212e-16,0.0,2.819346503141812e-15,0.0
0.4880000000000004,0.0,0.0,0.0504,0.0,5.875915473374464e-16,0.0,0.0,0.0,9.97649897748875e-16,0.0,2.8259413752061685e-15,0.0
0.4890000000000004,0.0,0.0,0.0504,0.0,5.904200701702319e-16,0.0,0.0,0.0,9.996824702869113e-16,0.0,2.8311042903646863e-15,0.0
0.4900000000000004,0.0,0.0,0.0504,0.0,5.932537559181759e-16,0.0,0.0,0.0,1.0017150428249477e-15,0.0,2.836267205523204e-15,0.0
0.4910000000000004,0.0,0.0,0.0504,0.0,5.960926045812784e-16,0.0,0.0,0.0,1.0037476153629841e-15,0.0,2.841430120681722e-15,0.0
0.4920000000000004,0.0,0.0,0.0504,0.0,5.989366161595394e-16,0.0,0.0,0.0,1.0057801879010205e-15,0.0,2.8465930358402396e-15,0.0
0.4930000000000004,0.0,0.0,0.0504,0.0,6.017857906529589e-16,0.0,0.0,0.0,1.007812760439057e-15,0.0,2.8517559509987574e-15,0.0
0.4940000000000004,0.0,0.0,0.0504,0.0,6.046401280615369e-16,0.0,0.0,0.0,1.0098453329770933e-15,0.0,2.8569188661572752e-15,0.0
0.4950000000000004,0.0,0.0,0.0504,0.0,6.074996283852734e-16,0.0,0.0,0.0,1.0118779055151297e-15,0.0,2.862081781315793e-15,0.0
0.4960000000000004,0.0,0.0,0.0504,0.0,6.103642916241684e-16,0.0,0.0,0.0,1.013910478053166e-15,0.0,2.8672446964743108e-15,0.0
0.4970000000000004,0.0,0.0,0.0504,0.0,6.132341177782219e-16,0.0,0.0,0.0,1.0159430505912025e-15,0.0,2.8724076116328286e-15,0.0
0.4980000000000004,0.0,0.0,0.0504,0.0,6.16109106847434e-16,0.0,0.0,0.0,1.0179756231292389e-15,0.0,2.8775705267913464e-15,0.0
0.4990000000000004,0.0,0.0,0.0504,0.0,6.189892588318045e-16,0.0,0.0,0.0,1.0200081956672753e-15,0.0,2.882733441949864e-15,0.0
0.5000000000000003,0.0,0.0,0.0504,0.0,6.218745737313336e-16,0.0,0.0,0.0,1.0220407682053117e-15,0.0,2.887896357108382e-15,0.0
0.5010000000000003,0.0,0.0,0.0504,0.0,6.247650515460212e-16,0.0,0.0,0.0,1.024073340743348e-15,0.0,2.8930592722668997e-15,0.0
0.5020000000000003,0.0,0.0,0.0504,0.0,6.276606922758674e-16,0.0,0.0,0.0,1.0261059132813844e-15,0.0,2.8982221874254175e-15,0.0
0.5030000000000003,0.0,0.0,0.0504,0.0,6.30561495920872e-16,0.0,0.0,0.0,1.0281384858194208e-15,0.0,2.9033851025839353e-15,0.0
0.5040000000000003,0.0,0.0,0.0504,0.0,6.334674624810352e-16,0.0,0.0,0.0,1.0301710583574572e-15,0.0,2.908548017742453e-15,0.0
0.5050000000000003,0.0,0.0,0.0504,0.0,6.363785919563569e-16,0.0,0.0,0.0,1.0322036308954936e-15,0.0,2.913710932900971e-15,0.0
0.5060000000000003,0.0,0.0,0.0504,0.0,6.392948843468371e-16,0.0,0.0,0.0,1.03423620343353e-15,0.0,2.9188738480594887e-15,0.0
0.5070000000000003,0.0,0.0,0.0504,0.0,6.422163396524758e-16,0.0,0.0,0.0,1.0362687759715664e-15,0.0,2.9240367632180065e-15,0.0
0.5080000000000003,0.0,0.0,0.0504,0.0,6.45142957873273e-16,0.0,0.0,0.0,1.0383013485096028e-15,0.0,2.9291996783765243e-15,0.0
0.5090000000000003,0.0,0.0,0.0504,0.0,6.480747390092288e-16,0.0,0.0,0.0,1.0403339210476392e-15,0.0,2.934362593535042e-15,0.0
0.5100000000000003,0.0,0.0,0.0504,0.0,6.510116830603431e-16,0.0,0.0,0.0,1.0423664935856756e-15,0.0,2.93952550869356e-15,0.0
0.5110000000000003,0.0,0.0,0.0504,0.0,6.539537900266159e-16,0.0,0.0,0.0,1.044399066123712e-15,0.0,2.9446884238520776e-15,0.0
0.5120000000000003,0.0,0.0,0.0504,0.0,6.569010599080472e-16,0.0,0.0,0.0,1.0464316386617484e-15,0.0,2.9498513390105954e-15,0.0
0.5130000000000003,0.0,0.0,0.0504,0.0,6.598534927046371e-16,0.0,0.0,0.0,1.0484642111997848e-15,0.0,2.9550142541691132e-15,0.0
0.5140000000000003,0.0,0.0,0.0504,0.0,6.628110884163854e-16,0.0,0.0,0.0,1.0504967837378212e-15,0.0,2.960177169327631e-15,0.0
0.5150000000000003,0.0,0.0,0.0504,0.0,6.657738470432923e-16,0.0,0.0,0.0,1.0525293562758576e-15,0.0,2.9653400844861488e-15,0.0
0.5160000000000003,0.0,0.0,0.0504,0.0,6.687417685853577e-16,0.0,0.0,0.0,1.054561928813894e-15,0.0,2.9705029996446666e-15,0.0
0.5170000000000003,0.0,0.0,0.0504,0.0,6.717148530425816e-16,0.0,0.0,0.0,1.0565945013519303e-15,0.0,2.9756659148031844e-15,0.0
0.5180000000000003,0.0,0.0,0.0504,0.0,6.746931004149641e-16,0.0,0.0,0.0,1.0586270738899667e-15,0.0,2.980828829961702e-15,0.0
0.5190000000000003,0.0,0.0,0.0504,0.0,6.77676510702505e-16,0.0,0.0,0.0,1.0606596464280031e-15,0.0,2.98599174512022e-15,0.0
0.5200000000000004,0.0,0.0,0.0504,0.0,6.806650839052045e-16,0.0,0.0,0.0,1.0626922189660395e-15,0.0,2.9911546602787377e-15,0.0
0.5210000000000004,0.0,0.0,0.0504,0.0,6.836588200230625e-16,0.0,0.0,0.0,1.064724791504076e-15,0.0,2.9963175754372555e-15,0.0
0.5220000000000004,0.0,0.0,0.0504,0.0,6.86657719056079e-16,0.0,0.0,0.0,1.0667573640421123e-15,0.0,3.0014804905957733e-15,0.0
0.5230000000000004,0.0,0.0,0.0504,0.0,6.896617810042541e-16,0.0,0.0,0.0,1.0687899365801487e-15,0.0,3.006643405754291e-15,0.0
0.5240000000000004,0.0,0.0,0.0504,0.0,6.926710058675876e-16,0.0,0.0,0.0,1.0708225091181851e-15,0.0,3.011806320912809e-15,0.0
0.5250000000000004,0.0,0.0,0.0504,0.0,6.956853936460797e-16,0.0,0.0,0.0,1.0728550816562215e-15,0.0,3.0169692360713267e-15,0.0
0.5260000000000004,0.0,0.0,0.0504,0.0,6.987049443397303e-16,0.0,0.0,0.0,1.0748876541942579e-15,0.0,3.0221321512298445e-15,0.0
0.5270000000000004,0.0,0.0,0.0504,0.0,7.017296579485394e-16,0.0,0.0,0.0,1.0769202267322943e-15,0.0,3.0272950663883623e-15,0.0
0.5280000000000004,0.0,0.0,0.0504,0.0,7.047595344725071e-16,0.0,0.0,0.0,1.0789527992703307e-15,0.0,3.03245798154688e-15,0.0
0.5290000000000004,0.0,0.0,0.0504,0.0,7.077945739116332e-16,0.0,0.0,0.0,1.080985371808367e-15,0.0,3.037620896705398e-15,0.0
0.5300000000000004,0.0,0.0,0.0504,0.0,7.108347762659179e-16,0.0,0.0,0.0,1.0830179443464035e-15,0.0,3.0427838118639156e-15,0.0
0.5310000000000004,0.0,0.0,0.0504,0.0,7.138801415353611e-16,0.0,0.0,0.0,1.0850505168844399e-15,0.0,3.0479467270224334e-15,0.0
0.5320000000000004,0.0,0.0,0.0504,0.0,7.169306697199628e-16,0.0,0.0,0.0,1.087056199239359e-15,0.0,3.0516776852751124e-15,0.0
0.5330000000000004,0.0,0.0,0.0504,0.0,7.199863608197231e-16,0.0,0.0,0.0,1.0891963325098646e-15,0.0,3.0625684280569858e-15,0.0
0.5340000000000004,0.0,0.0,0.0504,0.0,7.230558065760769e-16,0.0,0.0,0.0,1.0913902461466047e-15,0.0,3.0763230846505367e-15,0.0
0.5350000000000004,0.0,0.0,0.0504,0.0,7.261390069890242e-16,0.0,0.0,0.0,1.0935841597833448e-15,0.0,3.0900777412440876e-15,0.0
0.5360000000000004,0.0,0.0,0.0504,0.0,7.292359620585651e-16,0.0,0.0,0.0,1.095778073420085e-15,0.0,3.1038323978376385e-15,0.0
0.5370000000000004,0.0,0.0,0.0504,0.0,7.323466717846996e-16,0.0,0.0,0.0,1.097971987056825e-15,0.0,3.1175870544311895e-15,0.0
0.5380000000000004,0.0,0.0,0.0504,0.0,7.354711361674276e-16,0.0,0.0,0.0,1.1001659006935652e-15,0.0,3.1313417110247404e-15,0.0
0.5390000000000004,0.0,0.0,0.0504,0.0,7.386093552067491e-16,0.0,0.0,0.0,1.1023598143303053e-15,0.0,3.1450963676182913e-15,0.0
0.5400000000000004,0.0,0.0,0.0504,0.0,7.417613289026642e-16,0.0,0.0,0.0,1.1045537279670454e-15,0.0,3.1588510242118422e-15,0.0
0.5410000000000004,0.0,0.0,0.0504,0.0,7.449270572551729e-16,0.0,0.0,0.0,1.1067476416037855e-15,0.0,3.172605680805393e-15,0.0
0.5420000000000004,0.0,0.0,0.0504,0.0,7.481065402642751e-16,0.0,0.0,0.0,1.1089415552405256e-15,0.0,3.186360337398944e-15,0.0
0.5430000000000004,0.0,0.0,0.0504,0.0,7.512997779299708e-16,0.0,0.0,0.0,1.1111354688772657e-15,0.0,3.200114993992495e-15,0.0
0.5440000000000004,0.0,0.0,0.0504,0.0,7.545067702522602e-16,0.0,0.0,0.0,1.1133293825140058e-15,0.0,3.213869650586046e-15,0.0
0.5450000000000004,0.0,0.0,0.0504,0.0,7.57727517231143e-16,0.0,0.0,0.0,1.115523296150746e-15,0.0,3.227624307179597e-15,0.0
0.5460000000000004,0.0,0.0,0.0504,0.0,7.609620188666194e-16,0.0,0.0,0.0,1.117717209787486e-15,0.0,3.2413789637731478e-15,0.0
0.5470000000000004,0.0,0.0,0.0504,0.0,7.642102751586892e-16,0.0,0.0,0.0,1.1199111234242262e-15,0.0,3.2551336203666987e-15,0.0
0.5480000000000004,0.0,0.0,0.0504,0.0,7.674722861073527e-16,0.0,0.0,0.0,1.1221050370609663e-15,0.0,3.2688882769602496e-15,0.0
0.5490000000000004,0.0,0.0,0.0504,0.0,7.707480517126096e-16,0.0,0.0,0.0,1.1242989506977064e-15,0.0,3.2826429335538005e-15,0.0
0.5500000000000004,0.0,0.0,0.0504,0.0,7.740375719744602e-16,0.0,0.0,0.0,1.1264928643344465e-15,0.0,3.2963975901473514e-15,0.0
0.5510000000000004,0.0,0.0,0.0504,0.0,7.773408468929043e-16,0.0,0.0,0.0,1.1286867779711866e-15,0.0,3.3101522467409024e-15,0.0
0.5520000000000004,0.0,0.0,0.0504,0.0,7.806578764679419e-16,0.0,0.0,0.0,1.1308806916079267e-15,0.0,3.3239069033344533e-15,0.0
0.5530000000000004,0.0,0.0,0.0504,0.0,7.839886606995731e-16,0.0,0.0,0.0,1.1330746052446668e-15,0.0,3.3376615599280042e-15,0.0
0.5540000000000004,0.0,0.0,0.0504,0.0,7.873331995877978e-16,0.0,0.0,0.0,1.135268518881407e-15,0.0,3.351416216521555e-15,0.0
0.5550000000000004,0.0,0.0,0.0504,0.0,7.906914931326161e-16,0.0,0.0,0.0,1.137462432518147e-15,0.0,3.365170873115106e-15,0.0
0.5560000000000004,0.0,0.0,0.0504,0.0,7.94063541334028e-16,0.0,0.0,0.0,1.1396563461548872e-15,0.0,3.378925529708657e-15,0.0
0.5570000000000004,0.0,0.0,0.0504,0.0,7.974493441920334e-16,0.0,0.0,0.0,1.1418502597916273e-15,0.0,3.392680186302208e-15,0.0
0.5580000000000004,0.0,0.0,0.0504,0.0,8.008489017066323e-16,0.0,0.0,0.0,1.1440441734283674e-15,0.0,3.406434842895759e-15,0.0
0.5590000000000004,0.0,0.0,0.0504,0.0,8.042622138778248e-16,0.0,0.0,0.0,1.1462380870651075e-15,0.0,3.4201894994893097e-15,0.0
0.5600000000000004,0.0,0.0,0.0504,0.0,8.076892807056109e-16,0.0,0.0,0.0,1.1484320007018476e-15,0.0,3.4339441560828607e-15,0.0
0.5610000000000004,0.0,0.0,0.0504,0.0,8.111301021899905e-16,0.0,0.0,0.0,1.1506259143385877e-15,0.0,3.4476988126764116e-15,0.0
0.5620000000000004,0.0,0.0,0.0504,0.0,8.145846783309637e-16,0.0,0.0,0.0,1.1528198279753278e-15,0.0,3.4614534692699625e-15,0.0
0.5630000000000004,0.0,0.0,0.0504,0.0,8.180530091285304e-16,0.0,0.0,0.0,1.155013741612068e-15,0.0,3.4752081258635134e-15,0.0
0.5640000000000004,0.0,0.0,0.0504,0.0,8.215350945826906e-16,0.0,0.0,0.0,1.157207655248808e-15,0.0,3.4889627824570644e-15,0.0
0.5650000000000004,0.0,0.0,0.0504,0.0,8.250309346934445e-16,0.0,0.0,0.0,1.1594015688855482e-15,0.0,3.5027174390506153e-15,0.0
0.5660000000000004,0.0,0.0,0.0504,0.0,8.285405294607918e-16,0.0,0.0,0.0,1.1615954825222883e-15,0.0,3.5164720956441662e-15,0.0
0.5670000000000004,0.0,0.0,0.0504,0.0,8.320638788847328e-16,0.0,0.0,0.0,1.1637893961590284e-15,0.0,3.530226752237717e-15,0.0
0.5680000000000004,0.0,0.0,0.0504,0.0,8.356009829652672e-16,0.0,0.0,0.0,1.1659833097957685e-15,0.0,3.543981408831268e-15,0.0
0.5690000000000004,0.0,0.0,0.0504,0.0,8.391518417023953e-16,0.0,0.0,0.0,1.1681772234325086e-15,0.0,3.557736065424819e-15,0.0
0.5700000000000004,0.0,0.0,0.0504,0.0,8.427164550961168e-16,0.0,0.0,0.0,1.1703711370692487e-15,0.0,3.57149072201837e-15,0.0
0.5710000000000004,0.0,0.0,0.0504,0.0,8.46294823146432e-16,0.0,0.0,0.0,1.1725381605228717e-15,0.0,3.583813421706082e-15,0.0
0.5720000000000004,0.0,0.0,0.0504,0.0,8.498812180257173e-16,0.0,0.0,0.0,1.174570733060908e-15,0.0,3.588976336864599e-15,0.0
0.5730000000000004,0.0,0.0,0.0504,0.0,8.534727758201612e-16,0.0,0.0,0.0,1.1766033055989444e-15,0.0,3.5941392520231164e-15,0.0
0.5740000000000004,0.0,0.0,0.0504,0.0,8.570694965297635e-16,0.0,0.0,0.0,1.1786358781369808e-15,0.0,3.599302167181634e-15,0.0
0.5750000000000004,0.0,0.0,0.0504,0.0,8.606713801545244e-16,0.0,0.0,0.0,1.1806684506750172e-15,0.0,3.604465082340151e-15,0.0
0.5760000000000004,0.0,0.0,0.0504,0.0,8.642784266944438e-16,0.0,0.0,0.0,1.1827010232130536e-15,0.0,3.609627997498669e-15,0.0
0.5770000000000004,0.0,0.0,0.0504,0.0,8.678906361495218e-16,0.0,0.0,0.0,1.18473359575109e-15,0.0,3.614790912657186e-15,0.0
0.5780000000000004,0.0,0.0,0.0504,0.0,8.715080085197582e-16,0.0,0.0,0.0,1.1867661682891264e-15,0.0,3.6199538278157034e-15,0.0
0.5790000000000004,0.0,0.0,0.0504,0.0,8.751305438051532e-16,0.0,0.0,0.0,1.1887987408271628e-15,0.0,3.625116742974221e-15,0.0
0.5800000000000004,0.0,0.0,0.0504,0.0,8.787582420057067e-16,0.0,0.0,0.0,1.1908582035483166e-15,0.0,3.631711615038577e-15,0.0
0.5810000000000004,0.0,0.0,0.0504,0.0,8.8239683094904205e-16,0.0,0.0,0.0,1.1930521171850567e-15,0.0,3.645466271632128e-15,0.0
0.5820000000000004,0.0,0.0,0.0504,0.0,8.86049174548971e-16,0.0,0.0,0.0,1.1952460308217968e-15,0.0,3.659220928225679e-15,0.0
0.5830000000000004,0.0,0.0,0.0504,0.0,8.897152728054933e-16,0.0,0.0,0.0,1.197439944458537e-15,0.0,3.67297558481923e-15,0.0
0.5840000000000004,0.0,0.0,0.0504,0.0,8.933951257186093e-16,0.0,0.0,0.0,1.199633858095277e-15,0.0,3.686730241412781e-15,0.0
0.5850000000000004,0.0,0.0,0.0504,0.0,8.970887332883187e-16,0.0,0.0,0.0,1.2018277717320171e-15,0.0,3.700484898006332e-15,0.0
0.5860000000000004,0.0,0.0,0.0504,0.0,9.007960955146218e-16,0.0,0.0,0.0,1.2040216853687573e-15,0.0,3.714239554599883e-15,0.0
0.5870000000000004,0.0,0.0,0.0504,0.0,9.045172123975184e-16,0.0,0.0,0.0,1.2062155990054974e-15,0.0,3.727994211193434e-15,0.0
0.5880000000000004,0.0,0.0,0.0504,0.0,9.082520839370085e-16,0.0,0.0,0.0,1.2084095126422375e-15,0.0,3.741748867786985e-15,0.0
0.5890000000000004,0.0,0.0,0.0504,0.0,9.120007101330922e-16,0.0,0.0,0.0,1.2106034262789776e-15,0.0,3.755503524380536e-15,0.0
0.5900000000000004,0.0,0.0,0.0504,0.0,9.157630909857694e-16,0.0,0.0,0.0,1.2127973399157177e-15,0.0,3.7692581809740866e-15,0.0
0.5910000000000004,0.0,0.0,0.0504,0.0,9.195392264950402e-16,0.0,0.0,0.0,1.2149912535524578e-15,0.0,3.7830128375676375e-15,0.0
0.5920000000000004,0.0,0.0,0.0504,0.0,9.233291166609045e-16,0.0,0.0,0.0,1.217185167189198e-15,0.0,3.7967674941611884e-15,0.0
0.5930000000000004,0.0,0.0,0.0504,0.0,9.271327614833624e-16,0.0,0.0,0.0,1.219379080825938e-15,0.0,3.810522150754739e-15,0.0
0.5940000000000004,0.0,0.0,0.0504,0.0,9.309501609624139e-16,0.0,0.0,0.0,1.2215729944626781e-15,0.0,3.82427680734829e-15,0.0
0.5950000000000004,0.0,0.0,0.0504,0.0,9.347813150980589e-16,0.0,0.0,0.0,1.2237669080994183e-15,0.0,3.838031463941841e-15,0.0
0.5960000000000004,0.0,0.0,0.0504,0.0,9.386262238902975e-16,0.0,0.0,0.0,1.2259608217361584e-15,0.0,3.851786120535392e-15,0.0
0.5970000000000004,0.0,0.0,0.0504,0.0,9.424848873391296e-16,0.0,0.0,0.0,1.2281547353728985e-15,0.0,3.865540777128943e-15,0.0
0.5980000000000004,0.0,0.0,0.0504,0.0,9.463573054445552e-16,0.0,0.0,0.0,1.2303486490096386e-15,0.0,3.879295433722494e-15,0.0
0.5990000000000004,0.0,0.0,0.0504,0.0,9.502434782065744e-16,0.0,0.0,0.0,1.2325425626463787e-15,0.0,3.893050090316045e-15,0.0
0.6000000000000004,0.0,0.0,0.0504,0.0,9.541434056251872e-16,0.0,0.0,0.0,1.2347364762831188e-15,0.0,3.906804746909596e-15,0.0
0.6010000000000004,0.0,0.0,0.0504,0.0,9.580570877003935e-16,0.0,0.0,0.0,1.236930389919859e-15,0.0,3.920559403503147e-15,0.0
0.6020000000000004,0.0,0.0,0.0504,0.0,9.619845244321934e-16,0.0,0.0,0.0,1.239124303556599e-15,0.0,3.934314060096698e-15,0.0
0.6030000000000004,0.0,0.0,0.0504,0.0,9.659257158205868e-16,0.0,0.0,0.0,1.2413182171933391e-15,0.0,3.9480687166902486e-15,0.0
0.6040000000000004,0.0,0.0,0.0504,0.0,9.698806618655738e-16,0.0,0.0,0.0,1.2435121308300793e-15,0.0,3.9618233732837995e-15,0.0
0.6050000000000004,0.0,0.0,0.0504,0.0,9.738493625671543e-16,0.0,0.0,0.0,1.2457060444668194e-15,0.0,3.9755780298773504e-15,0.0
0.6060000000000004,0.0,0.0,0.0504,0.0,9.778318179253284e-16,0.0,0.0,0.0,1.2478730679204423e-15,0.0,3.987900729565062e-15,0.0
0.6070000000000004,0.0,0.0,0.0504,0.0,9.818223001124727e-16,0.0,0.0,0.0,1.2499056404584787e-15,0.0,3.9930636447235796e-15,0.0
0.6080000000000004,0.0,0.0,0.0504,0.0,9.858179452147756e-16,0.0,0.0,0.0,1.251938212996515e-15,0.0,3.998226559882097e-15,0.0
0.6090000000000004,0.0,0.0,0.0504,0.0,9.898187532322369e-16,0.0,0.0,0.0,1.2539707855345515e-15,0.0,4.003389475040614e-15,0.0
0.6100000000000004,0.0,0.0,0.0504,0.0,9.938247241648568e-16,0.0,0.0,0.0,1.2560033580725879e-15,0.0,4.008552390199132e-15,0.0
0.6110000000000004,0.0,0.0,0.0504,0.0,9.978358580126352e-16,0.0,0.0,0.0,1.2580359306106243e-15,0.0,4.013715305357649e-15,0.0
0.6120000000000004,0.0,0.0,0.0504,0.0,1.0018521547755721e-15,0.0,0.0,0.0,1.2600685031486607e-15,0.0,4.0188782205161665e-15,0.0
0.6130000000000004,0.0,0.0,0.0504,0.0,1.0058736144536675e-15,0.0,0.0,0.0,1.262101075686697e-15,0.0,4.024041135674684e-15,0.0
0.6140000000000004,0.0,0.0,0.0504,0.0,1.0099002370469215e-15,0.0,0.0,0.0,1.2641336482247334e-15,0.0,4.029204050833201e-15,0.0
0.6150000000000004,0.0,0.0,0.0504,0.0,1.013932022555334e-15,0.0,0.0,0.0,1.2661662207627698e-15,0.0,4.034366965991719e-15,0.0
0.6160000000000004,0.0,0.0,0.0504,0.0,1.017968970978905e-15,0.0,0.0,0.0,1.2681987933008062e-15,0.0,4.039529881150236e-15,0.0
0.6170000000000004,0.0,0.0,0.0504,0.0,1.0220110823176345e-15,0.0,0.0,0.0,1.2702313658388426e-15,0.0,4.0446927963087535e-15,0.0
0.6180000000000004,0.0,0.0,0.0504,0.0,1.0260583565715226e-15,0.0,0.0,0.0,1.272263938376879e-15,0.0,4.049855711467271e-15,0.0
0.6190000000000004,0.0,0.0,0.0504,0.0,1.0301107937405691e-15,0.0,0.0,0.0,1.2742965109149154e-15,0.0,4.055018626625788e-15,0.0
0.6200000000000004,0.0,0.0,0.0504,0.0,1.0341683938247742e-15,0.0,0.0,0.0,1.2763290834529518e-15,0.0,4.060181541784306e-15,0.0
0.6210000000000004,0.0,0.0,0.0504,0.0,1.0382311568241378e-15,0.0,0.0,0.0,1.2783616559909882e-15,0.0,4.065344456942823e-15,0.0
0.6220000000000004,0.0,0.0,0.0504,0.0,1.04229908273866e-15,0.0,0.0,0.0,1.2803942285290246e-15,0.0,4.0705073721013405e-15,0.0
0.6230000000000004,0.0,0.0,0.0504,0.0,1.0463721715683406e-15,0.0,0.0,0.0,1.282426801067061e-15,0.0,4.075670287259858e-15,0.0
0.6240000000000004,0.0,0.0,0.0504,0.0,1.0504504233131798e-15,0.0,0.0,0.0,1.2844593736050974e-15,0.0,4.080833202418375e-15,0.0
0.6250000000000004,0.0,0.0,0.0504,0.0,1.0545338379731774e-15,0.0,0.0,0.0,1.2864919461431338e-15,0.0,4.085996117576893e-15,0.0
0.6260000000000004,0.0,0.0,0.0504,0.0,1.0586224155483335e-15,0.0,0.0,0.0,1.2885245186811702e-15,0.0,4.09115903273541e-15,0.0
0.6270000000000004,0.0,0.0,0.0504,0.0,1.0627161560386481e-15,0.0,0.0,0.0,1.2905570912192066e-15,0.0,4.0963219478939275e-15,0.0
0.6280000000000004,0.0,0.0,0.0504,0.0,1.0668150594441212e-15,0.0,0.0,0.0,1.292589663757243e-15,0.0,4.101484863052445e-15,0.0
0.6290000000000004,0.0,0.0,0.0504,0.0,1.070919125764753e-15,0.0,0.0,0.0,1.2946222362952793e-15,0.0,4.106647778210962e-15,0.0
0.6300000000000004,0.0,0.0,0.0504,0.0,1.075028355000543e-15,0.0,0.0,0.0,1.2966548088333157e-15,0.0,4.11181069336948e-15,0.0
0.6310000000000004,0.0,0.0,0.0504,0.0,1.0791427471514918e-15,0.0,0.0,0.0,1.2986873813713521e-15,0.0,4.116973608527997e-15,0.0
0.6320000000000005,0.0,0.0,0.0504,0.0,1.083262302217599e-15,0.0,0.0,0.0,1.3007199539093885e-15,0.0,4.1221365236865144e-15,0.0
0.6330000000000005,0.0,0.0,0.0504,0.0,1.0873870201988648e-15,0.0,0.0,0.0,1.302752526447425e-15,0.0,4.127299438845032e-15,0.0
0.6340000000000005,0.0,0.0,0.0504,0.0,1.091516901095289e-15,0.0,0.0,0.0,1.3047850989854613e-15,0.0,4.132462354003549e-15,0.0
0.6350000000000005,0.0,0.0,0.0504,0.0,1.0956519449068718e-15,0.0,0.0,0.0,1.3068176715234977e-15,0.0,4.137625269162067e-15,0.0
0.6360000000000005,0.0,0.0,0.0504,0.0,1.099792151633613e-15,0.0,0.0,0.0,1.3088502440615341e-15,0.0,4.142788184320584e-15,0.0
0.6370000000000005,0.0,0.0,0.0504,0.0,1.103937521275513e-15,0.0,0.0,0.0,1.3108828165995705e-15,0.0,4.1479510994791014e-15,0.0
0.6380000000000005,0.0,0.0,0.0504,0.0,1.1080880538325712e-15,0.0,0.0,0.0,1.3128884989544897e-15,0.0,4.1516820577317804e-15,0.0
0.6390000000000005,0.0,0.0,0.0504,0.0,1.1122380214771648e-15,0.0,0.0,0.0,1.3147597303938224e-15,0.0,4.148253231455265e-15,0.0
0.6400000000000005,0.0,0.0,0.0504,0.0,1.1163845602954818e-15,0.0,0.0,0.0,1.316630961833155e-15,0.0,4.14482440517875e-15,0.0
0.6410000000000005,0.0,0.0,0.0504,0.0,1.1205276702875224e-15,0.0,0.0,0.0,1.3185021932724877e-15,0.0,4.141395578902234e-15,0.0
0.6420000000000005,0.0,0.0,0.0504,0.0,1.1246673514532864e-15,0.0,0.0,0.0,1.3203734247118204e-15,0.0,4.137966752625719e-15,0.0
0.6430000000000005,0.0,0.0,0.0504,0.0,1.1288036037927739e-15,0.0,0.0,0.0,1.322244656151153e-15,0.0,4.134537926349204e-15,0.0
0.6440000000000005,0.0,0.0,0.0504,0.0,1.1329364273059849e-15,0.0,0.0,0.0,1.3241158875904858e-15,0.0,4.131109100072688e-15,0.0
0.6450000000000005,0.0,0.0,0.0504,0.0,1.1370658219929193e-15,0.0,0.0,0.0,1.3259871190298184e-15,0.0,4.127680273796173e-15,0.0
0.6460000000000005,0.0,0.0,0.0504,0.0,1.1411917878535773e-15,0.0,0.0,0.0,1.3278583504691511e-15,0.0,4.124251447519658e-15,0.0
0.6470000000000005,0.0,0.0,0.0504,0.0,1.1453143248879588e-15,0.0,0.0,0.0,1.3297295819084838e-15,0.0,4.120822621243142e-15,0.0
0.6480000000000005,0.0,0.0,0.0504,0.0,1.1494334330960637e-15,0.0,0.0,0.0,1.3316008133478165e-15,0.0,4.117393794966627e-15,0.0
0.6490000000000005,0.0,0.0,0.0504,0.0,1.1535491124778921e-15,0.0,0.0,0.0,1.3334720447871491e-15,0.0,4.113964968690112e-15,0.0
0.6500000000000005,0.0,0.0,0.0504,0.0,1.157661363033444e-15,0.0,0.0,0.0,1.3353432762264818e-15,0.0,4.110536142413596e-15,0.0
0.6510000000000005,0.0,0.0,0.0504,0.0,1.1617701847627194e-15,0.0,0.0,0.0,1.3372145076658145e-15,0.0,4.107107316137081e-15,0.0
0.6520000000000005,0.0,0.0,0.0504,0.0,1.1658755776657183e-15,0.0,0.0,0.0,1.3390857391051472e-15,0.0,4.103678489860566e-15,0.0
0.6530000000000005,0.0,0.0,0.0504,0.0,1.1699775417424407e-15,0.0,0.0,0.0,1.3409569705444798e-15,0.0,4.10024966358405e-15,0.0
0.6540000000000005,0.0,0.0,0.0504,0.0,1.1740760769928865e-15,0.0,0.0,0.0,1.3428282019838125e-15,0.0,4.096820837307535e-15,0.0
0.6550000000000005,0.0,0.0,0.0504,0.0,1.1781711834170559e-15,0.0,0.0,0.0,1.3446994334231452e-15,0.0,4.0933920110310196e-15,0.0
0.6560000000000005,0.0,0.0,0.0504,0.0,1.1822628610149487e-15,0.0,0.0,0.0,1.3465706648624779e-15,0.0,4.089963184754504e-15,0.0
0.6570000000000005,0.0,0.0,0.0504,0.0,1.186351109786565e-15,0.0,0.0,0.0,1.3484418963018105e-15,0.0,4.086534358477989e-15,0.0
0.6580000000000005,0.0,0.0,0.0504,0.0,1.1904359297319048e-15,0.0,0.0,0.0,1.3503131277411432e-15,0.0,4.0831055322014736e-15,0.0
0.6590000000000005,0.0,0.0,0.0504,0.0,1.1945173208509681e-15,0.0,0.0,0.0,1.3521843591804759e-15,0.0,4.079676705924958e-15,0.0
0.6600000000000005,0.0,0.0,0.0504,0.0,1.198595283143755e-15,0.0,0.0,0.0,1.354082480802926e-15,0.0,4.077679836554281e-15,0.0
0.6610000000000005,0.0,0.0,0.0504,0.0,1.2026755444378885e-15,0.0,0.0,0.0,1.3561150533409623e-15,0.0,4.082842751712799e-15,0.0
0.6620000000000005,0.0,0.0,0.0504,0.0,1.2067609686471806e-15,0.0,0.0,0.0,1.3581476258789987e-15,0.0,4.088005666871316e-15,0.0
0.6630000000000005,0.0,0.0,0.0504,0.0,1.2108515557716313e-15,0.0,0.0,0.0,1.3601801984170351e-15,0.0,4.0931685820298334e-15,0.0
0.6640000000000005,0.0,0.0,0.0504,0.0,1.2149473058112403e-15,0.0,0.0,0.0,1.3622127709550715e-15,0.0,4.098331497188351e-15,0.0
0.6650000000000005,0.0,0.0,0.0504,0.0,1.219048218766008e-15,0.0,0.0,0.0,1.364245343493108e-15,0.0,4.103494412346868e-15,0.0
0.6660000000000005,0.0,0.0,0.0504,0.0,1.2231542946359342e-15,0.0,0.0,0.0,1.3662779160311443e-15,0.0,4.108657327505386e-15,0.0
0.6670000000000005,0.0,0.0,0.0504,0.0,1.227265533421019e-15,0.0,0.0,0.0,1.3683104885691807e-15,0.0,4.113820242663903e-15,0.0
0.6680000000000005,0.0,0.0,0.0504,0.0,1.231381935121262e-15,0.0,0.0,0.0,1.3703430611072171e-15,0.0,4.1189831578224204e-15,0.0
0.6690000000000005,0.0,0.0,0.0504,0.0,1.2355034997366637e-15,0.0,0.0,0.0,1.3723756336452535e-15,0.0,4.124146072980938e-15,0.0
0.6700000000000005,0.0,0.0,0.0504,0.0,1.239627363353412e-15,0.0,0.0,0.0,1.3742737552677036e-15,0.0,4.122149203610261e-15,0.0
0.6710000000000005,0.0,0.0,0.0504,0.0,1.243747798143884e-15,0.0,0.0,0.0,1.3761449867070362e-15,0.0,4.1187203773337455e-15,0.0
0.6720000000000005,0.0,0.0,0.0504,0.0,1.2478648041080794e-15,0.0,0.0,0.0,1.378016218146369e-15,0.0,4.11529155105723e-15,0.0
0.6730000000000005,0.0,0.0,0.0504,0.0,1.2519783812459983e-15,0.0,0.0,0.0,1.3798874495857016e-15,0.0,4.111862724780715e-15,0.0
0.6740000000000005,0.0,0.0,0.0504,0.0,1.2560885295576407e-15,0.0,0.0,0.0,1.3817586810250343e-15,0.0,4.1084338985041995e-15,0.0
0.6750000000000005,0.0,0.0,0.0504,0.0,1.2601952490430065e-15,0.0,0.0,0.0,1.383629912464367e-15,0.0,4.105005072227684e-15,0.0
0.6760000000000005,0.0,0.0,0.0504,0.0,1.2642985397020959e-15,0.0,0.0,0.0,1.3855011439036996e-15,0.0,4.101576245951169e-15,0.0
0.6770000000000005,0.0,0.0,0.0504,0.0,1.2683984015349087e-15,0.0,0.0,0.0,1.3873723753430323e-15,0.0,4.0981474196746535e-15,0.0
0.6780000000000005,0.0,0.0,0.0504,0.0,1.272494834541445e-15,0.0,0.0,0.0,1.389243606782365e-15,0.0,4.094718593398138e-15,0.0
0.6790000000000005,0.0,0.0,0.0504,0.0,1.2765878387217048e-15,0.0,0.0,0.0,1.3911148382216976e-15,0.0,4.091289767121623e-15,0.0
0.6800000000000005,0.0,0.0,0.0504,0.0,1.2806774140756881e-15,0.0,0.0,0.0,1.3929860696610303e-15,0.0,4.0878609408451074e-15,0.0
0.6810000000000005,0.0,0.0,0.0504,0.0,1.284763560603395e-15,0.0,0.0,0.0,1.394857301100363e-15,0.0,4.084432114568592e-15,0.0
0.6820000000000005,0.0,0.0,0.0504,0.0,1.2888462783048252e-15,0.0,0.0,0.0,1.3967285325396957e-15,0.0,4.081003288292077e-15,0.0
0.6830000000000005,0.0,0.0,0.0504,0.0,1.292925567179979e-15,0.0,0.0,0.0,1.3985997639790283e-15,0.0,4.0775744620155614e-15,0.0
0.6840000000000005,0.0,0.0,0.0504,0.0,1.2970014272288562e-15,0.0,0.0,0.0,1.400470995418361e-15,0.0,4.074145635739046e-15,0.0
0.6850000000000005,0.0,0.0,0.0504,0.0,1.301073858451457e-15,0.0,0.0,0.0,1.4023422268576937e-15,0.0,4.070716809462531e-15,0.0
0.6860000000000005,0.0,0.0,0.0504,0.0,1.3051428608477811e-15,0.0,0.0,0.0,1.4042134582970264e-15,0.0,4.067287983186015e-15,0.0
0.6870000000000005,0.0,0.0,0.0504,0.0,1.3092084344178289e-15,0.0,0.0,0.0,1.406084689736359e-15,0.0,4.0638591569095e-15,0.0
0.6880000000000005,0.0,0.0,0.0504,0.0,1.3132705791616e-15,0.0,0.0,0.0,1.4079559211756917e-15,0.0,4.060430330632985e-15,0.0
0.6890000000000005,0.0,0.0,0.0504,0.0,1.3173292950790947e-15,0.0,0.0,0.0,1.4098271526150244e-15,0.0,4.057001504356469e-15,0.0
0.6900000000000005,0.0,0.0,0.0504,0.0,1.3213845821703129e-15,0.0,0.0,0.0,1.411698384054357e-15,0.0,4.053572678079954e-15,0.0
0.6910000000000005,0.0,0.0,0.0504,0.0,1.3254364404352545e-15,0.0,0.0,0.0,1.4135696154936897e-15,0.0,4.050143851803439e-15,0.0
0.6920000000000005,0.0,0.0,0.0504,0.0,1.3294848698739197e-15,0.0,0.0,0.0,1.4154408469330224e-15,0.0,4.046715025526923e-15,0.0
0.6930000000000005,0.0,0.0,0.0504,0.0,1.3335298704863083e-15,0.0,0.0,0.0,1.417312078372355e-15,0.0,4.043286199250408e-15,0.0
0.6940000000000005,0.0,0.0,0.0504,0.0,1.3375714422724204e-15,0.0,0.0,0.0,1.4191833098116878e-15,0.0,4.039857372973893e-15,0.0
0.6950000000000005,0.0,0.0,0.0504,0.0,1.341609585232256e-15,0.0,0.0,0.0,1.4210545412510204e-15,0.0,4.036428546697377e-15,0.0
0.6960000000000005,0.0,0.0,0.0504,0.0,1.3456442993658151e-15,0.0,0.0,0.0,1.4229257726903531e-15,0.0,4.032999720420862e-15,0.0
0.6970000000000005,0.0,0.0,0.0504,0.0,1.3496755846730977e-15,0.0,0.0,0.0,1.4247970041296858e-15,0.0,4.0295708941443466e-15,0.0
0.6980000000000005,0.0,0.0,0.0504,0.0,1.3537034411541038e-15,0.0,0.0,0.0,1.4266682355690185e-15,0.0,4.026142067867831e-15,0.0
0.6990000000000005,0.0,0.0,0.0504,0.0,1.3577278688088333e-15,0.0,0.0,0.0,1.4285932473745857e-15,0.0,4.0255771554029935e-15,0.0
0.7000000000000005,0.0,0.0,0.0504,0.0,1.361760323292533e-15,0.0,0.0,0.0,1.4307871610113258e-15,0.0,4.0393318119965444e-15,0.0
0.7010000000000005,0.0,0.0,0.0504,0.0,1.3658065324328264e-15,0.0,0.0,0.0,1.432981074648066e-15,0.0,4.053086468590095e-15,0.0
0.7020000000000005,0.0,0.0,0.0504,0.0,1.3698636323159016e-15,0.0,0.0,0.0,1.4350405373692197e-15,0.0,4.059681340654452e-15,0.0
0.7030000000000005,0.0,0.0,0.0504,0.0,1.3739258951141353e-15,0.0,0.0,0.0,1.4370731099072561e-15,0.0,4.064844255812969e-15,0.0
0.7040000000000005,0.0,0.0,0.0504,0.0,1.3779933208275276e-15,0.0,0.0,0.0,1.4391056824452925e-15,0.0,4.070007170971487e-15,0.0
0.7050000000000005,0.0,0.0,0.0504,0.0,1.3820659094560784e-15,0.0,0.0,0.0,1.441138254983329e-15,0.0,4.075170086130004e-15,0.0
0.7060000000000005,0.0,0.0,0.0504,0.0,1.3861436609997877e-15,0.0,0.0,0.0,1.4431708275213653e-15,0.0,4.0803330012885215e-15,0.0
0.7070000000000005,0.0,0.0,0.0504,0.0,1.3902265754586555e-15,0.0,0.0,0.0,1.4452034000594017e-15,0.0,4.085495916447039e-15,0.0
0.7080000000000005,0.0,0.0,0.0504,0.0,1.3943146528326819e-15,0.0,0.0,0.0,1.447235972597438e-15,0.0,4.090658831605556e-15,0.0
0.7090000000000005,0.0,0.0,0.0504,0.0,1.3984078931218667e-15,0.0,0.0,0.0,1.4492685451354745e-15,0.0,4.095821746764074e-15,0.0
0.7100000000000005,0.0,0.0,0.0504,0.0,1.40250629632621e-15,0.0,0.0,0.0,1.4513011176735109e-15,0.0,4.100984661922591e-15,0.0
0.7110000000000005,0.0,0.0,0.0504,0.0,1.4066098624457118e-15,0.0,0.0,0.0,1.4533336902115473e-15,0.0,4.1061475770811085e-15,0.0
0.7120000000000005,0.0,0.0,0.0504,0.0,1.410718591480372e-15,0.0,0.0,0.0,1.4553662627495837e-15,0.0,4.111310492239626e-15,0.0
0.7130000000000005,0.0,0.0,0.0504,0.0,1.414832483430191e-15,0.0,0.0,0.0,1.45739883528762e-15,0.0,4.116473407398143e-15,0.0
0.7140000000000005,0.0,0.0,0.0504,0.0,1.4189515382951683e-15,0.0,0.0,0.0,1.4594314078256564e-15,0.0,4.121636322556661e-15,0.0
0.7150000000000005,0.0,0.0,0.0504,0.0,1.4230757560753042e-15,0.0,0.0,0.0,1.4614639803636928e-15,0.0,4.126799237715178e-15,0.0
0.7160000000000005,0.0,0.0,0.0504,0.0,1.4272051367705986e-15,0.0,0.0,0.0,1.4634965529017292e-15,0.0,4.1319621528736954e-15,0.0
0.7170000000000005,0.0,0.0,0.0504,0.0,1.4313396803810515e-15,0.0,0.0,0.0,1.4655291254397656e-15,0.0,4.137125068032213e-15,0.0
0.7180000000000005,0.0,0.0,0.0504,0.0,1.435479386906663e-15,0.0,0.0,0.0,1.467561697977802e-15,0.0,4.14228798319073e-15,0.0
0.7190000000000005,0.0,0.0,0.0504,0.0,1.439624256347433e-15,0.0,0.0,0.0,1.4695942705158384e-15,0.0,4.147450898349248e-15,0.0
0.7200000000000005,0.0,0.0,0.0504,0.0,1.4437742887033614e-15,0.0,0.0,0.0,1.4716268430538748e-15,0.0,4.152613813507765e-15,0.0
0.7210000000000005,0.0,0.0,0.0504,0.0,1.4479294839744484e-15,0.0,0.0,0.0,1.4736594155919112e-15,0.0,4.1577767286662824e-15,0.0
0.7220000000000005,0.0,0.0,0.0504,0.0,1.4520898421606939e-15,0.0,0.0,0.0,1.4756919881299476e-15,0.0,4.1629396438248e-15,0.0
0.7230000000000005,0.0,0.0,0.0504,0.0,1.456255363262098e-15,0.0,0.0,0.0,1.477724560667984e-15,0.0,4.168102558983317e-15,0.0
0.7240000000000005,0.0,0.0,0.0504,0.0,1.4604260472786605e-15,0.0,0.0,0.0,1.4797571332060204e-15,0.0,4.1732654741418346e-15,0.0
0.7250000000000005,0.0,0.0,0.0504,0.0,1.4646018942103816e-15,0.0,0.0,0.0,1.4817897057440568e-15,0.0,4.178428389300352e-15,0.0
0.7260000000000005,0.0,0.0,0.0504,0.0,1.4687829040572612e-15,0.0,0.0,0.0,1.4838222782820932e-15,0.0,4.183591304458869e-15,0.0
0.7270000000000005,0.0,0.0,0.0504,0.0,1.4729690768192993e-15,0.0,0.0,0.0,1.4858548508201296e-15,0.0,4.188754219617387e-15,0.0
0.7280000000000005,0.0,0.0,0.0504,0.0,1.477160412496496e-15,0.0,0.0,0.0,1.487887423358166e-15,0.0,4.193917134775904e-15,0.0
0.7290000000000005,0.0,0.0,0.0504,0.0,1.4813569110888511e-15,0.0,0.0,0.0,1.4899199958962024e-15,0.0,4.1990800499344216e-15,0.0
0.7300000000000005,0.0,0.0,0.0504,0.0,1.4855585725963648e-15,0.0,0.0,0.0,1.4919525684342387e-15,0.0,4.204242965092939e-15,0.0
0.7310000000000005,0.0,0.0,0.0504,0.0,1.489765397019037e-15,0.0,0.0,0.0,1.4939851409722751e-15,0.0,4.209405880251456e-15,0.0
0.7320000000000005,0.0,0.0,0.0504,0.0,1.4939773843568677e-15,0.0,0.0,0.0,1.4960177135103115e-15,0.0,4.214568795409974e-15,0.0
0.7330000000000005,0.0,0.0,0.0504,0.0,1.498194534609857e-15,0.0,0.0,0.0,1.4980233958652307e-15,0.0,4.218299753662653e-15,0.0
0.7340000000000005,0.0,0.0,0.0504,0.0,1.5024111199503813e-15,0.0,0.0,0.0,1.4998946273045634e-15,0.0,4.2148709273861374e-15,0.0
0.7350000000000005,0.0,0.0,0.0504,0.0,1.5066242764646292e-15,0.0,0.0,0.0,1.501765858743896e-15,0.0,4.211442101109622e-15,0.0
0.7360000000000005,0.0,0.0,0.0504,0.0,1.5108340041526005e-15,0.0,0.0,0.0,1.5036370901832288e-15,0.0,4.208013274833107e-15,0.0
0.7370000000000005,0.0,0.0,0.0504,0.0,1.5150403030142953e-15,0.0,0.0,0.0,1.5055083216225614e-15,0.0,4.204584448556591e-15,0.0
0.7380000000000005,0.0,0.0,0.0504,0.0,1.5192460369635254e-15,0.0,0.0,0.0,1.5075140039774806e-15,0.0,4.20831540680927e-15,0.0
0.7390000000000005,0.0,0.0,0.0504,0.0,1.5234569338279139e-15,0.0,0.0,0.0,1.509546576515517e-15,0.0,4.213478321967788e-15,0.0
0.7400000000000005,0.0,0.0,0.0504,0.0,1.527672993607461e-15,0.0,0.0,0.0,1.5115791490535534e-15,0.0,4.218641237126305e-15,0.0
0.7410000000000005,0.0,0.0,0.0504,0.0,1.5318942163021665e-15,0.0,0.0,0.0,1.5136117215915898e-15,0.0,4.2238041522848226e-15,0.0
0.7420000000000005,0.0,0.0,0.0504,0.0,1.5361206019120307e-15,0.0,0.0,0.0,1.5156442941296262e-15,0.0,4.22896706744334e-15,0.0
0.7430000000000005,0.0,0.0,0.0504,0.0,1.5403521504370533e-15,0.0,0.0,0.0,1.5176768666676626e-15,0.0,4.234129982601857e-15,0.0
0.7440000000000005,0.0,0.0,0.0504,0.0,1.5445888618772345e-15,0.0,0.0,0.0,1.519709439205699e-15,0.0,4.239292897760375e-15,0.0
0.7450000000000006,0.0,0.0,0.0504,0.0,1.548830736232574e-15,0.0,0.0,0.0,1.5217420117437354e-15,0.0,4.244455812918892e-15,0.0
0.7460000000000006,0.0,0.0,0.0504,0.0,1.5530777735030723e-15,0.0,0.0,0.0,1.5237745842817718e-15,0.0,4.2496187280774095e-15,0.0
0.7470000000000006,0.0,0.0,0.0504,0.0,1.557329973688729e-15,0.0,0.0,0.0,1.5258071568198082e-15,0.0,4.254781643235927e-15,0.0
0.7480000000000006,0.0,0.0,0.0504,0.0,1.5615873367895443e-15,0.0,0.0,0.0,1.5278397293578446e-15,0.0,4.259944558394444e-15,0.0
0.7490000000000006,0.0,0.0,0.0504,0.0,1.565849862805518e-15,0.0,0.0,0.0,1.529872301895881e-15,0.0,4.265107473552962e-15,0.0
0.7500000000000006,0.0,0.0,0.0504,0.0,1.5701175517366503e-15,0.0,0.0,0.0,1.5319048744339174e-15,0.0,4.270270388711479e-15,0.0
0.7510000000000006,0.0,0.0,0.0504,0.0,1.574390403582941e-15,0.0,0.0,0.0,1.5339374469719538e-15,0.0,4.2754333038699965e-15,0.0
0.7520000000000006,0.0,0.0,0.0504,0.0,1.5786684183443902e-15,0.0,0.0,0.0,1.5359700195099902e-15,0.0,4.280596219028514e-15,0.0
0.7530000000000006,0.0,0.0,0.0504,0.0,1.582951596020998e-15,0.0,0.0,0.0,1.5380025920480266e-15,0.0,4.285759134187031e-15,0.0
0.7540000000000006,0.0,0.0,0.0504,0.0,1.5872399366127641e-15,0.0,0.0,0.0,1.540035164586063e-15,0.0,4.290922049345549e-15,0.0
0.7550000000000006,0.0,0.0,0.0504,0.0,1.591533440119689e-15,0.0,0.0,0.0,1.5420677371240993e-15,0.0,4.296084964504066e-15,0.0
0.7560000000000006,0.0,0.0,0.0504,0.0,1.5958321065417722e-15,0.0,0.0,0.0,1.5441003096621357e-15,0.0,4.3012478796625835e-15,0.0
0.7570000000000006,0.0,0.0,0.0504,0.0,1.600135935879014e-15,0.0,0.0,0.0,1.5461328822001721e-15,0.0,4.306410794821101e-15,0.0
0.7580000000000006,0.0,0.0,0.0504,0.0,1.6044449281314143e-15,0.0,0.0,0.0,1.5481654547382085e-15,0.0,4.311573709979618e-15,0.0
0.7590000000000006,0.0,0.0,0.0504,0.0,1.6087590832989732e-15,0.0,0.0,0.0,1.550198027276245e-15,0.0,4.316736625138136e-15,0.0
0.7600000000000006,0.0,0.0,0.0504,0.0,1.6130784013816905e-15,0.0,0.0,0.0,1.5522305998142813e-15,0.0,4.321899540296653e-15,0.0
0.7610000000000006,0.0,0.0,0.0504,0.0,1.6174028823795665e-15,0.0,0.0,0.0,1.5542631723523177e-15,0.0,4.3270624554551705e-15,0.0
0.7620000000000006,0.0,0.0,0.0504,0.0,1.6217325262926008e-15,0.0,0.0,0.0,1.556295744890354e-15,0.0,4.332225370613688e-15,0.0
0.7630000000000006,0.0,0.0,0.0504,0.0,1.6260673331207938e-15,0.0,0.0,0.0,1.5583283174283905e-15,0.0,4.337388285772205e-15,0.0
0.7640000000000006,0.0,0.0,0.0504,0.0,1.6304044389503336e-15,0.0,0.0,0.0,1.5602264390508405e-15,0.0,4.335391416401528e-15,0.0
0.7650000000000006,0.0,0.0,0.0504,0.0,1.634738115953597e-15,0.0,0.0,0.0,1.5620976704901732e-15,0.0,4.331962590125013e-15,0.0
0.7660000000000006,0.0,0.0,0.0504,0.0,1.6390683641305837e-15,0.0,0.0,0.0,1.5639689019295059e-15,0.0,4.328533763848498e-15,0.0
0.7670000000000006,0.0,0.0,0.0504,0.0,1.643395183481294e-15,0.0,0.0,0.0,1.5658401333688386e-15,0.0,4.325104937571982e-15,0.0
