ThEpiCake/Robot_Navigation_and_Control/results/pid_trajectory.csv
t,q1,q2,q3,q4,q5,q6,qd1,qd2,qd3,qd4,qd5,qd6,tau1,tau2,tau3,tau4,tau5,tau6
0.0,-0.2845756723971281,0.06932559218686318,0.05372661763944647,1.4698434500548463,0.20088468495617537,-1.6717492035349615,0.0,0.0,0.0,0.0,0.0,0.0,0.0,89.271,-35.37725936954416,0.3387616320064464,0.17197680676300922,0.0
0.001,-0.2845756723971281,0.06932559218686318,0.05372661763944647,1.4698434500548463,0.20088468495617537,-1.6717492035349615,0.0,0.0,0.0,0.0,0.0,0.0,-0.01663361765616538,89.27622125931161,-35.37335786683106,0.3388162648510106,0.16949527502479472,3.136844198103989e-05
0.002,-0.2845756835928339,0.06932559275194836,0.0537266183400476,1.4698434502059479,0.2008846843672532,-1.6717491793937913,-2.2391412909656986e-05,1.130169917858155e-06,1.4012020508893819e-06,3.0228897243432426e-07,-1.1778356442667102e-06,4.8282255195008317e-05,-0.03318658815762299,89.28141727472052,-35.36947524023718,0.3388706319632634,0.1670257737958867,6.258440954812074e-05
0.003,-0.28457572832138023,0.06932559500955568,0.053726621139064255,1.469843450809877,0.20088468201445528,-1.6717490829468082,-6.706568484402704e-05,3.385043077273651e-06,4.196830567286426e-06,9.059137562049743e-07,-3.527725801723295e-06,0.00014461136961674493,-0.04965904800189495,89.2865880877349,-35.36561146247894,0.33892473178199994,0.16456828129504322,9.364816460361517e-05
0.004,-0.28457582881143884,0.06932560008166003,0.053726627427541016,1.4698434521674064,0.20088467672860336,-1.671748866264561,-0.0001339144436355556,6.759162000419589e-06,8.38012162959755e-06,1.8099235425533775e-06,-7.043901393646557e-06,0.00028875235427504444,-0.06605113444515917,89.29173373985702,-35.361766510193014,0.3389785627071899,0.16212277572214215,0.00012455996889265754
0.005,-0.28457600718340037,0.06932560908478337,0.05372663858976427,1.4698434545783583,0.2008846673462825,-1.6717484816523827,-0.00022282949878465867,1.124707840206641e-05,1.3944322969939266e-05,3.0133697231254983e-06,-1.172060534218917e-05,0.00048047062701198556,-0.08236298548867503,89.29685427258323,-35.357940363872366,0.33903212310075037,0.15968923525873038,0.00015532008400426976
0.006,-0.2845762854495559,0.06932562313000395,0.05372665600327389,1.4698434583416065,0.20088465270982916,-1.671747881649985,-0.00033370284141046367,1.684335318375658e-05,2.0882693958218595e-05,4.515305740556144e-06,-1.7552092519584473e-05,0.0007195320123558795,-0.09859473986531707,89.30194972740401,-35.354133007802744,0.33908541128731445,0.15726763806856836,0.00018592877137245232
0.007,-0.2845766855142784,0.0693256433229655,0.05372668103887484,1.469843463755078,0.2008846316673192,-1.6717470190310504,-0.00046642664420172786,2.3542556428040287e-05,2.9188505588365925e-05,6.314786942170979e-06,-2.4532629697951427e-05,0.001005702741374443,-0.11474653702621442,89.307020145804,-35.35034442999965,0.3391384255549932,0.1548579622981672,0.00021638629227729495
0.008,-0.2845772291742045,0.06932567076388634,0.05372671506064881,1.469843471115755,0.20088460307255604,-1.6717458468028268,-0.0006208932613679238,3.1339267392770516e-05,3.88550404647238e-05,8.41087043653962e-06,-3.265649549978265e-05,0.0013387494515274582,-0.13081851712749223,89.31206556926202,-35.34657462214577,0.33919116415613154,0.15246018607732414,0.00024669290784606386
0.009000000000000001,-0.284577938118416,0.06932570654756863,0.05372675942596581,1.4698434807196774,0.20088456578505878,-1.6717443182057203,-0.0007969952285904916,4.0228074505444276e-05,4.987559278858679e-05,1.0802614952624067e-05,-4.1917980349095874e-05,0.0017184391865191126,-0.1468108210171116,89.31708603925111,-35.34282357952891,0.3392436253080591,0.1500742875196524,0.00027684887905428157
0.010000000000000002,-0.2845788339286209,0.06932575176340755,0.05372681548549578,1.4698434928619428,0.2008845186700505,-1.6717423867128898,-0.0009946252629742646,5.020357535762491e-05,6.22434683449045e-05,1.3489080701556707e-05,-5.231138642315572e-05,0.0021445393961499605,-0.18020648115168744,89.32746465082903,-35.335050923905015,0.339352922530175,0.1450925456377484,0.0003402928208591096
0.011000000000000003,-0.2845799498453885,0.06932580807804116,0.05372688530558869,1.4698435079985728,0.20088445996776821,-1.6717399801773454,-0.0012372083662482987,6.242565888629235e-05,7.739672451778922e-05,1.679320260936307e-05,-6.50923826644617e-05,0.002668522783903086,-0.19594811489939637,89.33240802799992,-35.331358154808235,0.33940452281724987,0.14274401772106274,0.00036996711379725424
0.012000000000000004,-0.2845813189405399,0.06932587714976253,0.05372697094225585,1.4698435265841139,0.200884387927598,-1.6717370268258664,-0.001500982047406162,7.571774445889841e-05,9.387662164477031e-05,2.0389009013724436e-05,-7.898698980874523e-05,0.0032381691897521037,-0.21161072370649645,89.33732663079844,-35.32768414537695,0.339455838336236,0.14040726726110397,0.0003994920490624652
0.013000000000000005,-0.2845829623514302,0.06932596004589237,0.05372707371881533,1.4698435489096877,0.20088430143874342,-1.671733481110594,-0.0017858398608417046,9.007446918312423e-05,0.00011167651535867393,2.4275566623568175e-05,-9.398956715837481e-05,0.0038532481069098318,-0.22719445123851442,89.34222050060276,-35.324028908475455,0.3395068671358689,0.13808227237554682,0.0004288678850916863
0.014000000000000005,-0.28458490110905926,0.069326057828393,0.0537271949519465,1.4698435752654821,0.20088419939604324,-1.6717292977139735,-0.00209167554142805,0.00010549047928848983,0.00013078977279219257,2.845194295224978e-05,-0.00011009448545332044,0.004513529430773701,-0.2426994417777849,89.34708967878575,-35.32039246020217,0.33955760723434464,0.13576901116852394,0.00045809488018932717
0.015000000000000006,-0.2845871561382521,0.06932617155387755,0.053727335951701566,1.4698436059407518,0.20088408069996,-1.671724431548354,-0.002418383004474269,0.00012196043012116972,0.00015120977256557873,3.291720619584425e-05,-0.00012729612682724008,0.00521878345879768,-0.2581258402110008,89.35193420671499,-35.31677481983089,0.33960805662002985,0.13346746173112672,0.0004871732925282581
0.016000000000000007,-0.2845897482578392,0.06932630227361897,0.05372749802151701,1.4698436412238196,0.20088394425656864,-1.6717188377555852,-0.002765856345682208,0.00013947898613887025,0.00017292990477449333,3.767042511387624e-05,-0.00014558888476408954,0.005968780890363757,-0.27347379201686506,89.3567541257528,-35.31317600975248,0.3396582132521657,0.13117760214190408,0.0005161033801507956
0.017000000000000008,-0.2845926981808374,0.06932645103355925,0.053727682458225075,1.4698436814020763,0.20088378897754516,-1.6717124717066159,-0.0031339898411034506,0.00015804082090575727,0.00019594357097799697,4.271066891251435e-05,-0.00016496716405533433,0.006763292826652927,-0.2887434432538398,89.36154947725633,-35.30959605541714,0.3397080750615666,0.12889941046735334,0.0005448854009696758
0.01800000000000001,-0.2845960265146294,0.06932661887431844,0.053727890552065234,1.4698437267619817,0.20088361378015537,-1.6717052890010922,-0.0035226779470964222,0.00017764061708744333,0.00022024418418667896,4.803700712982254e-05,-0.0001854253807577802,0.007602090770516049,-0.3039349405479975,89.36632030257749,-35.30603498527695,0.33975763995131397,0.12663286476240995,0.0005735196127690703
0.01900000000000001,-0.28459975376114477,0.06932680683120382,0.053728123586695625,1.4698437775890645,0.2008834175872436,-1.671697245466956,-0.003931815300283649,0.00019827306644601663,0.0002458251688509277,5.364850952415908e-05,-0.00020695796215189116,0.008484946626343541,-0.31904843108096664,89.37106664306306,-35.30249283072904,0.3398069057974439,0.12437794307093114,0.0006020062732055583
0.02000000000000001,-0.2846039003170398,0.0693270159342189,0.05372838283920448,1.4698438341679223,0.20088319932722146,-1.6716882971600442,-0.004361296717509148,0.00021993286983513862,0.00027267996084934926,5.954424596412083e-05,-0.00022955934670071512,0.009411632699935415,-0.334084062577977,89.37578854005461,-35.298969626059076,0.3398558704496299,0.12213462342617591,0.000630345639809134
0.02100000000000001,-0.2846084864738778,0.06932724720807261,0.05372866958012157,1.469843896782222,0.2008829579340568,-1.6716784003636855,-0.004811017195795972,0.000242614737195168,0.00030080200747730103,6.572328632178984e-05,-0.0002532239840093676,0.010381921698369951,-0.3490419832960038,89.38048603488865,-35.29546540838527,0.33990453173185975,0.11990288385128056,0.0006585379699841987
0.022000000000000013,-0.28461353241830933,0.06932750167218832,0.053728985073429596,1.4698439657147002,0.20088269234726247,-1.6716675115883015,-0.00528087191230389,0.0002663133875483617,0.0003301847674355907,7.218470036739059e-05,-0.00027794633478503265,0.011395586729872837,-0.3639223420120047,89.38515916889656,-35.29198021760281,0.33995288744310764,0.11768270235973152,0.0006865835210105589
0.023000000000000013,-0.28461905823225214,0.06932778034071294,0.053729330576575605,1.469844041247162,0.20088240151188524,-1.671655587571004,-0.005770756224287212,0.0002910235489941168,0.00036082171081929334,7.892755766679488e-05,-0.00030372087079754686,0.012452401303685337,-0.3787252880112601,89.38980798340465,-35.28851409632874,0.3400009353580005,0.11547405695583116,0.000714482550044432
0.024000000000000014,-0.28462508389307145,0.069328084222526,0.05372970734048237,1.4698441236604818,0.20088208437849484,-1.6716425852751946,-0.00628056566905277,0.0003167399587042565,0.00039270631910670963,8.595092748122163e-05,-0.0003305420748404551,0.013552139329932135,-0.39345097107580074,89.39443251973418,-35.28506708984727,0.34004867322747917,0.11327692563516215,0.0007422353141194664
0.025000000000000015,-0.2846316292737598,0.06932841432124871,0.053730116609559786,1.4698442132346021,0.20088173990317287,-1.6716284618901642,-0.006810195963918016,0.00034345736291837946,0.000425832085148456,9.325387866900753e-05,-0.00035840444069270004,0.014694575119488979,-0.4080995414729402,89.39903281920137,-35.28163924605555,0.3400960987794545,0.11109128638504662,0.0007698420701477231
0.026000000000000016,-0.28463871414311714,0.06932877163525304,0.053730559621716203,1.469844310248534,0.20088136704750184,-1.671613174830692,-0.007359543006169292,0.00037117051693924465,0.0004601925131566852,0.00010083547958985385,-0.0003873024730807434,0.015879483383849632,-0.4226711499438984,89.40360892311745,-35.27823061540987,0.34014320971945766,0.10891711718500034,0.0007973030749207277
0.027000000000000017,-0.2846463581659308,0.06932915715767077,0.05373103760836982,1.4698444149803553,0.2008809647785543,-1.6715966817366446,-0.007928502873020226,0.0003998741851282206,0.0004957811186944474,0.00010869479801092077,-0.00041723068764123496,0.01710663923499285,-0.4371659476925179,89.40816087278864,-35.2748412508723,0.34019000373128605,0.10675439600718488,0.0008246185851104701
0.028000000000000018,-0.28465458090315526,0.06932957187640254,0.053731551794460014,1.4698445277072116,0.20088053206888185,-1.6715789404725765,-0.008516971821570272,0.00042956314090076875,0.0005325914286651675,0.00011683090101548469,-0.00044818361088425296,0.0183758181852486,-0.45158408637408176,89.41268870951622,-35.27147120785775,0.34023647847764316,0.1046031008168533,0.0008517888572704427
0.02900000000000002,-0.28466340181209215,0.06933001677412692,0.05373210339845867,1.4698446487053145,0.20088006789650437,-1.6715599091273294,-0.009124846288763401,0.00046023216672198554,0.0005706169813022666,0.00012524285491343713,-0.00048015578015697,0.019686796147164207,-0.46592571808422073,89.41719247459652,-35.268120544181514,0.3402826316007739,0.10246320957279478,0.0008788141478366612
0.03000000000000002,-0.28467284024657,0.06933049282830946,0.053732693632381534,1.4698447782499406,0.20087957124489916,-1.6715395460136317,-0.009752022891346935,0.0004918760541021952,0.0006098513261589045,0.00013392972515388266,-0.000513141743607877,0.0210393494333702,-0.4801909953479138,89.42167220932096,-35.26478932000718,0.34032846072309414,0.10033470022777152,0.0009056947131286964
0.03100000000000002,-0.2846829154571241,0.0693310010112117,0.0537333237017995,1.4698449166154317,0.20087904110299015,-1.671517809667699,-0.01039839842583051,0.0005244896035925776,0.0006502880240978462,0.00014289057624004918,-0.0005471360601514931,0.022433254756445573,-0.49438007110858395,89.42612795497602,-35.26147759779502,0.34037396344781606,0.09821755072895591,0.0009324308093507304
0.03200000000000002,-0.2846936465911761,0.06933154228990024,0.05373399480584993,1.4698450640751926,0.20087847646513712,-1.671494658848834,-0.011063869868445196,0.0005580676247808507,0.0006919206472814588,0.00015212447164610404,-0.0005821332994335851,0.023868289228782955,-0.5084930987172884,89.4305597528434,-35.258185442250806,0.3404191373595673,0.09611173901835905,0.000959022692592599
0.03300000000000002,-0.28470505269321383,0.06933211762625577,0.05373470813724794,1.4698452209016908,0.20087787633112505,-1.6714700525390267,-0.01174833437510276,0.0005926049362870114,0.0007347427791618389,0.0001616304737359081,-0.0006181280417968423,0.02534423036245355,-0.5225302319219981,89.43496764419983,-35.254912920275,0.3404639800250057,0.09401724303326005,0.00098547061883083
0.03400000000000002,-0.28471715270497094,0.0693327279769821,0.053735464882297704,1.4698453873664554,0.20087723970615343,-1.6714439499425553,-0.012451689281355057,0.0006280963657591017,0.0007787480144710533,0.00017140764368396452,-0.0006551148782470556,0.026860856069071563,-0.5364916248569785,89.43935167031727,-35.25166010091246,0.34050848899342917,0.09193404070662724,0.0010117748439297284
0.035000000000000024,-0.28472996546560647,0.06933337429361519,0.0537362662209037,1.4698455637400754,0.2008765656008255,-1.671416310485586,-0.013173832102353582,0.0006645367498690301,0.0008239299592115026,0.00018145504139839357,-0.0006930884104198198,0.028417944659658412,-0.5503774320322438,89.44371187246286,-35.24842705530249,0.3405526617973796,0.0898621099675385,0.001037935623642421
0.036000000000000025,-0.28474350971188445,0.06933405752253213,0.05373711332658202,1.4698457502921987,0.2008758530311378,-1.671387093815774,-0.013914660532809152,0.0007019209343084546,0.0008702822306464269,0.00019177172544542428,-0.0007320432505476122,0.030015274844507032,-0.5641878083231235,89.44804829189893,-35.24521385662936,0.34059649595324254,0.08780142874159626,0.0010639532136119323
0.037000000000000026,-0.2847578040783535,0.06933477860496023,0.05373800736647159,1.4698459472915308,0.2008751010184695,-1.6713562598018648,-0.014674072446951732,0.0007402437737846806,0.000917798457290501,0.00020235675297640573,-0.0007719740214274433,0.03165262573304538,-0.5779229089599084,89.45236096988306,-35.24202058007322,0.3406399889618422,0.08575197495133895,0.001089827869372265
0.03800000000000003,-0.28477286709752625,0.069335538476986,0.05373894950134541,1.4698461550058335,0.20087430858957178,-1.6713237685332942,-0.015451965898490416,0.0007795001320166341,0.0009664722789005768,0.00021320917965628088,-0.0008128753563888938,0.03332977683370014,-0.5915828895175863,89.45664994766804,-35.23884730276144,0.3406831383090301,0.08371372651664863,0.0011155598463494897
0.03900000000000003,-0.28478871720005877,0.06933633806956412,0.053739940885621854,1.4698463737019227,0.20087347477655745,-1.6712895803197902,-0.016248239120573518,0.000819684881730858,0.0010162973464665295,0.00022432805959414417,-0.0008547418992626598,0.03504650805376006,-0.6051679059056824,89.46091526650198,-35.23569410372039,0.3407259414662701,0.08168666135515402,0.0011411493998628177
0.04000000000000003,-0.2848053727149301,0.06933717830852651,0.05374098266737582,1.4698466036456679,0.20087259861689039,-1.6712536556909738,-0.017062790525748852,0.0008607929046575685,0.0010672673222022258,0.00023571244527560603,-0.0008975683043495345,0.03680259969923902,-0.6186781143581638,89.46515696762822,-35.23256106382759,0.34076839589121827,0.0796707573826319,0.0011665967851257075
0.04100000000000003,-0.2848228518696216,0.06933806011459132,0.05374207598835002,1.4698468451019895,0.2008716791533751,-1.6712159553959607,-0.017895518705924107,0.000902819091526739,0.0011193758795366082,0.00024736138749707005,-0.0009413492363898446,0.03859783247473889,-0.6321136714234626,89.46937509228543,-35.229448265764326,0.34081049902829685,0.07766599251340178,0.0011919022572469816
0.04200000000000003,-0.28484117279029614,0.06933898440337187,0.05374322198396613,1.4698470983348577,0.2008707154341462,-1.671176440402962,-0.018746322432327392,0.0009457583420642478,0.0011726167031048968,0.00025927393530150565,-0.0009860793705333399,0.04043198748331255,-0.6454747339545663,89.47356968170762,-35.22635579396862,0.34085224830926497,0.07567234466071925,0.001217066071231915
0.04300000000000003,-0.2848603535019776,0.06933995208538572,0.05374442178333605,1.4698473636072906,0.20086970651265823,-1.671135071898887,-0.019615100655467923,0.0009896055649880522,0.001226983488739907,0.0002714491359165076,-0.0010317533923094892,0.04230484622632616,-0.6587614590992081,89.47774077712411,-35.22328373458868,0.3408936411537833,0.07368979173716425,0.001242088481983369
0.04400000000000003,-0.28488041192873,0.06934096406606365,0.05374567650927305,1.4698476411813526,0.20086865144767505,-1.6710918112889444,-0.02050175250509683,0.001034355678004417,0.0012824699434634795,0.000283886034693729,-0.0010783659975982444,0.044216190603321666,-0.6719740042901442,89.4818884197596,-35.22023217543668,0.34093467496997365,0.07171831165502573,0.0012669697443028977
0.04500000000000003,-0.28490136589383686,0.06934202124575856,0.053746987278303,1.4698479313181518,0.20086754930325965,-1.6710466201962435,-0.02140617729016813,0.0010800036078041728,0.001339069785478015,0.00029658367505023755,-0.0011259118926012345,0.04616580291187901,-0.6851125272355125,89.48601265083416,-35.21720120594303,0.3409753471549751,0.06975788232668366,0.0012917101128918991
0.046000000000000034,-0.2849232331199802,0.06934312451975458,0.0537483552006755,1.4698482342778392,0.2008663991487638,-1.6709994604613976,-0.02232827449879983,0.0011265442900590306,0.0013967767441581329,0.0003095410984114376,-0.0011743857938133775,0.04815346584747831,-0.6981771859092912,89.49011351156328,-35.21419091711096,0.3410156550954941,0.06780848166498554,0.0013163098423527395
0.047000000000000035,-0.28494603122941975,0.06934427477827595,0.053749781380375096,1.4698485503196055,0.20086520005881778,-1.670950294142125,-0.023267943798235158,0.0011739726694179364,0.001455584560042442,0.00032275734415573257,-0.0012237824279949297,0.05017896250336188,-0.7111681385418307,89.49419104315785,-35.2112014014716,0.34105559616835046,0.06587008758362126,0.0013407691871898876
0.048000000000000036,-0.28496977774417215,0.06934547290649606,0.0537512669151324,1.4698488797016795,0.20086395111332006,-1.6708990835128523,-0.02422508503480396,0.0012222836995034565,0.0015154869848254086,0.0003362314495610495,-0.0012740965321439018,0.05224207637039589,-0.7240855436104854,89.4982452868242,-35.20823275303938,0.3410951677410177,0.06394267799749145,0.001365088401811096
0.04900000000000004,-0.28499449008618993,0.06934671978454637,0.05375281289643527,1.4698492226813267,0.20086265139742718,-1.670845791064316,-0.025199598233884225,0.0012714723429082103,0.001576477781349338,0.00034996244975273055,-0.0013253228534689772,0.054342591336932276,-0.7369295598303194,89.5022762837641,-35.20528506726789,0.34113436717216056,0.06202623082307661,0.0013892677405285229
0.05000000000000004,-0.28502018557754055,0.06934801628752543,0.05375442040953995,1.4698495795148456,0.20086130000154348,-1.6707903795031656,-0.026191383599863744,0.0013215335711913528,0.0016385507235964763,0.00036394937765331435,-0.0013774561493627448,0.0564802916886702,-0.7497003461449118,89.50628407517482,-35.20235844100609,0.34117319181216493,0.0601207239787975,0.0014133074575599308
0.05100000000000004,-0.2850468814405853,0.0693493632855078,0.053756090533482195,1.4698499504575673,0.20085989602131094,-1.6707328117515663,-0.027200341516101928,0.0013724623648750833,0.0017016995966812006,0.0003781912639336155,-0.0014304911873753814,0.058654962108517804,-0.7623980617172343,89.51026870224909,-35.199452972454985,0.34121163900366613,0.058226135385376535,0.0014372078070298267
0.05200000000000004,-0.28507459479815855,0.06935076164355301,0.05375782434108842,1.4698503357638515,0.20085843855759902,-1.670673050946802,-0.028226372544891746,0.001424253713441204,0.0017659181968423263,0.0003926871369656713,-0.0014844227451887527,0.06086638767645353,-0.7750228659206235,89.51423020617516,-35.19656876112458,0.3412497060820702,0.05634244296619155,0.001460969042970652
0.05300000000000004,-0.2851033426737462,0.0693522122217146,0.05375962289898679,1.4698507356870856,0.20085692671649458,-1.6706110604408775,-0.029269377427421812,0.001476902615327712,0.0018312003314355186,0.00040743602277718,-0.001539245610590874,0.06311435386938749,-0.7875749183298353,89.51816862813679,-35.193705907791376,0.3412873903760715,0.05446962464762935,0.0014845914193239804
0.05400000000000004,-0.285133141991665,0.06935371587504897,0.053761487267618376,1.4698511504796816,0.20085535960929174,-1.6705468038001228,-0.030329257083738615,0.0015304040779254354,0.0018975398189258006,0.0004224369450073049,-0.0015949545814507732,0.0653986465610229,-0.8000543787121813,89.5220840093133,-35.19086451445609,0.34132468920816617,0.052607658359434234,0.0015080751899416663
0.05500000000000004,-0.2851640095772411,0.0693552734536244,0.053763418501248224,1.4698515803930738,0.20085373635248183,-1.6704802448047955,-0.031405912612708885,0.0015847531175747123,0.001964930488880184,0.0004376889248642945,-0.0016515444656937284,0.06771905202171721,-0.8124614070187566,89.52597639087956,-35.188044684301936,0.3413615998951596,0.05075652203505163,0.0015314206085870975
0.05600000000000004,-0.28519596215698895,0.06935688580252994,0.053765417647976474,1.4698520256777166,0.20085205606774334,-1.6704113474486848,-0.0324992452919821,0.0016399447595620965,0.0020333661819603725,0.0004531909810842884,-0.0017090100812769346,0.07007535691834349,-0.8247961633757371,89.52984581400598,-35.185246521653156,0.3413981197486705,0.04891619361197157,0.0015546279289363509
0.057000000000000044,-0.28522901635879017,0.0693585537618844,0.053767485749749454,1.4698524865830815,0.20085031788193194,-1.6703400759387148,-0.03360915657795313,0.0016959740381171113,0.002102840749915593,0.0004689421298918695,-0.001767346256165504,0.07246734831415147,-0.8370588080757806,89.53369231985863,-35.182470131934,0.3414342460756304,0.047086651032065274,0.0015776974045794271
0.058000000000000045,-0.285263188712072,0.06936027816684531,0.053769623842370745,1.4698529633576554,0.2008485209270704,-1.6702663946945482,-0.034735548105725024,0.0017528359964090433,0.002173348055575516,0.00048494138496200955,-0.001826547828308809,0.07489481366862874,-0.8492495015694921,89.53751594959911,-35.17971562162808,0.34146997617877706,0.045267872241920026,0.001600629289021447
0.059000000000000045,-0.2852984956479863,0.06936205984761779,0.053771832955512286,1.4698534562489372,0.20084666434033863,-1.6701902683481902,-0.03587832168907193,0.0018105256865437642,0.0022448819728432727,0.0005011877573831889,-0.0018866096456172856,0.07735754083736203,-0.8613684044569798,89.54131674438469,-35.17698309823811,0.3415053073571456,0.043459835193171065,0.0016234238356838974
0.060000000000000046,-0.285334953499588,0.06936389962946354,0.05377411411272542,1.4698539655034357,0.2008447472640638,-1.6701116617435925,-0.037037379320402165,0.0018690381695605982,0.0023174363866885796,0.0005176802556224724,-0.0019475265659395476,0.07985531807189811,-0.873415677479496,89.54509474536827,-35.17427267024603,0.34154023690655333,0.04166251784282793,0.0016460812979058308
0.06100000000000005,-0.28537257850201375,0.06936579833270977,0.05377646833145197,1.4698544913666671,0.20084276884571034,-1.6700305399362572,-0.03821262317072141,0.0019283685154292277,0.002391005193140952,0.000534417885491365,-0.002009293457039848,0.08238793401960519,-0.885391481511156,89.54884999369841,-35.17158444707348,0.3415747621200809,0.03987589815359957,0.0016686019289451097
0.06200000000000005,-0.28541138679266054,0.06936775677275808,0.053778896623035304,1.4698550340831518,0.20084072823787008,-1.6699468681928415,-0.03940395558959606,0.0019885118030466284,0.00246558229928302,0.0005513996501136048,-0.0020719051965759384,0.08495517772353384,-0.8972959775507363,89.55258253051933,-35.16891853904265,0.3416088802885488,0.038099954094214655,0.0016909859819796542
0.06300000000000004,-0.2854513944113642,0.06936977576009346,0.05378139999273137,1.4698555938964122,0.20083862459825233,-1.669860611990762,-0.04061127910511668,0.002049463120234048,0.0025411616232439396,0.000568624549893828,-0.002135356672077248,0.08755683862227842,-0.9091293267135603,89.55629239697092,-35.16627505733758,0.34164258870098957,0.03633466363973953,0.0017132337101086513
0.06400000000000004,-0.28549261730057796,0.06937185610029313,0.05378397943971975,1.4698561710489697,0.20083645708967404,-1.6697717370177985,-0.04183449642386165,0.0021112175637340133,0.0026177370941928963,0.000586091582488146,-0.002199642780923428,0.09019270654983791,-0.9208916902234574,89.55997963418882,-35.16365411396575,0.341675884645115,0.03458000477189138,0.0017353453663538443
0.06500000000000004,-0.2855350713055509,0.06937399859403556,0.05378663595711469,1.4698567657823423,0.20083422488004996,-1.6696802091716998,-0.04307351043086091,0.0021737702392073885,0.002695302652332706,0.0006037997427753761,-0.0022647584303232327,0.09286257173547748,-0.932583229404807,89.56364428330434,-35.16105582172003,0.34170876540777945,0.03283595547934984,0.0017573212036607598
0.06600000000000004,-0.2855787721745063,0.0693762040371093,0.05378937053197615,1.469857378337041,0.20083192714238274,-1.6695859945597877,-0.04432822418955984,0.0022371162612304482,0.0027738522488935102,0.0006217480228300672,-0.002330698537293772,0.09556622480358966,-0.9442041056746675,89.56728638544456,-35.158480294141135,0.341741228275439,0.0311024937580624,0.0017791614748999768
0.06700000000000005,-0.2856237355588201,0.0693784732204219,0.05379218414532079,1.4698580089525684,0.2008295630547533,-1.6694890594985625,-0.0455985409417833,0.002301250753292002,0.002853379846126553,0.0006399354118967471,-0.002397458028640059,0.09830345677355555,-0.9557544805349671,89.57090598173228,-35.15592764548024,0.34177327053460527,0.02937959761155129,0.0018008664328683715
0.06800000000000005,-0.28566997701319935,0.06938080693000889,0.053795077772133035,1.4698586578674142,0.20082713180031087,-1.6693893705133076,-0.046884364107699805,0.002366168847790548,0.0029338794172980662,0.000658360896365225,-0.0024650318409349175,0.10107405905960636,-0.9672345155647956,89.57450311328607,-35.15339799066215,0.34180488947229565,0.027667245051211375,0.0018224363302904144
0.06900000000000005,-0.2857175119958604,0.06938320594704264,0.053798052381376055,1.4698593253190537,0.20082463256726332,-1.6692868943376948,-0.04818559728578582,0.002431865686031461,0.0030153449466832336,0.0006770234597472829,-0.002533414920499208,0.1038778234706848,-0.9786443724127588,89.57807782122029,-35.15089144524871,0.34183608237647906,0.02596541409660863,0.0018438714198194142
0.07000000000000005,-0.28576635586870713,0.06938567104784125,0.05380110893600279,1.4698600115439444,0.20082206454886745,-1.6691815979133904,-0.04950214425279021,0.0024983364182242155,0.0030977704295602508,0.0006959220826547493,-0.0026026022233823815,0.10671454221030657,-0.9899842127894224,89.58163014664508,-35.14840812540267,0.3418668465365173,0.02427408277577428,0.0018651719540388014
0.07100000000000005,-0.28581652389750956,0.06938820300387749,0.05380424839296694,1.4698607167775228,0.20081942694341917,-1.6690734483896597,-0.050833908963698805,0.0025655762034796437,0.0031811498722044682,0.0007150557427784737,-0.0026725887153433605,0.10958400787642199,-1.001254198459821,89.58516013066641,-35.14594814785181,0.3418971792436017,0.0225932291254953,0.001886338185463433
0.07200000000000005,-0.2858680312520816,0.06939080258178769,0.05380747170323397,1.4698614412542022,0.20081671895424388,-1.668962413122973,-0.05218079555169913,0.002633580209807228,0.0032654772918826306,0.0007344234148685948,-0.002743369371831747,0.11248601346127787,-1.0124544912360611,89.58866781438604,-35.143511629853535,0.34192707779118625,0.02092283119160185,0.0019073703665408155
0.07300000000000005,-0.2859208930064595,0.0693934705433806,0.053810779811792074,1.4698621852073688,0.20081393978968679,-1.6688484596766118,-0.053542708328145255,0.0027023436141124235,0.003350746716847196,0.0007540240707162535,-0.002814939177969329,0.11542035235127908,-1.0235852529699885,89.59215323890159,-35.14109868915972,0.34195653947541604,0.01926286702925084,0.0019282687496524585
0.07400000000000005,-0.28597512413908,0.06939620764564636,0.05381417365766321,1.4698629488693797,0.20081108866310315,-1.6687315558202742,-0.05491955178252277,0.0027718616021940134,0.0034369521863307434,0.0007738566791361808,-0.0028872931285319056,0.11838681832685051,-1.0346466455459353,89.5956164453065,-35.13870944398199,0.34198556159555116,0.01761331470320862,0.0019490335871151319
0.07500000000000005,-0.2860307395329583,0.06939901464076531,0.053817654173914015,1.4698637324715598,0.20080816479284877,-1.668611669529681,-0.056311230582413926,0.0028421293687415014,0.003524087750540469,0.0007939202059505553,-0.002960426227931415,0.12138520556229912,-1.04563883087355,89.59905747469014,-35.136344012957316,0.3420141414543867,0.015974152288127486,0.001969665131182145
0.07600000000000005,-0.28608775397586644,0.06940189227611696,0.05382122228766683,1.4698645362441978,0.20080516740227022,-1.6684887689861825,-0.057717649573462884,0.00291314211733254,0.0036121474706527676,0.0008142136139737766,-0.003034333490198376,0.12441530862567618,-1.0565619708806906,89.6024763681377,-35.134002515113984,0.34204227635866863,0.014345357868820324,0.001990163634044675
0.07700000000000005,-0.28614618216051085,0.06940484129428878,0.05382487892011063,1.4698653604165446,0.20080209571969537,-1.6683628225763638,-0.059138713779341115,0.002984895060430379,0.003701125418807893,0.0008347358629987052,-0.0031090099389646294,0.12747692247863943,-1.0674162275064099,89.60587316673028,-35.13168506983787,0.34206996361950565,0.012726909540533071,0.0020105293478330467
0.07800000000000006,-0.28620603868471084,0.06940786243308521,0.05382862498651202,1.4698662052168092,0.20079894897842368,-1.6682337988916525,-0.06057432840171293,0.003057383419381354,0.003791015678104705,0.0008554859097838674,-0.0031844506074463516,0.13056984247631542,-1.078201762694005,89.60924791154488,-35.12939179683913,0.3420972005527753,0.011118785409210852,0.002030762524618046
0.07900000000000006,-0.28626733805157634,0.06941095642553641,0.05383246139622616,1.4698670708721562,0.20079572641671664,-1.668101666727924,-0.06202439882020115,0.003130602424412409,0.0038818123425955024,0.0008764627080414336,-0.0032606505384274046,0.13369386436716232,-1.0889187383841392,89.61260064365445,-35.12712281611918,0.34212398447952874,0.00952096359176538,0.0020508634164122025
0.08000000000000006,-0.2863300946696858,0.06941412399990723,0.05383638905270773,1.4698679576087028,0.20079242727778832,-1.6679663950851094,-0.0634888305923529,0.0032045473146286403,0.003973509517280926,0.0008976652084268683,-0.0033376047842429597,0.13684878429283226,-1.0995673165080526,89.61593140412785,-35.12487824793806,0.34215031272638863,0.007933422216335917,0.0020708322751711045
0.08100000000000006,-0.28639432285326427,0.06941736587970608,0.053840408853521884,1.4698688656515153,0.20078905080979564,-1.6678279531668014,-0.06496752945360554,0.0032792133380108866,0.004066101318104958,0.0009190923585290582,-0.003415308406763361,0.14003439878803436,-1.1101476589808328,89.61924023402989,-35.122658212782085,0.34217618262594407,0.006356139422547397,0.002090669352794727
0.08200000000000006,-0.28646003682236115,0.06942068278369376,0.053844521690355175,1.4698697952246067,0.200785596265829,-1.6676863103798623,-0.06646040131725275,0.0033545957514133345,0.004159581871949992,0.0009407431028616778,-0.0034937564773783814,0.14325050478039786,-1.1206599276947669,89.62252717442134,-35.120462831331935,0.3422015915171419,0.004789093361767416,0.002110374901128706
0.08300000000000006,-0.28652725070302804,0.06942407542589235,0.0538487284490265,1.469870746550933,0.20078206290390269,-1.6675414363340304,-0.06796735227441075,0.0034306898205611618,0.004253945316631979,0.0009626163828557409,-0.0035729440769816144,0.14649689959033507,-1.1311042845127592,89.62579226635897,-35.118292224430974,0.34222653674567294,0.003232262197358615,0.002129949171965667
0.08400000000000006,-0.2865959785274966,0.06942754451559409,0.05385303000949805,1.4698717198523905,0.2007784499869454,-1.6673933008415278,-0.06948828859398458,0.0035074908200482167,0.004349185800895666,0.0009847111368528052,-0.003652866295955281,0.14977338093090498,-1.1414808912618413,89.62903555089551,-35.11614651305398,0.34225101566435473,0.001685624104926925,0.0021493924170465474
0.08500000000000006,-0.28666623423435617,0.06943109075737026,0.05385742724588621,1.4698727153498126,0.2007747567827908,-1.6672418739166674,-0.07102311672263463,0.0035849940333347145,0.004445297484409898,0.001007026300099542,-0.003733518234155195,0.15307974690767656,-1.151789909726728,89.63225706907969,-35.11402581827618,0.34227502563350976,0.00014915727256942235,0.0021687048880618767
0.08600000000000006,-0.28673803166873174,0.06943471485108002,0.05386192102647247,1.4698737332629666,0.20077098256416792,-1.6670871257754607,-0.07257174328474322,0.003663194752744969,0.004542274537762999,0.00102956080474303,-0.0038148950008961343,0.1564157960185926,-1.162031501643461,89.63545686195629,-35.111930261242655,0.34229856402134035,-0.001377160098882002,0.0021878868366531105
0.08700000000000006,-0.28681138458246147,0.06943841749187929,0.0538665122137144,1.4698747738105509,0.20076712660869186,-1.6669290268352255,-0.07413407508238135,0.0037420882794651643,0.004640111142458245,0.0010523135798270365,-0.00389699171493728,0.15978132715383359,-1.1722058286931343,89.63863497056607,-35.109859963138014,0.34232162820429857,-0.002893349795621808,0.002206938514413942
0.08800000000000006,-0.28688630663427445,0.06944219937022958,0.053871201664256504,1.4698758372101917,0.2007631881988543,-1.6667675477141934,-0.07571001909527555,0.0038216699235411374,0.004738801490909387,0.0010752835512892423,-0.003979803504468121,0.16317613959568197,-1.1823130524956662,89.64179143594588,-35.10781504515646,0.3423442155674533,-0.0043994335906322735,0.0022258601728916173
0.08900000000000007,-0.2869628113899683,0.06944606117190691,0.05387599022894116,1.46987692367844,0.200759166622014,-1.6666026592311187,-0.07729948248077494,0.0039019350038761976,0.004838339786436267,0.0010984696419597043,-0.004063325507094504,0.16660003301838613,-1.19235333460366,89.64492629912857,-35.10579562847214,0.3423663235048515,-0.005895433243449044,0.0022446520635882195
0.09000000000000007,-0.2870409123225869,0.0694500035780106,0.05388087875281952,1.4698780334307682,0.2007550611703875,-1.6664343324048856,-0.07890237257381828,0.003982878848228982,0.004938720243260508,0.0011218707715594733,-0.004147552869824977,0.17005280748802543,-1.2023268364963335,89.64803960114311,-35.103801834209875,0.342387949419878,-0.007381370499930234,0.0022633144379620223
0.09100000000000007,-0.2871206228125976,0.06945402726497216,0.0538858680751624,1.4698791666815676,0.20075087114103965,-1.6662625384541165,-0.08051859688690136,0.004064496793211329,0.005039937086501264,0.001145485856700945,-0.004232480749057355,0.17353426346237455,-1.2122337195735198,89.65113138301452,-35.101833783416176,0.34240909072560893,-0.008857267092028276,0.0022818475474287695
0.09200000000000007,-0.28720195614806926,0.06945813290456415,0.053890959029471185,1.4698803236441447,0.20074659583587423,-1.666087248796781,-0.08214806311004426,0.0041467841842861815,0.005141984552171056,0.0011693138108885479,-0.004318104310565606,0.1770442017907687,-1.2220741451497295,89.6542016857639,-35.09989159703056,0.3424297448451627,-0.010323144737564044,0.002300251643363003
0.09300000000000007,-0.28728492552484935,0.069462321163909,0.053896152443488714,1.4698815045307183,0.20074223456162466,-1.665908435049804,-0.083790679110759,0.004229736375765523,0.005244856887171673,0.0011933535445206103,-0.004404418729486897,0.18058242371396876,-1.2318482744482933,89.65725055040846,-35.09797539585726,0.34244990921204627,-0.011779025140004562,0.0023185269770993554
0.09400000000000007,-0.2873695440467417,0.0694665927054879,0.05390144913921018,1.4698827095524167,0.20073778662984448,-1.6657260690286737,-0.08544635293401719,0.004313348730808335,0.005348548349290144,0.001217603964891945,-0.004491419190308956,0.1841487308640266,-1.2415562685955692,89.66027801796157,-35.0960853005372,0.3424695812704982,-0.013224929988243206,0.00233667379993386
0.09500000000000007,-0.2874558247256837,0.06947094818714958,0.05390684993289401,1.4698839389192742,0.2007332513568982,-1.665540122747052,-0.08711499280221775,0.004397616621418589,0.00545305320719479,0.0012420639761971525,-0.004579100886857629,0.18774292526415107,-1.2511982886152169,89.66328412943267,-35.0942214315203,0.342488758475827,-0.014660880956383598,0.0023546923631252723
0.09600000000000007,-0.2875437804819239,0.06947538826211921,0.05391235563507274,1.4698851928402281,0.2007286280639518,-1.6653505684163823,-0.08879650711515494,0.004482535428443257,0.005558365740431322,0.0012667324795350814,-0.004667459022284694,0.19136480932857358,-1.260774495422548,89.66626892582735,-35.09238390903812,0.34250743829474617,-0.016086899703525837,0.0023725829178963508
0.09700000000000007,-0.28763342414419935,0.06947991357900726,0.05391796705056388,1.4698864715231161,0.20072391607696352,-1.6651573784454983,-0.09049080444998635,0.004568100541570354,0.005664480239419042,0.00129160837291372,-0.004756488809055924,0.1950141858624146,-1.270285049818935,89.6692324481474,-35.090572853076786,0.34252561820570515,-0.017503007873554605,0.002390345715435169
0.09800000000000007,-0.2877247684499129,0.06948452478181828,0.0539236849784808,1.4698877751746722,0.20071911472667445,-1.6649605254402338,-0.09219779356120111,0.0046543073593270055,0.005771391005447077,0.0013166905512562107,-0.004846185468939376,0.1986908580615499,-1.2797301124862954,89.6721747373907,-35.08878838335025,0.3425432956992165,-0.01890922709493384,0.002407981006896406
0.09900000000000007,-0.28781782604531053,0.06948922250995976,0.05392951021224363,1.4698891040005246,0.20071422334859934,-1.6647599822030321,-0.09391738338058825,0.004741151289077545,0.005879092350670711,0.0013419779064074056,-0.004936544232993872,0.2023946295124774,-1.2891098439816449,89.67509583455137,-35.08703061927387,0.3425604682781794,-0.02030557898049873,0.002425489043402653
0.10000000000000007,-0.2879126094856586,0.06949400739825097,0.05393544353959005,1.4698904582051924,0.20070924128301726,-1.664555721732555,-0.09564948301720509,0.004828627747021625,0.00598757859810776,0.0013674693271415316,-0.005027560341557778,0.20612530419218386,-1.2984244047317077,89.6779957806197,-35.085299679938274,0.3425771334581986,-0.021692085127255678,0.0024428700760456843
0.10100000000000008,-0.2880091312354212,0.06949888007693182,0.05394148574258622,1.469891837992082,0.20070416787496229,-1.6643477172232928,-0.09739400175734586,0.004916732158192375,0.006096844081635028,0.0013931636991700593,-0.005119229044237936,0.20988268646801259,-1.3076739550276064,89.68087461658214,-35.08359568408355,0.34259328876790096,-0.023068767116181693,0.0024601243558877678
0.10200000000000008,-0.2881074036684373,0.06950384117167166,0.0539476375976376,1.4698932435634848,0.20069900247421432,-1.6641359420651731,-0.09915084906451041,0.005005459956454564,0.006206883145984826,0.0014190599051509853,-0.005211545599898849,0.2136665810975305,-1.316858655019607,89.68373238342143,-35.081918750073754,0.34260893174924645,-0.024435646512028925,0.002477252133962918
0.10300000000000008,-0.2882074390680979,0.06950889130357812,0.05395389987549981,1.4698946751205737,0.20069374443528978,-1.6639203698431724,-0.10091993457937304,0.0050948065845028,0.006317690146741545,0.0014451568246983278,-0.0053045052766521284,0.21747679322839616,-1.3259786647119434,89.68656912211647,-35.08026899587169,0.3426240599578367,-0.02579274486313038,0.002494253661278226
0.10400000000000008,-0.28830924962752336,0.06951403108920594,0.05396027334128951,1.4698961328634002,0.20068839311743236,-1.6637009743369242,-0.10270116811975145,0.0051847674938597516,0.006429259450338314,0.0014714533343924462,-0.005398103351846053,0.22131312839822803,-1.33503414395769,89.6893848736424,-35.07864653901403,0.34263867096321976,-0.027140083701209156,0.0025111291888150677
0.10500000000000008,-0.2884128474497403,0.06951926114056578,0.0539667587544952,1.4698976169908913,0.20068294788460384,-1.6634777295203305,-0.10449445968057591,0.0052753381448743895,0.006541585434053694,0.0014979483077915635,-0.0054923351120554735,0.22517539253447236,-1.34402525245372,89.69217967897063,-35.0770514965867,0.3426527623491901,-0.028477684541189957,0.0025278789675304367
0.10600000000000008,-0.28851824454785874,0.0695245820651331,0.053973356868988104,1.4698991277008466,0.20067740810547474,-1.663250609561171,-0.10629971943385841,0.005366514006720265,0.006654662486008465,0.0015246406154431082,-0.005587195853071767,0.2290633919542724,-1.3529521497357127,89.69495357906882,-35.075483985200606,0.34266633171408584,-0.029805568881015293,0.0025445032483581696
0.10700000000000008,-0.28862545284524943,0.0695299944658569,0.053980068433032984,1.4699006651899356,0.2006717731534153,-1.6630195888207144,-0.10811685772866206,0.005458290557393797,0.006768485005162444,0.0015515291248966,-0.005682680879893183,0.23297693336433697,-1.3618149951732308,89.69770661490091,-35.07394412096762,0.34267937667108195,-0.031123758201460516,0.002561002282210214
0.10800000000000008,-0.2887344841757205,0.06953549894116864,0.053986894189299,1.4699022296536939,0.2006660424064861,-1.6627846418533283,-0.10994578509107056,0.0055506632837125985,0.006883047401311397,0.0015786127007165508,-0.005778785506715217,0.23691582386081012,-1.3706139479648685,89.70043882742708,-35.0724320194769,0.3426918948484798,-0.032432273965956354,0.002577376319977891
0.10900000000000008,-0.2888453502836948,0.06954109608499097,0.05399383487487053,1.469903821286521,0.200660215247429,-1.6625457434060897,-0.11178641222415782,0.005643627681313808,0.006998344095083979,0.001605890204496578,-0.005875505056921338,0.24087987092914034,-1.3793491671334521,89.70315025760385,-35.07094779577145,0.34270388388999296,-0.03373113762041033,0.002593625612533138
0.11000000000000008,-0.2889580628243865,0.06954678648674659,0.054000891221258,1.469905440281677,0.2006542910636578,-1.6623028684183967,-0.1136386500079577,0.005737179254652471,0.0071143695179387645,0.001633360494873638,-0.005972834863073782,0.24486888244395083,-1.3880208115213168,89.70584094638401,-35.06949156432507,0.3427153414550294,-0.035020370593033784,0.0026097504107297663
0.11100000000000008,-0.28907263336397854,0.06955257073136709,0.05400806395440874,1.4699070868312796,0.2006482692472493,-1.6620559920215783,-0.11550240949943387,0.0058313135169999145,0.007231118112161313,0.0016610224275433974,-0.006070770266904661,0.24888266666890946,-1.3966290397856376,89.70851093471668,-35.06806343901947,0.3427262652189702,-0.03629999429416897,0.002625750965404658
0.11200000000000009,-0.28918907337979904,0.06955844939930171,0.054015353794717766,1.4699087611263013,0.20064214919493384,-1.6618050895385061,-0.11737760193244981,0.0059260259904421655,0.007348584330861305,0.0016888748552758644,-0.006169306619307183,0.2529210322565994,-1.4051740103938226,89.7111602635473,-35.06666353312177,0.3427366528734441,-0.0375700301161212,0.0026416275273790507
0.11300000000000009,-0.2893073942604985,0.06956442306652623,0.05402276145703864,1.469910463356567,0.2006359303080864,-1.6615501364832055,-0.11926413871773894,0.006021312205878389,0.007466762637969741,0.0017169166279317985,-0.006268439280327089,0.25698378824839013,-1.4136558816189775,89.71378897381763,-35.06529195926228,0.3427465021265993,-0.03883049943299116,0.0026573803474597047
0.11400000000000009,-0.2894276073062265,0.0695704923045517,0.05403028765069427,1.4699121937107498,0.2006296119927173,-1.6612911085604662,-0.12116193144287485,0.00611716770301934,0.0075856475082361815,0.001745146592479746,-0.0063681636191543324,0.2610707440743084,-1.4220748115354302,89.7163971064658,-35.063948829412524,0.34275581070337086,-0.04008142360051353,0.0026730096764401457
0.11500000000000009,-0.2895497237288087,0.0695766576804333,0.054037933079487746,1.4699139523763693,0.20062319365946313,-1.6610279816654545,-0.1230708918722417,0.006213588030385848,0.007705233427226063,0.0017735635930136013,-0.0064684750141148165,0.26518170955291004,-1.4304309580143075,89.7189847024263,-35.06263425486356,0.34276457634574475,-0.0413228239558944,0.0026885157651018905
0.11600000000000009,-0.2896737546519234,0.06958291975677912,0.05404569844171313,1.4699157395397886,0.20061667472357753,-1.6607607318833244,-0.1249909319470047,0.0063105687453073175,0.00782551489131806,0.001802166470770677,-0.006569368852662468,0.2693164948911516,-1.438724478719188,89.72155180262996,-35.061348346204625,0.34277279681301887,-0.042554721817653934,0.0027038988642156007
0.11700000000000009,-0.28979971111127845,0.06958927909175902,0.05405358443016628,1.4699175553862107,0.20061005460492218,-1.6604893354888295,-0.12692196378508075,0.006408105413920252,0.007946486407701502,0.0018309540641505975,-0.006670840531371397,0.2734749106842629,-1.4469555311018039,89.724098448004,-35.060091213302016,0.3427804698820595,-0.04377713848546996,0.002719159224542307
0.11800000000000009,-0.289927604054788,0.06959573623911339,0.05406159173215568,1.4699194000996765,0.2006033327279576,-1.6602137689459344,-0.12886389968110917,0.006506193611166798,0.008068142494373848,0.001859925208734484,-0.00677288545592825,0.27765676791561916,-1.455124272397812,89.72662467947202,-35.05886296527827,0.3427875933475556,-0.04499009524002612,0.00273429709683459
0.11900000000000009,-0.29005744434274916,0.06960229174816196,0.05406972102951322,1.4699212738630616,0.20059650852173408,-1.6599340089074273,-0.13081665210642263,0.006604828920793314,0.008190477680138215,0.0018890787373050278,-0.0068754990411247704,0.2818618779566142,-1.4632308596226222,89.72913053795408,-35.057663710491624,0.3427941650222676,-0.046193613342860235,0.0027493127318377318
0.12000000000000009,-0.29018924274801866,0.06960894616381261,0.054077972998605006,1.4699231768580738,0.20058958141988256,-1.6596500322145313,-0.1327801337090181,0.0067040069353489625,0.008313486504600967,0.0019184134798664917,-0.006978676710850497,0.28609005256653386,-1.4712754495672895,89.73161606436655,-35.05649355651573,0.3428001827372752,-0.04738771403621789,0.0027642063802909146
0.1210000000000001,-0.29032300995618954,0.06961570002657018,0.05408634831034217,1.4699251092652499,0.20058255086060556,-1.659361815896517,-0.13475425731352797,0.006803723256184313,0.008437163518169342,0.001947928263665999,-0.007082413898085671,0.2903411038924293,-1.4792581987944569,89.73408129962229,-35.05535261011971,0.3428056443422192,-0.04857241854290645,0.002778978292928346
0.1220000000000001,-0.29045875656576775,0.06962255387254528,0.054094847630191664,1.4699270712639532,0.200575416286668,-1.659069337170315,-0.13673893592119138,0.006903973493449973,0.008561503282049146,0.0019776219132147804,-0.007186706044894288,0.2946148444689911,-1.487179263634369,89.73652628463057,-35.054240977248384,0.3428105477055421,-0.049747748066152175,0.0027936287204804286
0.1230000000000001,-0.29059649308834873,0.06962950823346303,0.05410347161818707,1.4699290630323711,0.20056817714538827,-1.6587725734401273,-0.1387340827098255,0.0070047532660952455,0.008686500368242497,0.002007493250310225,-0.007291548602417295,0.29891108721842385,-1.4950388001809396,89.73895106029711,-35.053158763002855,0.342814890714723,-0.05091372378946116,0.0028081579136748688
0.1240000000000001,-0.29073622994879406,0.06963656363667196,0.05411222092893938,1.469931084747512,0.20056083288862903,-1.6584715022970413,-0.14073961103379715,0.007106058201866796,0.008812149359545614,0.002037541094058238,-0.007396937030866043,0.3032296454503206,-1.5028369642878772,89.74135566752406,-35.052106071621346,0.3428186712765112,-0.052070366876481144,0.0028225661232378343
0.12500000000000008,-0.2908779774854079,0.0696437206051527,0.05412109621164779,1.4699331365852022,0.20055338297278819,-1.6581661015186417,-0.14275543442399424,0.007207883937307338,0.008938444849546655,0.0020677642608963255,-0.007502866799515795,0.30757033286153806,-1.510573911564872,89.74374014721006,-35.05108300646026,0.3428218873171551,-0.05321769847086727,0.002836853599895066
0.12600000000000008,-0.29102174595011343,0.06965097965752684,0.054130098110110506,1.4699352187200845,0.20054582685878986,-1.6578563490686233,-0.14478146658779772,0.007310226117754354,0.009065381442623624,0.0020981615646169017,-0.007609333386699459,0.311932963536072,-1.5182497973738398,89.7461045402502,-35.050089669975584,0.34282453678262753,-0.05435573969614835,0.0028510205943729377
0.12700000000000009,-0.29116754550862955,0.06965834130806572,0.05413922726273551,1.4699373313256145,0.20053816401207528,-1.6575422230964039,-0.14681762140905333,0.007413080397338821,0.009192953753942303,0.002128731816391208,-0.0077163322798014635,0.3163173519449334,-1.5258647768252234,89.74844888753606,-35.04912616370448,0.3428266176388489,-0.05548451165559817,0.0028650673573996127
0.12800000000000009,-0.2913153862406471,0.06966580606669921,0.05414848430255138,1.4699394745740584,0.20053039390259372,-1.6572237019367375,-0.1488638129480436,0.007516442438983964,0.009321156409454252,0.002159473824793719,-0.007823858975251795,0.3207233129460241,-1.5334190047743554,89.7507732299557,-35.0481925882472,0.3428281278719055,-0.05660403543210843,0.0028789941397061036
0.1290000000000001,-0.2914652781400055,0.0696733744390245,0.05415786985721806,1.4699416486364902,0.20052251600479354,-1.6569007641093279,-0.15091995544146,0.007620307914404021,0.00944998404589485,0.002190386395826836,-0.007931908978520164,0.32515066178401414,-1.5409126358178673,89.7530776083937,-35.04728904324923,0.3428290654882657,-0.0577143320880619,0.002892801192027322
0.1300000000000001,-0.29161723111486887,0.06968104692631487,0.054167384549037606,1.4699438536827896,0.20051452979761308,-1.6565733883184408,-0.15298596330237518,0.007724672504103038,0.009579431310781383,0.0022214683329463128,-0.008040477804110352,0.3295992140902182,-1.5483458242901758,89.75536206373114,-35.04641562738372,0.3428294285149918,-0.058815422665212586,0.0029064887651031658
0.1310000000000001,-0.2917712549879027,0.06968882402552855,0.05417702899496503,1.469946089881639,0.20050643476447164,-1.6562415534525183,-0.1550617511202153,0.007829531897373674,0.009709492862411183,0.002252718437086714,-0.008149560975554715,0.33406878588247324,-1.5557187242599972,89.75762663684561,-35.045572438334155,0.34282921499994956,-0.05990732818456296,0.0029200571096795473
0.1320000000000001,-0.29192735949645,0.06969670622931742,0.05418680380661905,1.469948357400521,0.20049823039326042,-1.6559052385837922,-0.15714723366073255,0.007934881792296027,0.00984016336985981,0.002284135506687721,-0.008259154025408827,0.3385591935650163,-1.5630314895269484,89.75987136861126,-35.04475957277728,0.3428284230120132,-0.06099006964624901,0.0029335064765094476
0.1330000000000001,-0.2920855542927076,0.06970469402603588,0.05419670959029285,1.4699506564057165,0.2004899161763336,-1.6555644229678976,-0.1592423258659777,0.008040717895736477,0.009971437512979289,0.0023157183377206414,-0.00836925249524622,0.3430702539283625,-1.570284273618187,89.76209629989876,-35.04397712636631,0.3428270506412682,-0.06206366802942351,0.002946837116353935
0.1340000000000001,-0.29224584894390254,0.06971278789974955,0.054206746946964895,1.4699529870623018,0.20048149161049925,-1.6552190860434866,-0.16134694285427287,0.008147035923346558,0.010103309982396379,0.0023474657237151295,-0.008479851935653345,0.3476017841491838,-1.5774772297851014,89.76430147157532,-35.043225193714335,0.3428250959992101,-0.0631281442921438,0.002960049279983151
0.1350000000000001,-0.2924082529324683,0.06972098833024412,0.054216916472309674,1.4699553495341457,0.2004729561970103,-1.654869207431842,-0.1634609999201844,0.008253831599561825,0.010235775479510904,0.0023793764557867017,-0.008590947906224637,0.35215360179018795,-1.5846105110000746,89.76648692450475,-35.042503868378084,0.3428225572189405,-0.06418351937126232,0.0029731432181773435
0.1360000000000001,-0.2925727756562209,0.06972929579303412,0.05422721875670848,1.4699577439839084,0.20046430944155558,-1.6545147669364924,-0.1655844125344957,0.008361100657600772,0.010368828716494116,0.0024114493226643887,-0.00870253597555773,0.35672552479999786,-1.5916842699532876,89.76865269954737,-35.04181324284182,0.3428194324553595,-0.06522981418231724,0.002986119181727827
0.1370000000000001,-0.2927394264285354,0.06973771075937167,0.05423765438526019,1.4699601705730378,0.20045555085425076,-1.6541557445428243,-0.16771709634418053,0.00846883883946373,0.010502464416287103,0.0024436831107189035,-0.00881461172124877,0.3613173715130313,-1.5986986590495833,89.77079883756015,-35.04115340850156,0.34281571988535453,-0.0662670496194282,0.0029989774214379443
0.1380000000000001,-0.29290821447852167,0.06974623369625532,0.05424822393779202,1.469962629461768,0.20044667994962945,-1.6537921204176989,-0.16985896717237595,0.008577041895931819,0.010636677312599256,0.0024760766039908094,-0.008927170729887928,0.3659289606493813,-1.6056538304053871,89.7729253793966,-35.040524455649525,0.3428114177079875,-0.06729524655519331,0.003011718188124059
0.1390000000000001,-0.2930791489512009,0.06975486506643878,0.05425892798887032,1.4699651208091167,0.20043769624663413,-1.6534238749090642,-0.17200994101835587,0.008685705586565888,0.010771462149906756,0.0025086285842197686,-0.00904020859705503,0.3705601113146965,-1.6125499358456765,89.77503236590682,-35.03992647345884,0.34280652414467633,-0.0683144258405875,0.003024341732616452
0.1400000000000001,-0.2932522389076816,0.06976360532843971,0.05426976710781129,1.4699676447728827,0.20042859926860715,-1.6530509885455713,-0.17416993405750444,0.008794825679705489,0.010906813683451125,0.002541337830873308,-0.009153720927315234,0.37521064300006257,-1.6193871269010034,89.77711983793756,-35.03935954996848,0.3428010374393755,-0.06932460830486517,0.003036848305760287
0.1410000000000001,-0.2934274933253355,0.06977245493654852,0.05428074185869181,1.469970201509644,0.20041938854328184,-1.6526734420361877,-0.1763388626412895,0.008904397952467861,0.0110427266792378,0.00257420312117663,-0.009267703334215003,0.37988037558188315,-1.6261655548045821,89.77918783633216,-35.03882377206845,0.34279495585875236,-0.07032581475546357,0.0030492381584164966
0.1420000000000001,-0.29360492109797404,0.06978141434083712,0.054291852800360155,1.4699727911747558,0.20041006360277341,-1.652291216269813,-0.17851664329723643,0.009014418190746937,0.011179195914034773,0.002607223230142377,-0.009382151440278038,0.38456912932176207,-1.6328853704894115,89.78123640193057,-35.03831922548519,0.3427882776923599,-0.07131806597790946,0.003061511541462692
0.1430000000000001,-0.293784531036024,0.06979048398716771,0.054303100486446765,1.4699754139223475,0.20040062398357006,-1.6519042923148926,-0.1807031927289018,0.009124882189212357,0.011316216175371242,0.002640396930600766,-0.009497060877001447,0.3892767248663855,-1.639546724585469,89.78326557556943,-35.0378459947673,0.3427810012528075,-0.0723013827357275,0.0030736687057940446
0.1440000000000001,-0.2939663318667037,0.06979966431720155,0.054314485465375026,1.4699780699053213,0.20039106922652394,-1.6515126514190344,-0.18289842781584748,0.009235785751308513,0.011453782261536335,0.0026737229932300515,-0.009612427284851972,0.3940029832474048,-1.6461497674169354,89.78527539808195,-35.03740416327141,0.34277312487592776,-0.07327578577035151,0.0030857099023241536
0.1450000000000001,-0.294150332234199,0.06980895576840776,0.05432600828037201,1.4699807592753495,0.20038139887684228,-1.6511162750086223,-0.1851022656136144,0.00934712468925359,0.011591888981577845,0.0027072001865875973,-0.009728246313262405,0.39874772588131935,-1.6526946489995,89.78726591029807,-35.036993813148335,0.34276464692094016,-0.07424129580103786,0.0030976353819858944
0.1460000000000001,-0.29433654069983933,0.06981835877407205,0.054337669469479245,1.469983482182873,0.2003716124840783,-1.6507151446884325,-0.18731462335369697,0.009458894824038645,0.011730531155301026,0.002740827277140709,-0.009844513620628069,0.40351077456936046,-1.6591815190376904,89.78923715304434,-35.03661502532947,0.34275556577061195,-0.07519793352478071,0.0031094453957322605
0.1470000000000001,-0.2945249657422735,0.06982787376330551,0.054349469565563455,1.4699862387770988,0.2003617096021224,-1.650309242241248,-0.18953541844351726,0.00957109198542668,0.011869703613267415,0.0027746030292982635,-0.00996122487430342,0.40829195149737507,-1.665610526922266,89.79118916714401,-35.03626787951338,0.34274587983141586,-0.0761457196162291,0.003121140194537163
0.1480000000000001,-0.29471561575764554,0.0698375011610534,0.05436140909632734,1.4699890292059978,0.20035168978919304,-1.6498985496274745,-0.19176456846639933,0.009683712011951758,0.012009401196793707,0.0028085262054421017,-0.010078375750598797,0.4130910792357104,-1.6719818217276647,89.79312199341699,-35.035952454152714,0.3427355875336849,-0.07708467472760877,0.003132720029396273
0.1490000000000001,-0.29490849905977085,0.0698472413881039,0.054373488584320326,1.4699918536163035,0.20034155260782788,-1.6494830489847558,-0.19400199118154382,0.009796750750918098,0.012149618757950651,0.0028425955659595625,-0.010195961934777287,0.4179079807390987,-1.6782955522095013,89.79503567267989,-35.035668826441224,0.34272468733176326,-0.07801481948864361,0.003144185151327756
0.1500000000000001,-0.29510362388031186,0.06985709486109688,0.05438570854694929,1.469994712153509,0.20033129762487478,-1.6490627226275898,-0.19624760452400253,0.00991020405839922,0.012290351159561995,0.0028768098692753094,-0.010313979121051678,0.42274247934654224,-1.6845518668021,89.79693024574603,-35.035417072301115,0.3427131777041553,-0.07893617450647955,0.0031555358113730873
0.1510000000000001,-0.29530099836895396,0.0698670619925327,0.05439806949648935,1.4699976049618664,0.20032092441148294,-1.648637553046944,-0.19850132660465317,0.010024067799237089,0.012431593275203469,0.002911167871883903,-0.01043242301258151,0.42759439878119976,-1.6907509136161072,89.79880575342541,-35.035197266370595,0.34270105715367116,-0.07984876036561278,0.0031667722605977855
0.1520000000000001,-0.2955006305935813,0.06987714319078092,0.0544105719400946,1.4700005321843834,0.20031043254309386,-1.6482075229098712,-0.2007630757101742,0.010138337847041268,0.012573339989201793,0.0029456683283828403,-0.010551289321470312,0.4324635631502719,-1.6968928404361192,89.80066223652479,-35.03500948199162,0.3426883242075687,-0.080752597627817,0.003177894750092142
0.1530000000000001,-0.2957025285404525,0.06988733886008912,0.05442321637980885,1.4700034939628228,0.2002998215994324,-1.647772615059126,-0.2030327703030199,0.010253010084188103,0.012715586196633743,0.0029803099915054806,-0.01067057376876282,0.4373497969448881,-1.7029777947183926,89.8024997358476,-35.03485379119793,0.34267497741769287,-0.08164770683207659,0.0031889035309719516
0.1540000000000001,-0.29590670011437653,0.06989764940059164,0.054436003312576406,1.4700064904376995,0.20028909116449795,-1.6473328125127809,-0.20531032902139526,0.010368080401819907,0.012858326803325234,0.003015091612154179,-0.010790272084442484,0.44225292503999386,-1.709005923588575,89.80431829219408,-35.03473026470325,0.3426610153606128,-0.08253410849451842,0.003199798854379204
0.1550000000000001,-0.29611315313888836,0.06990807520831835,0.054448933230252794,1.4700095217482794,0.20027824082655532,-1.6468880984638417,-0.2075956706792314,0.010483544699844171,0.013001556725850447,0.003050011939434046,-0.010910380007428859,0.44717277269423783,-1.714977373839509,89.80611794636114,-35.03463897188973,0.3426464366377546,-0.08341182310834827,0.0032105809714827616
0.1560000000000001,-0.2963218953564247,0.06991861667520342,0.05446200661961551,1.4700125880325774,0.20026727017812596,-1.6464384562798648,-0.20988871426616074,0.010599398886932775,0.01314527089153098,0.003085069720686645,-0.011030893285575294,0.45210916554985997,-1.7208922919290706,89.80789873914247,-35.034579980796636,0.3426312398755323,-0.08428087114378904,0.003221250133479044
0.1570000000000001,-0.2965329344284998,0.06992927418909409,0.05447522396237478,1.4700156894273557,0.2002561788159789,-1.645983869502574,-0.21218937894749249,0.010715638880521223,0.013289464238435054,0.003120263701524016,-0.011151807675666633,0.4570619296325799,-1.7267508239780547,89.80966071132853,-35.034553358109235,0.3426154237254749,-0.0851412730480193,0.003231806591592653
0.1580000000000001,-0.2967462779358809,0.06994004813375941,0.05448858573518429,1.4700188260681222,0.20024496634112196,-1.6455243218474753,-0.21449758406418815,0.010832260606807895,0.013434131715376735,0.003155592625862799,-0.011273118943417003,0.4620308913514858,-1.7325531157681215,89.81140390370656,-35.0345591691479,0.3425989868643515,-0.08599304924511625,0.003242250597076999
0.1590000000000001,-0.2969619333787639,0.06995093888889904,0.054502092409651946,1.4700219980891283,0.20023363235879266,-1.6450597972034757,-0.21681324913283725,0.01094926000075331,0.013579268281915207,0.003191055235958683,-0.011394822863467718,0.4670158774989234,-1.7382993127397752,89.81312835706053,-35.03459747785741,0.34258192799429255,-0.08683622013600006,0.0032525824012149237
0.16000000000000011,-0.2971799081769493,0.06996194683015196,0.05451574445235061,1.470025205623368,0.20022217647844942,-1.6445902796324985,-0.21913629384563307,0.011066633006079386,0.013724868908354051,0.003226650272441157,-0.011516915219385327,0.47201671525038624,-1.7439895599904074,89.81483411217127,-35.03466834679655,0.3425642458429092,-0.08767080609837996,0.003262802255319277
0.16100000000000012,-0.29740020967001723,0.06997307232910528,0.05452954232482886,1.4700284488025759,0.2002105983137626,-1.644115753369101,-0.2214666380703485,0.011184375575268747,0.013870928575740592,0.0032623764743481497,-0.011639391803659646,0.4770332321644053,-1.7496240022723684,89.81652120981633,-35.03477183712783,0.3425459391634086,-0.08849682748670276,0.0032729104107335
0.16200000000000012,-0.29762284511750364,0.06998431575330297,0.0545434864836217,1.4700317277572257,0.20019889748260553,-1.6436362028200913,-0.22380420185031208,0.011302483669564012,0.014017442275865244,0.003298232579161199,-0.011762248417702037,0.48206525618244,-1.755202783991097,89.8181896907701,-35.034908008607445,0.3425270067347074,-0.08931430463210274,0.0032829071188321605
0.16300000000000012,-0.29784782169907537,0.06999567746625464,0.05455757738026134,1.4700350426165285,0.20018707360704566,-1.643151612564145,-0.22614890540438412,0.01142095325896711,0.014164405011260914,0.003334217322840718,-0.011885480871843655,0.48711261562876906,-1.7607260492032986,89.81983959580381,-35.03507691957548,0.34250744736154143,-0.09012325784235489,0.0032927926310214726
0.16400000000000012,-0.29807514651470585,0.07000715782744428,0.05457181546128791,1.4700383935084316,0.20017512631333556,-1.6426619673514233,-0.22850066912693293,0.011539780322238619,0.014311811795202432,0.0033703294398609632,-0.012009084985333795,0.4921751392103824,-1.7661939416151649,89.82147096568545,-35.03527862694633,0.3424872598745737,-0.09092370740183056,0.0033025671987398646
0.16500000000000012,-0.2983048265848506,0.07001875719233903,0.05458620116826024,1.4700417805596167,0.2001630552319041,-1.6421672521031898,-0.23085941358781106,0.01165896084689709,0.014459657651705989,0.003406567663246183,-0.012133056586338457,0.4972526560168728,-1.7716066045806362,89.82308384117991,-35.03551318619922,0.34246644313049845,-0.09171567357145197,0.0033122310734583936
0.16600000000000012,-0.29853686885062264,0.07003047591239796,0.05460073493776655,1.4700452038954988,0.20015085999734747,-1.6416674519114276,-0.23322505953233189,0.011778490829218419,0.01460793761552864,0.0034429307246059537,-0.012257391511938765,0.5023449955203284,-1.7769641810997232,89.82467826304885,-35.035780651369095,0.34244499601214284,-0.09249917658865328,0.003321784506681259
0.16700000000000012,-0.29877128017396815,0.07004231433508076,0.05461541720143522,1.4700486636402246,0.20013854024842023,-1.6411625520384578,-0.2355975278812461,0.011898366274235194,0.01475664673216782,0.0034794173541711714,-0.01238208560812974,0.5074519875752259,-1.782266813816849,89.82625427205082,-35.036081075037615,0.34242291742856606,-0.09327423666733967,0.003331227749946267
0.16800000000000012,-0.2990080673378415,0.07005427280385657,0.054630248385945546,1.4700521599166712,0.2001260956280265,-1.6406525379165566,-0.23797673973071837,0.012018583195736085,0.014905780057860876,0.00351602628083018,-0.01250713472981896,0.5125734624183237,-1.7875146450192705,89.82781190894121,-35.03641450832434,0.34240020631515533,-0.09404087399785188,0.0033405610548252196
0.16900000000000012,-0.29924723704638106,0.07006635165821268,0.054645228913038434,1.4700556928464448,0.20011352578321095,-1.6401373951475728,-0.2403626163523041,0.012139137616265235,0.01505533265958467,0.0035527562321648574,-0.012632534740825362,0.5177092506685557,-1.7927078166355137,89.8293512144723,-35.03678100087821,0.34237686163371894,-0.09479910874693007,0.003349784672924351
0.17000000000000012,-0.29948879592508426,0.07007855123366334,0.054660359199527185,1.4700592625498794,0.20010083036514997,-1.6396171095025462,-0.24275507919292647,0.012260025567121658,0.015205299615055165,0.003589605934486861,-0.01275828151387818,0.5228591833269259,-1.7978464702338681,89.83087222939318,-35.03718060086913,0.34235288237257766,-0.0955489610576804,0.003358898855884694
0.17100000000000012,-0.29973275052098314,0.07009087186175847,0.054675639657308206,1.4700628691460353,0.20008800902914267,-1.6390916669213256,-0.2451540498748532,0.012381243088358654,0.015355676012727063,0.003626574112874414,-0.012884370930615882,0.5280230917764032,-1.802930747020927,89.83237499444988,-35.03761335497982,0.34232826754665163,-0.09629045104954598,0.0033679038553825007
0.17200000000000013,-0.2999791073028197,0.07010331387009243,0.05469107069337177,1.4700665127526986,0.20007506143460208,-1.6385610535121864,-0.2475594501956739,0.012502786228783236,0.015506456951793474,0.003663659491208667,-0.013010798881585255,0.533200807781816,-1.8079607878401638,89.8338595503853,-35.038079308397826,0.34230301619754605,-0.09702359881827519,0.0033767999231295058
0.17300000000000013,-0.30022787266122103,0.07011587758231276,0.05470665270981273,1.4700701934863791,0.2000619872450461,-1.6380252555514492,-0.24997120212827711,0.012624651045955573,0.015657637542185604,0.0037008607922104707,-0.013137561266240518,0.5383921634897488,-1.8129367331705573,89.83532593793923,-35.038578504807774,0.34227712739363325,-0.09774842443589657,0.0033855873108733217
0.17400000000000013,-0.3004790529088748,0.07012856331812897,0.054722386103841274,1.47007391146231,0.20004878612808874,-1.6374842594830978,-0.25238922782082773,0.012746833606188435,0.015809212904572476,0.003738176737477233,-0.013264653992942516,0.543596991428438,-1.8178587231252608,89.83677419784837,-35.039110986383754,0.3422506002301328,-0.09846494795069202,0.003394266270397688
0.17500000000000013,-0.3007326542807043,0.07014137139332126,0.05473827126779366,1.470077666794446,0.2000354577554311,-1.6369380519183983,-0.2548134495967445,0.012869329984546655,0.015961178170360673,0.0037756060475199636,-0.013392072978958029,0.5488151245076682,-1.82272689745031,89.83820437084633,-35.03967679378198,0.34222343382918813,-0.09917318938717601,0.0034028370535228157
0.17600000000000013,-0.30098868293404396,0.07015430211974925,0.05475430858914296,1.4700814595954628,0.20002200180285257,-1.6363866196355163,-0.2572437899546774,0.012992136264846599,0.016113528481694114,0.0038131474418003066,-0.013519814150459115,0.5540463960186699,-1.827541395523376,89.83961649766363,-35.040275966133564,0.34219562733994113,-0.0998731687460718,0.003411299912105571
0.17700000000000013,-0.3012471449488143,0.0701673558053608,0.05477049845050977,1.470085289976756,0.2000084179502018,-1.635829949579137,-0.2596801715684854,0.013115248539655655,0.016266258991453845,0.003850799638767805,-0.013647873442522579,0.5592906396340165,-1.8323023563525669,89.84101061902776,-35.04090854103754,0.3421671799386035,-0.10056490600429344,0.003419655098039775
0.17800000000000013,-0.30150804632769745,0.07018053275420072,0.05478684122967298,1.47008915804844,0.1999947058813879,-1.635268028860083,-0.26212251728721425,0.013238662910291727,0.01641936486325788,0.003888561355896875,-0.013776246799129392,0.564547689407523,-1.8370099185752593,89.84238677566309,-35.04157455455406,0.3421380908285266,-0.10124842111492852,0.0034279028632563813
0.17900000000000013,-0.30177139299631184,0.07019383326641948,0.05480333729958049,1.470093063919347,0.19998086528437148,-1.634700844754933,-0.26457075013507436,0.013362375486822734,0.01657284127146104,0.0039264313097246515,-0.01390493017316433,0.569817379774144,-1.8416642204569804,89.84374500829098,-35.04227404119777,0.34210835924026683,-0.1019237340072226,0.0034360434597236916
0.18000000000000013,-0.3020371908033878,0.07020725763828205,0.054819987028359975,1.4700970076970263,0.19996689585115573,-1.6341283847056414,-0.2670247933114187,0.013486382388066131,0.016726683401154827,0.003964408215888237,-0.014033919526415594,0.5750995455498731,-1.8462653998903311,89.84508535762971,-35.04300703393142,0.34207798443165016,-0.10259086458656494,0.0034440771394475033
0.18100000000000013,-0.30230544552094263,0.07022080616217657,0.054836790779329576,1.470100989487743,0.19995279727777762,-1.6335506363191568,-0.269484570190721,0.013610679741588435,0.016880886448167338,0.004002490789162196,-0.01416321082957453,0.5803940219316418,-1.8508135943939428,89.84640786439458,-35.04377356415956,0.34204696568783316,-0.1032498327344773,0.0034520041544712824
0.18200000000000013,-0.3025761628444554,0.07023447912662316,0.05485374891100868,1.4701050093964776,0.19993856926429887,-1.632967587367041,-0.27195000432255373,0.013735263683704766,0.017035445619063182,0.004040677743496254,-0.014292800062235385,0.5857006444972203,-1.8553089411114951,89.84771256929778,-35.04457366172255,0.3420153023213616,-0.10390065830860493,0.003459824756876257
0.18300000000000013,-0.30284934839304234,0.07024827681628261,0.054870861777128625,1.470109067526925,0.19992421151479714,-1.632379225785089,-0.2744210194315667,0.013860130359478388,0.01719035613114343,0.004078967792052978,-0.01442268321289517,0.5910192492051168,-1.8597515768107447,89.84899951304855,-35.04540735489069,0.3419829936722268,-0.10454336114270671,0.0034675391987815433
0.18400000000000014,-0.30312500770963186,0.07026219951196516,0.05488812972664346,1.470113163981494,0.19990972373735702,-1.6317855396729475,-0.2768975394174653,0.01398527592272027,0.01734561321244559,0.004117359647245646,-0.014552856278953535,0.5963496723944797,-1.8641416378826223,89.85026873635306,-35.046274670358486,0.34195003910791844,-0.10517796104665125,0.0034751477323442205
0.18500000000000014,-0.30340314626113946,0.07027624749063927,0.05490555310374067,1.4701172988613056,0.19989510564406127,-1.6311865172937345,-0.27937948835498905,0.01411069653598865,0.017501212101743612,0.004155852020776022,-0.014683315266712743,0.6016917507849975,-1.8684792603403544,89.8515202799145,-35.0471756332392,0.3419164380234765,-0.10580447780641175,0.003482650609759393
0.18600000000000014,-0.30368376943864295,0.0702904210254403,0.05492313224785191,1.470121472266194,0.1998803569509818,-1.630582147073659,-0.28186679049389013,0.014236388370588621,0.017657148048547896,0.00419444362367227,-0.014814056191377715,0.6070453214768019,-1.872764579818631,89.85275418443305,-35.04811026705952,0.34188218984153895,-0.10642293118406315,0.0034900480832601916
0.18700000000000014,-0.3039668825575572,0.07030472038567932,0.05494086749366375,1.4701256842947041,0.19986547737817084,-1.6299724176016406,-0.2843593702589122,0.014362347606571709,0.017813416313105346,0.004233133166326928,-0.014945075077056126,0.6124102219503695,-1.8769977315728055,89.85397049060592,-35.04907859375441,0.34184729401238817,-0.10703334091778177,0.0034973404051178115
0.18800000000000014,-0.3042524908578095,0.07031914583685185,0.05495875917112841,1.4701299350440924,0.19985046664965195,-1.6293573176289287,-0.2868571522497694,0.014488570432735473,0.017970012166399426,0.004271919358534949,-0.01507636795675851,0.6177862900664246,-1.8811788504781448,89.85516923912732,-35.05008063366214,0.3418117500139941,-0.10763572672184704,0.003504527827641501
0.18900000000000014,-0.30454059950401396,0.07033369764064656,0.054976807605474486,1.4701342246103255,0.1998353244934112,-1.6287368360687233,-0.2893600612411248,0.01461505304662312,0.018126930890150265,0.004310800909531668,-0.015207930872398476,0.6231733640658426,-1.885308071029114,89.8563504706885,-35.051116405519544,0.3417755573520554,-0.10823010828664398,0.0035116106031784907
0.19000000000000014,-0.3048312135856471,0.07034837605495407,0.0549950131172177,1.47013855308808,0.1998200506413883,-1.6281109619957939,-0.29186802218256996,0.014741791654523106,0.01828416777681475,0.004349776528030984,-0.015339759874793024,0.6285712825695534,-1.8893855273386964,89.85751422597772,-35.05218592645737,0.3417387155600378,-0.10881650527866848,0.0035185889841139744
0.19100000000000014,-0.30512433811722217,0.07036318133387566,0.05501337602217164,1.4701429205707415,0.19980464482946753,-1.6274796846461,-0.2943809601986039,0.014868782471468778,0.018441718129586664,0.0043888449222634525,-0.015471851023662817,0.6339798845784465,-1.893411353137759,89.8586605456803,-35.053289211995846,0.34170122419921034,-0.10939493734053402,0.0035254632228709764
0.19200000000000014,-0.3054199780384645,0.07037811372773202,0.05503189663145848,1.4701473271504049,0.199789106797469,-1.626842993416411,-0.29689880058861207,0.01499602172123799,0.018599577262396843,0.004428004800014573,-0.015604200387632548,0.6393990094732742,-1.8973856817744505,89.85978947047857,-35.05442627604047,0.341663082858679,-0.10996542409097954,0.0035322335719102983
0.19300000000000014,-0.3057181382144861,0.070393173483072,0.05505057525151972,1.4701517729178735,0.19977343628913968,-1.626200877863927,-0.2994214688268462,0.015123505636352756,0.018757740499913335,0.0044672548686629145,-0.015736804044231417,0.6448284970145582,-1.9013086462136342,89.860901041052,-35.05559713087786,0.3416242911554174,-0.1105279851248786,0.0035389002837303237
0.19400000000000014,-0.3060188234359607,0.07040836084268137,0.05506941218412694,1.4701562579626584,0.1997576330521445,-1.6255533277058978,-0.3019488905624034,0.015251230458078914,0.01891620317754162,0.004506593835218192,-0.015869658079893524,0.6502681873424945,-1.9051803790363735,89.86199529807705,-35.05680178717187,0.3415848487342964,-0.11108264001325427,0.00354546361086691
0.19500000000000015,-0.3063220384192984,0.07042367604559152,0.05508840772639253,1.4701607823729788,0.19974169683805743,-1.6249003328192446,-0.3044809916192058,0.015379192436425767,0.019074960641424797,0.004546020406359794,-0.016002758589958484,0.6557179209768594,-1.9090010124394423,89.86307228222726,-35.058040253959845,0.3415447552681097,-0.11162940830329016,0.003551923805893177
0.19600000000000015,-0.3066277878068206,0.07043911932708825,0.055107562170780416,1.470165346235761,0.1997256274023526,-1.6242418832401795,-0.30701769799598017,0.015507387830145766,0.01923400824844384,0.004585533288474827,-0.016136101678671994,0.6611775388169169,-1.9127706782348697,89.86413203417328,-35.059312538649046,0.3415040104575984,-0.112168309518346,0.0035582811214193186
0.19700000000000015,-0.3069360761669348,0.0704546909187205,0.05512687580511681,1.4701699496366385,0.1997094245043954,-1.6235779691638268,-0.3095589358662379,0.01563581290673418,0.01939334136621783,0.004625131187696567,-0.01626968345918643,0.6666468821413244,-1.9164895078495379,89.86517459458284,-35.0606186470132,0.3414626140314724,-0.1126993631579756,0.0035645358100923506
0.19800000000000015,-0.3072469079943093,0.07047039104830907,0.05514634891260096,1.4701745926599519,0.19969308790743354,-1.622908580943843,-0.3121046315782546,0.01576446394242879,0.019552955373104246,0.004664812809942556,-0.016403500053561535,0.6721257926080417,-1.9201576323248004,89.86620000412073,-35.06195858318931,0.3414205657464294,-0.11322258869794594,0.0035706881245958773
0.19900000000000015,-0.3075602877100481,0.0704862199399554,0.05516598177181584,1.4701792753887482,0.19967661737858813,-1.622233709092038,-0.31465471165505016,0.015893337222209588,0.01971284565819925,0.004704576860953021,-0.01653754759276517,0.6776141122542381,-1.923775182316144,89.86720830344888,-35.06333234967453,0.34137786538717296,-0.11373800559025615,0.003576738317649809
0.20000000000000015,-0.3078762196618655,0.07050217781405024,0.05518577465673897,1.4701839979047813,0.19966001268884484,-1.621553344277996,-0.317209102794369,0.016022429039798464,0.019873007621338,0.004744422046329203,-0.01667182221667409,0.6831116834962009,-1.9273422880928868,89.86819953322633,-35.06473994732329,0.34133451276642546,-0.11424563326316003,0.0035826866420100487
0.20100000000000015,-0.3081947081242608,0.07051826488728251,0.05520572783675306,1.4701887602885113,0.19964327361304493,-1.6208674773286957,-0.31976773186865987,0.016151735697658938,0.02003343667309497,0.004784347071571494,-0.016806320074074746,0.6886183491292449,-1.9308590795379115,89.86917373410922,-35.06618137534449,0.34129050772494157,-0.11474549112119076,0.0035885333504681502
0.20200000000000015,-0.30851575729869307,0.07053448137264792,0.05522584157665683,1.4701935626191047,0.19962639992987638,-1.6201760992281324,-0.32233052592505645,0.016281253506995868,0.020194128234784312,0.004824350642117788,-0.016941037322664144,0.6941339523276214,-1.9343256861474394,89.87013094675082,-35.06765663129896,0.3412458501315184,-0.1152375985451862,0.0035942786958510146
0.20300000000000015,-0.3088393713137558,0.0705508274794578,0.05524611613667571,1.4701984049744343,0.19960939142186493,-1.6194792011169383,-0.3248974121853576,0.016410978787755173,0.020355077738460202,0.004864431463381896,-0.017075970129050783,0.6996583366444282,-1.937742237030827,89.87107121180154,-35.06916571109699,0.3412005398830024,-0.11572197489231534,0.0035999229310204536
0.20400000000000015,-0.3091655542253515,0.0705673034133478,0.05526655177247258,1.4702032874310793,0.1995922478753652,-1.6187767742920038,-0.32746831804600784,0.016540907868623583,0.020516280626917235,0.00490458824079164,-0.017211114668755582,0.70519134601152,-1.9411088609104064,89.87199456990894,-35.07070860899607,0.3411545769042952,-0.11619863949610637,0.0036054663088728144
0.20500000000000015,-0.3094943100168666,0.07058390937628663,0.05528714873515854,1.470208210064325,0.19957496908055175,-1.6180688102060992,-0.3300431710780779,0.016671037087028377,0.020677732353690824,0.004944819679826972,-0.01734646712621286,0.7107328247394195,-1.944425686121372,89.87290106171768,-35.07228531759878,0.34110796114835706,-0.11666761166647985,0.0036109090823385616
0.20600000000000016,-0.30982564259934564,0.0706006455665848,0.0553079072713036,1.4702131729481633,0.19955755483141024,-1.6173553004674954,-0.33262189902724537,0.01680136278913712,0.020839428383057607,0.004985124486058525,-0.017482023694771386,0.7162826175172282,-1.9476928406116714,89.87379072786965,-35.07389582785079,0.3410606925962078,-0.11712891068977732,0.0036162515043817994
0.20700000000000016,-0.31015955581166615,0.07061751217890337,0.055328827622947475,1.4702181761552928,0.19954000492572846,-1.6166362368395863,-0.33520442981377563,0.016931881329857443,0.021001364190035884,0.005025501365185579,-0.017617780576695472,0.7218405694125388,-1.9509104519419673,89.87466360900385,-35.07554012903913,0.34101277125692536,-0.1175825558287972,0.0036214938279998193
0.20800000000000016,-0.3104960534207132,0.0706345094042627,0.055349910027610284,1.4702232197571183,0.19952231916508736,-1.6159116112405096,-0.3377906915325025,0.017062589072836795,0.021163535260386074,0.005065949023074302,-0.017753733983166056,0.727406525871347,-1.954078647285601,89.87551974575646,-35.07721820879048,0.34096419716764226,-0.11802856632282907,0.0036266363062225715
0.20900000000000016,-0.31083513912155386,0.07065163743005118,0.05537115471830333,1.470228303823752,0.19950449735485223,-1.6151814157427686,-0.3403806124528094,0.017193482390462214,0.02132593709061116,0.005106466165795788,-0.017889880134281857,0.7329803327179647,-1.95719755342862,89.87635917876086,-35.07893005306967,0.34091497039354035,-0.11846696138769092,0.003631679192112167
0.21000000000000016,-0.31117681653761187,0.07066889644003395,0.05539256192353982,1.4702334284240126,0.19948653930416374,-1.6144456425728542,-0.3429741210186102,0.01732455766386012,0.02148856518795719,0.0051470514996643305,-0.018026215259060587,0.7385618361549328,-1.9602672967698052,89.87718194864762,-35.08067564617837,0.3408650910278427,-0.11889776021576695,0.0036366227387623026
0.21100000000000016,-0.31152108922084204,0.07068628661436166,0.055414131867345603,1.4702385936254265,0.199468444825929,-1.613704284110866,-0.34557114584833065,0.01745581128289609,0.02165141507041376,0.005187703731275258,-0.018162735595440137,0.7441508827629353,-1.9632880033207654,89.87798809604443,-35.08245497075388,0.3408145591918034,-0.11932098197604799,0.0036414671992976862
0.21200000000000016,-0.31186796065190486,0.07070380812957922,0.055435864769269934,1.470243799494228,0.19945021373681265,-1.6129573328901352,-0.34817161573488953,0.017587239646174656,0.021814482266714525,0.005228421567543178,-0.018299437390279866,0.7497473195007132,-1.9662597987060448,89.8787776615763,-35.08426800776807,0.34076337503469617,-0.11973664581417215,0.003646212826873445
0.21300000000000016,-0.3122174342403409,0.0707214611586345,0.0554577608443962,1.4702490460953586,0.199431845857228,-1.612204781596846,-0.35077545964567985,0.017718839161039106,0.021977762316337735,0.005269203715739762,-0.018436316899361843,0.7553509937049793,-1.9691828081632614,89.87955068586534,-35.0861147365265,0.3407115387337993,-0.12014477085246913,0.003650859874674482
0.21400000000000016,-0.3125695133247452,0.0707392458708871,0.055479820303352675,1.4702543334924687,0.19941334101132804,-1.611446623069658,-0.3533826067225506,0.01785060624357129,0.02214125076950676,0.005310048883531839,-0.018573370387392287,0.7609617530903333,-1.972057156543303,89.88030720953094,-35.08799513466766,0.34065905049437945,-0.12054537619000413,0.0036554085959148567
0.21500000000000016,-0.31292420117294206,0.07075716243211712,0.05550204335232327,1.4702596617479176,0.1993946990269965,-1.6106828502993276,-0.35599298628178816,0.017982537318591434,0.02230494318719066,0.0053509557790191705,-0.018710594128002803,0.7665794457491772,-1.9748829683105118,89.8810472731897,-35.089909178162365,0.34060591054967343,-0.12093848090262294,0.003659859243837063
0.21600000000000016,-0.31328150098215907,0.0707752110045338,0.05552443019305826,1.4702650309227732,0.19937591973583896,-1.6099134564283308,-0.35860652781409785,0.018114628819657967,0.02246883514110474,0.005391923110772284,-0.018847984403751836,0.7722039201516319,-1.9776603675429512,89.88177091745543,-35.09185684131332,0.3405521191608671,-0.12132410404300162,0.003664212071711348
0.21700000000000016,-0.31364141587920163,0.07079339174678434,0.055546981022885064,1.4702704410768137,0.1993570029731739,-1.609138434750486,-0.36122316098458584,0.01824687718906734,0.022632922213711135,0.005432949587870273,-0.018985537506126107,0.7778350251454528,-1.9803894779326696,89.88247818293921,-35.093838096754766,0.34049767661707314,-0.12170226464069367,0.0036684673328350004
0.21800000000000017,-0.31400394892062755,0.07081170481396262,0.055569696034718945,1.4702758922685273,0.19933794857802384,-1.6083577787105754,-0.36384281563274096,0.01837927887785387,0.022797199998219428,0.005474033919938398,-0.019123249735542032,0.7834726099559478,-1.983070422786005,89.88316911024937,-35.09585291545233,0.34044258323530585,-0.12207298170218142,0.003672625280531568
0.21900000000000017,-0.31436910309292115,0.07083015035761794,0.0555925754170738,1.470281384555113,0.1993187563931063,-1.6075714819039681,-0.3664654217724166,0.018511830345789564,0.022961664098587225,0.0055151748171858314,-0.019261117401347217,0.7891165241858944,-1.9857033250239262,89.88384373999145,-35.097901266703005,0.3403868393604548,-0.12243627421092773,0.003676686168150092
0.22000000000000017,-0.31473688131266775,0.07084872852576375,0.05561561935407288,1.4702869179924813,0.19929942626482497,-1.6067795380762429,-0.36909090959181273,0.018644528061383978,0.023126310129520794,0.00555637099044329,-0.01939913682182198,0.7947666178154573,-1.988288307182401,89.88450211276827,-35.09998311813522,0.3403304453652555,-0.12279216112743024,0.003680650249064326
0.22100000000000017,-0.31510728642672803,0.07086743946288637,0.05563882802545956,1.4702924926352545,0.19927995804326065,-1.6059819411228098,-0.37171920945345815,0.018777368501884068,0.023291133716475707,0.005597621151200363,-0.019537304324180906,0.8004227412021073,-1.9908254914127999,89.88514426917996,-35.10209843570914,0.3402734016502587,-0.12314066138927646,0.0036845177766718744
0.22200000000000017,-0.31548032121241226,0.07088628330995377,0.055662201606608085,1.470298108536768,0.1992603515821625,-1.6051786850885343,-0.3743502518941926,0.018910348153274043,0.023456130495657476,0.005638924011643076,-0.01967561624457441,0.80608474508054,-1.9933149994823158,89.88577024982386,-35.10424718371701,0.3402157086437977,-0.1234817939111971,0.003688289004393348
0.22300000000000017,-0.31585598837765466,0.07090526020442425,0.0556857402685343,1.4703037657490698,0.19924060673893892,-1.6043697641673593,-0.376983967625149,0.019043463510275232,0.023621296114022215,0.0056802782846911825,-0.01981406892809029,0.8117524805625949,-1.9957569527744405,89.88638009529464,-35.106429324783704,0.3401573668019532,-0.12381557758512943,0.003691964185671512
0.22400000000000017,-0.3162342905611877,0.07092437028025525,0.05570944417790643,1.4703094643229233,0.19922072337464874,-1.603555172701928,-0.37962028753173627,0.019176711076345953,0.023786626229277318,0.005721682684035597,-0.019952658728755415,0.8174257991371756,-1.9981514722894436,89.88697384618423,-35.10864481986738,0.34009837660851644,-0.12414203128027146,0.0036955435739703594
0.22500000000000017,-0.3166152303327163,0.07094361366791202,0.055733313497055806,1.470315204307806,0.19920070135399218,-1.6027349051832067,-0.38225914267362127,0.01931008736368139,0.023952116509882136,0.0057631359241753855,-0.020091382009537355,0.82310455267017,-2.0004986786449024,89.88755154308188,-35.110893628260285,0.34003873857495037,-0.12446117384314484,0.003699027422774185
0.22600000000000017,-0.31699881019309223,0.07096299049437639,0.05575734838398764,1.4703209857519115,0.199180540545302,-1.6019089562501088,-0.3849004642847118,0.019443588893213473,0.024117762635048678,0.0058046367204551,-0.020230235142345974,0.8287885934043707,-2.0027986920762433,89.88811322657415,-35.11317570758966,0.33997845324034887,-0.12477302409765736,0.003702415985586644
0.22700000000000017,-0.3173850325744881,0.07098250088315551,0.05578154899239175,1.47032680870215,0.1991602408205345,-1.601077320689117,-0.38754418377313915,0.01957721219461077,0.02428356029474231,0.0058461837891015354,-0.02036921450803527,0.8344777739593968,-2.005051632437339,89.88865893724488,-35.11549101381882,0.33991752117139423,-0.12507760084516584,0.003705709515929773
0.22800000000000017,-0.3177738998405717,0.07100214495429057,0.05580591547165335,1.470332673204149,0.19913980205526055,-1.6002399934339067,-0.390190232721241,0.01971095380627836,0.024449505189682485,0.0058877758472610274,-0.02050831649640496,0.8401719473316149,-2.0072576192011,89.88918871567527,-35.117839501248355,0.3398559429623119,-0.12537492286454052,0.0037089082673429845
0.22900000000000018,-0.3181654142866803,0.07102192282436552,0.055830447966863775,1.4703385793022552,0.19911922412865676,-1.5993969695649697,-0.39283854288554404,0.019844810275357765,0.02461559303134346,0.005929411613036042,-0.020647537506202324,0.8458709668940617,-2.0094167714601254,89.88970260244382,-35.12022112251744,0.33979371923482465,-0.12566500891223203,0.0037120124933820503
0.23000000000000018,-0.31855957813999475,0.07104183460651588,0.05585514661883124,1.470344527039534,0.19909850692349643,-1.5985482443092371,-0.39548904619674735,0.019978778157726817,0.02478181954195504,0.005971089805522149,-0.020786873945123907,0.8515746863963665,-2.0115292079273677,89.89020063812636,-35.122635828605304,0.33973085063810327,-0.1259478777223381,0.0037150224476180343
0.23100000000000018,-0.31895639355971356,0.07106188041043737,0.05588001156409161,1.4703505164577717,0.19907765032614058,-1.597693813039703,-0.3981416747597051,0.020112854017999587,0.024948180454503328,0.0060128091448444915,-0.020926322229817343,0.857282959964674,-2.0135950469368313,89.89068286329609,-35.1250835688328,0.33966733784871694,-0.1262235480066744,0.003717938383636254
0.23200000000000018,-0.31935586263722715,0.07108206034239475,0.055905042934919144,1.470356547597476,0.19905665422652907,-1.5968336712750477,-0.4007963608534098,0.020247034429526297,0.025114671512731484,0.006054568352194561,-0.021065878785883105,0.8629956421015682,-2.015614406444296,89.89114931852353,-35.12756429086412,0.3396031815705805,-0.12649203845484205,0.003720760555035128
0.23300000000000018,-0.3197579873962919,0.07110237450523048,0.05593024085933726,1.4703626204978772,0.19903551851817164,-1.595967814679262,-0.4034530369309758,0.020381315974393226,0.025281288471140494,0.006096366149866517,-0.02120554004787639,0.8687125876859962,-2.0175874040280695,89.8916000443766,-35.13007794070867,0.33953838253490076,-0.12675336773430157,0.0037234892154251143
0.23400000000000018,-0.3201627697932044,0.07112282299837348,0.05595560546112929,1.4703687351969295,0.1990142430981389,-1.59509623906127,-0.40611163561962227,0.02051569524342265,0.02544802709498995,0.00613820126129367,-0.02134530245930894,0.8744336519731926,-2.0195141568897683,89.89203508142053,-35.132624462722944,0.33947294150011986,-0.1270075544904448,0.003726124618427508
0.23500000000000018,-0.32057021171697536,0.07114340591784792,0.05598113685984925,1.4703748917313115,0.1989928278670534,-1.5942189403745535,-0.4087720897206568,0.02065016883617276,0.025614883160298845,0.0061800724110846845,-0.021485162472650914,0.8801586905946042,-2.0213947818551303,89.89245447021794,-35.13520379961272,0.33940685925185843,-0.12725461734666904,0.0037286670176733074
0.23600000000000018,-0.32098031498950386,0.07116412335628183,0.05600683517083256,1.4703810901364285,0.19897127272908074,-1.5933359147167754,-0.411434332209459,0.020784733360937592,0.025781852453846357,0.006221978325059864,-0.021625116549332742,0.8858875595578156,-2.023229395374848,89.89285825132886,-35.1378158924352,0.3393401366028554,-0.1274945749044535,0.003731116666802017
0.23700000000000018,-0.3213930813657513,0.07118497540291598,0.05603270050520686,1.4703873304464128,0.19894957759192047,-1.592447158329404,-0.41409829623546396,0.02091938543474697,0.02594893077317267,0.006263917730287128,-0.021765161159747085,0.8916201152464751,-2.025018113525432,89.89324646531067,-35.14046068060136,0.3392727743929066,-0.1277274457434338,0.0037334738194603977
0.23800000000000018,-0.3218085125339155,0.0712059621436125,0.056058732969902735,1.4703936126941253,0.19892774236679722,-1.5915526675973366,-0.41676391512214606,0.021054121683366452,0.026116113926579785,0.00630588935511794,-0.02190529278325066,0.8973562144202207,-2.026761052010101,89.89361915271813,-35.143138101878414,0.3392047734888017,-0.12795324842148337,0.003735738729301261
0.23900000000000018,-0.32222661011560483,0.07122708366086368,0.05608493266766448,1.4703999369111567,0.19890576696845175,-1.5906524390485237,-0.41943112236700264,0.021188938741297268,0.02628339773313235,0.0063478919292231295,-0.022045507908166263,0.9030957142146069,-2.028458326159701,89.89397635410346,-35.145848092392406,0.3391361347842595,-0.12817200147479027,0.0037379116499821866
0.24000000000000019,-0.3226473756660119,0.0712483400338007,0.05611129969706089,1.470406303127829,0.19888365131513192,-1.5897464693535932,-0.42209985164153807,0.021323833251776274,0.026450778022658484,0.00638992418362874,-0.02218580303178469,0.9088384721410316,-2.0301100509336525,89.89431811001624,-35.14859058663086,0.3390668591998611,-0.12838372341793905,0.0037399928351642352
0.2410000000000002,-0.32307081067408794,0.07126973133820237,0.05613783415249598,1.4704127113731964,0.19886139532858377,-1.5888347553254745,-0.4247700367912476,0.02145880186677591,0.026618250635750625,0.006431984850751534,-0.022326174660366647,0.9145843460866644,-2.0317163409209105,89.89464446100348,-35.15136551744563,0.33899694768298094,-0.1285884327439921,0.003741982538510629
0.2420000000000002,-0.32349691656271656,0.07129125764650379,0.05616453612421979,1.470419161675048,0.1988389989340425,-1.587917293919023,-0.42744161183560136,0.02159384124700417,0.026785811423766383,0.006474072664434462,-0.02246661930914479,0.9203331943143739,-2.033277310340974,89.89495544760959,-35.15417281605584,0.3389264012077173,-0.12878614792457266,0.0037438810136854487
0.2430000000000002,-0.32392569468888777,0.0713129190278052,0.05619140569833912,1.4704256540599072,0.19881646206022358,-1.5869940822306436,-0.4301145109680287,0.021728948061904535,0.026953456248829385,0.006516186359982118,-0.022607133502325707,0.9260848754626567,-2.0347930730448915,89.89525111037646,-35.15701241205089,0.33885522077482033,-0.12897688740994911,0.003745688514352208
0.2440000000000002,-0.3243571463438719,0.07133471554788065,0.056218442956828325,1.4704321885530351,0.19879378463931363,-1.5860651174979163,-0.43278866855590226,0.021864118989655977,0.02712118098383015,0.006558324674196016,-0.022747713773091916,0.931839248545566,-2.0362637425163306,89.89553148984336,-35.15988423339366,0.3387834074116178,-0.12916066962912096,0.00374740529417254
0.2450000000000002,-0.3247912727533937,0.07135664726918672,0.05624564797754006,1.470438765178431,0.19877096660696164,-1.5851303970992199,-0.4354640191405223,0.021999350717172905,0.027288981512426966,0.006600486345409614,-0.02288835666360385,0.9375961729526412,-2.03768943187263,89.89579662654707,-35.16278820642376,0.3387109621719406,-0.12933751298990542,0.0037490316068047647
0.2460000000000002,-0.32522807507780604,0.07137871425087132,0.05627302083421606,1.4704453839588338,0.19874800790226982,-1.5841899185533568,-0.4381404974371012,0.022134639940105165,0.02745685372904676,0.0066426701135232444,-0.02302905872500196,0.943355508448838,-2.039070253865914,89.89604656102173,-35.16572425586096,0.33863788613604523,-0.12950743587902508,0.0037505677059024574
0.2470000000000002,-0.3256675544122639,0.07140091654878236,0.05630056159649789,1.4704520449157246,0.1987249084677847,-1.5832436795191773,-0.4408180383347479,0.022269983362838,0.027624793538885986,0.006684874720039212,-0.023169816517408705,0.9491171151744581,-2.0404063208842067,89.89628133379902,-35.16869230480862,0.3385641804105355,-0.12967045666219676,0.0037520138451129985
0.2480000000000002,-0.3261097117868983,0.07142325421547652,0.05632827032993775,1.470458748069327,0.19870166824948815,-1.582291677795205,-0.44349657689645255,0.022405377698492043,0.027792796857911528,0.006727098908096346,-0.02331062660993061,0.9548808536450804,-2.041697744952585,89.89650098540807,-35.17169227475741,0.3384898461282821,-0.1298265936842223,0.00375337027807612
0.2490000000000002,-0.32655454816699003,0.07144572730022798,0.05635614709600922,1.4704654934386099,0.19867828719678837,-1.5813339113192606,-0.44617604835907115,0.02254081966892331,0.02796085961286159,0.006769341422504734,-0.023451485580660326,0.960646584751492,-2.04294463773435,89.89670555637545,-35.17472408558894,0.3384148844483405,-0.12997586526908006,0.0037546372584223876
0.25000000000000017,-0.32700206445314384,0.07146833584903717,0.056384191952118023,1.4704722810412885,0.19865476526251089,-1.5803703781680876,-0.44885638813331025,0.02267630600472318,0.02812897774124661,0.006811601009780024,-0.023592390016678753,0.96641416975962,-2.044147110532223,89.89689508722523,-35.17778765557966,0.33833929655586786,-0.1301182897200164,0.003755815039771702
0.25100000000000017,-0.32745226148146184,0.07149107990463946,0.05641240495161283,1.470479110893826,0.19863110240288961,-1.5794010765569766,-0.4515375318037118,0.0228118334452184,0.02829714719135016,0.00685387641817805,-0.023733336514057058,0.9721834703104631,-2.045305274289571,89.897069618479,-35.18088290140476,0.33826308366203744,-0.13025388531964113,0.0037569038757317647
0.25200000000000017,-0.3279051400237176,0.07151395950651394,0.05644078614379601,1.470485983011436,0.19860729857755782,-1.5784260048393906,-0.4542194151286383,0.022947398738471087,0.028465363922229894,0.006896166397728696,-0.023874321677858797,0.9779543484200249,-2.0464192395916485,89.89722919065576,-35.18400973814226,0.33818624700395206,-0.13038267033002043,0.003757904019896487
0.25300000000000017,-0.3283607007875301,0.07153697469089214,0.0564693355739344,1.4704928974080838,0.19858335374953914,-1.5774451615065899,-0.4569019740402574,0.023082998641278718,0.02863362390371844,0.0069384697002702125,-0.02401534212214207,0.9837266664792461,-2.047489116666867,89.89737384427212,-35.187168079277136,0.33810878784455595,-0.13050466299277436,0.0037588157258444496
0.25400000000000017,-0.3288189444165371,0.07156012549076676,0.0564980532832701,1.470499854096488,0.19855926788523864,-1.5764585451872573,-0.4595851446445275,0.023218629919174148,0.028801923116424356,0.00698078507948309,-0.024156394469961543,0.9895002872539381,-2.0485150153880896,89.89750361984213,-35.19035783670562,0.33803070747254454,-0.13061988152917245,0.003759639247137286
0.25500000000000017,-0.3292798714905692,0.07158341193590041,0.056526939309031236,1.4705068530881227,0.19853504095443372,-1.575466154647123,-0.4622688632211825,0.023354289346425614,0.028970257551733054,0.0070231112909238365,-0.02429747535337061,0.9952750738847169,-2.049497045273945,89.89761855787737,-35.19357892073955,0.3379520072022733,-0.1307283441402335,0.003760374837318048
0.25600000000000017,-0.32974348252582364,0.07160683405283436,0.056555993684442744,1.4705138943932194,0.19851067293026517,-1.5744679887885897,-0.46495306622371735,0.02348997370603675,0.02913862321180774,0.007065447092058598,-0.02443858141342355,1.0010508898869375,-2.0504353154901716,89.89771869888693,-35.19683124011081,0.3378726883736645,-0.13083006900682376,0.0037610227499095747
0.2570000000000002,-0.33020977797503803,0.07163039186489722,0.056585216438737145,1.4705209780207693,0.19848616378922818,-1.5734640466503589,-0.4676376902793733,0.023625679789746605,0.029307016109590377,0.007107791242296643,-0.024579709300177607,1.006827599150628,-2.0513299348509677,89.89780408337748,-35.200114701976,0.3377927523521129,-0.1309250742897561,0.003761583238412823
0.2580000000000002,-0.3306787582276639,0.07165408539221378,0.056614607597165315,1.470528103978524,0.19846151351116328,-1.572454327407055,-0.4703226721891233,0.023761404398029658,0.029475432268802615,0.00715014250302377,-0.024720855672695153,1.0126050659404253,-2.0521810118203927,89.8978747518532,-35.203429211921,0.33771220052839007,-0.13101337812989486,0.0037620565563051987
0.2590000000000002,-0.3311504236100407,0.07167791465171364,0.05664416718100728,1.4705352722729987,0.19843672207924745,-1.5714388303688516,-0.4730079489276577,0.023897144340095846,0.029643867723946775,0.0071924996376355,-0.024862017199045853,1.0183831548955107,-2.0529886545137552,89.8979307448158,-35.20677467396583,0.33763103431854613,-0.13109499864825375,0.0037624429570388336
